;FLAVOR:Marlin
;TIME:9020
;Filament used: 11.7885m
;Layer height: 0.24
;MINX:62.408
;MINY:73.181
;MINZ:0.288
;MAXX:157.626
;MAXY:143.626
;MAXZ:31.278
;Generated with Cura_SteamEngine 5.2.1
M140 S60
M105
M190 S60
M104 S210
M105
M109 S210
M82 ;absolute extrusion mode
; Ender 3 Custom Start G-code
G92 E0 ; Reset Extruder
G28 ; Home all axes
G1 Z2.0 F3000 ; Move Z Axis up little to prevent scratching of Heat Bed
G1 X0.1 Y20 Z0.3 F5000.0 ; Move to start position
G1 X0.1 Y200.0 Z0.3 F1500.0 E15 ; Draw the first line
G1 X0.4 Y200.0 Z0.3 F5000.0 ; Move to side a little
G1 X0.4 Y20 Z0.3 F1500.0 E30 ; Draw the second line
G92 E0 ; Reset Extruder
G1 Z2.0 F3000 ; Move Z Axis up little to prevent scratching of Heat Bed
G1 X5 Y20 Z0.3 F5000.0 ; Move over to prevent blob squish
G92 E0
G92 E0
G1 F2700 E-5
;LAYER_COUNT:125
;LAYER:-6
M107
G0 F12000 X83.612 Y81.477 Z0.288
;TYPE:SUPPORT-INTERFACE
G1 F2700 E0
G1 F1125 X83.468 Y81.721 E0.04071
G1 X83.35 Y81.95 E0.07772
G1 X83.142 Y82.436 E0.15368
G1 X64.072 Y134.831 E8.16513
G1 X63.927 Y135.274 E8.23211
G1 X63.814 Y135.735 E8.30031
G1 X63.707 Y136.339 E8.38844
G1 X63.663 Y136.732 E8.44526
G1 X63.663 Y137.583 E8.56754
G1 X63.709 Y137.978 E8.62468
G1 X63.837 Y138.696 E8.72947
G1 X63.938 Y139.045 E8.78167
G1 X64.199 Y139.77 E8.89239
G1 X64.374 Y140.116 E8.9481
G1 X64.751 Y140.769 E9.05644
G1 X64.974 Y141.072 E9.11049
G1 X65.451 Y141.64 E9.21707
G1 X65.725 Y141.902 E9.27154
G1 X66.299 Y142.382 E9.37905
G1 X66.613 Y142.592 E9.43333
G1 X67.167 Y142.913 E9.52532
G1 X67.526 Y143.092 E9.58296
G1 X68.215 Y143.341 E9.68823
G1 X68.595 Y143.453 E9.74515
G1 X69.422 Y143.6 E9.86584
G1 X69.818 Y143.626 E9.92286
G1 X70.569 Y143.625 E10.03077
G1 X70.948 Y143.581 E10.08559
G1 X71.64 Y143.461 E10.1865
G1 X72.014 Y143.361 E10.24213
G1 X72.316 Y143.266 E10.28762
G1 X152.07 Y114.24 E22.48231
G1 X152.714 Y113.947 E22.58397
G1 X153.235 Y113.662 E22.66929
G1 X153.776 Y113.315 E22.76164
G1 X154.025 Y113.125 E22.80664
G1 X154.213 Y112.96 E22.84259
G1 X154.414 Y112.759 E22.88343
G1 X154.643 Y112.5 E22.9331
G1 X154.993 Y112.058 E23.01411
G1 X155.277 Y111.652 E23.0853
G1 X155.416 Y111.413 E23.12503
G1 X155.582 Y111.095 E23.17657
G1 X155.693 Y110.861 E23.21378
G1 X155.873 Y110.514 E23.26995
G1 X156.028 Y110.095 E23.33414
G1 X156.11 Y109.813 E23.37634
G1 X156.186 Y109.478 E23.4257
G1 X156.296 Y108.822 E23.52127
G1 X156.351 Y108.289 E23.59826
G1 X156.356 Y108.162 E23.61652
G1 X156.36 Y108.04 E23.63406
G1 X156.351 Y107.745 E23.67647
G1 X156.326 Y107.481 E23.71457
G1 X156.272 Y107.144 E23.76361
G1 X156.11 Y106.415 E23.87091
G1 X155.931 Y105.815 E23.96087
G1 X147.416 Y82.432 E27.53646
G1 X147.246 Y82.008 E27.6021
G1 X147.053 Y81.65 E27.66054
G1 X146.896 Y81.4 E27.70295
G1 X146.735 Y81.177 E27.74247
G1 X146.56 Y80.962 E27.7823
G1 X146.371 Y80.758 E27.82226
G1 X146.164 Y80.563 E27.86312
G1 X145.963 Y80.394 E27.90086
G1 X145.727 Y80.221 E27.9429
G1 X145.494 Y80.072 E27.98264
G1 X145.263 Y79.943 E28.02065
G1 X144.996 Y79.816 E28.06314
G1 X144.739 Y79.714 E28.10287
G1 X144.492 Y79.635 E28.14013
G1 X144.211 Y79.562 E28.18184
G1 X143.945 Y79.509 E28.22081
G1 X143.662 Y79.474 E28.26179
G1 X143.22 Y79.449 E28.3254
G1 X142.995 Y79.461 E28.35777
G1 X142.265 Y79.464 E28.46266
G1 X141.92 Y79.446 E28.5123
G1 X132.488 Y79.444 E29.86752
G1 X131.477 Y79.344 E30.0135
G1 X130.806 Y79.17 E30.1131
G1 X130.15 Y78.91 E30.21449
G1 X129.547 Y78.575 E30.3136
G1 X128.952 Y78.141 E30.41942
G1 X128.446 Y77.663 E30.51943
G1 X127.983 Y77.093 E30.62495
G1 X127.769 Y76.765 E30.68122
G1 X127.772 Y76.749 E30.68356
G1 X127.543 Y76.407 E30.7427
G1 X127.377 Y76.176 E30.78357
G1 X127.202 Y75.962 E30.82329
G1 X127.013 Y75.758 E30.86325
G1 X126.806 Y75.563 E30.90411
G1 X126.605 Y75.394 E30.94184
G1 X126.369 Y75.221 E30.98389
G1 X126.136 Y75.072 E31.02362
G1 X125.905 Y74.943 E31.06164
G1 X125.638 Y74.816 E31.10412
G1 X125.381 Y74.714 E31.14385
G1 X125.134 Y74.635 E31.18111
G1 X124.853 Y74.562 E31.22283
G1 X124.587 Y74.509 E31.2618
G1 X124.305 Y74.474 E31.30263
G1 X123.812 Y74.446 E31.37358
G1 X106.697 Y74.446 E33.83273
G1 X106.053 Y74.505 E33.92565
G1 X105.61 Y74.58 E33.9902
G1 X105.212 Y74.702 E34.05002
G1 X104.964 Y74.8 E34.08833
G1 X104.696 Y74.923 E34.1307
G1 X104.47 Y75.046 E34.16767
G1 X104.22 Y75.201 E34.20994
G1 X103.997 Y75.361 E34.24937
G1 X103.785 Y75.534 E34.28869
G1 X103.579 Y75.725 E34.32905
G1 X103.386 Y75.93 E34.36951
G1 X103.215 Y76.133 E34.40764
G1 X103.044 Y76.366 E34.44917
G1 X102.775 Y76.785 E34.52071
G1 X102.759 Y76.789 E34.52308
G1 X102.364 Y77.382 E34.62546
G1 X101.873 Y77.91 E34.72906
G1 X101.339 Y78.357 E34.82912
G1 X100.731 Y78.746 E34.93283
G1 X100.094 Y79.047 E35.03406
G1 X99.442 Y79.263 E35.13275
G1 X98.733 Y79.4 E35.2365
G1 X98.037 Y79.446 E35.33673
G1 X88.62 Y79.446 E36.6898
G1 X88.118 Y79.462 E36.76196
G1 X88.105 Y79.448 E36.76471
G1 X87.577 Y79.459 E36.84059
G1 X87.321 Y79.448 E36.87741
G1 X86.953 Y79.462 E36.93032
G1 X86.544 Y79.522 E36.98972
G1 X86.253 Y79.585 E37.0325
G1 X86.011 Y79.652 E37.06858
G1 X85.731 Y79.748 E37.11111
G1 X85.469 Y79.859 E37.15199
G1 X85.231 Y79.98 E37.19035
G1 X84.993 Y80.117 E37.22981
G1 X84.755 Y80.277 E37.27102
G1 X84.541 Y80.439 E37.30958
G1 X84.323 Y80.629 E37.35113
G1 X84.125 Y80.824 E37.39106
G1 X83.948 Y81.022 E37.42922
G1 X83.772 Y81.247 E37.47027
G1 X83.612 Y81.477 E37.51052
G0 F12000 X84.599 Y81.205
G1 F1125 X126.353 Y122.959 E45.99492
G0 F12000 X123.865 Y123.865
G1 F1125 X83.42 Y83.42 E54.21332
G0 F12000 X82.515 Y85.909
G1 F1125 X121.377 Y124.771 E62.11006
G0 F12000 X118.888 Y125.676
G1 F1125 X81.61 Y88.398 E69.68494
G0 F12000 X80.704 Y90.886
G1 F1125 X116.4 Y126.582 E76.93835
G0 F12000 X113.911 Y127.487
G1 F1125 X79.798 Y93.374 E83.87009
G0 F12000 X78.892 Y95.863
G1 F1125 X111.423 Y128.393 E90.48028
G0 F12000 X108.934 Y129.299
G1 F1125 X77.986 Y98.351 E96.7689
G0 F12000 X77.081 Y100.839
G1 F1125 X106.446 Y130.205 E102.73595
G0 F12000 X103.958 Y131.111
G1 F1125 X76.175 Y103.328 E108.38145
G0 F12000 X75.27 Y105.817
G1 F1125 X101.469 Y132.016 E113.70507
G0 F12000 X98.98 Y132.921
G1 F1125 X74.364 Y108.305 E118.70703
G0 F12000 X73.458 Y110.793
G1 F1125 X96.492 Y133.827 E123.38753
G0 F12000 X94.004 Y134.733
G1 F1125 X72.552 Y113.282 E127.74647
G0 F12000 X71.646 Y115.77
G1 F1125 X91.515 Y135.639 E131.78384
G0 F12000 X89.026 Y136.544
G1 F1125 X70.741 Y118.259 E135.49934
G0 F12000 X69.835 Y120.747
G1 F1125 X86.538 Y137.45 E138.89338
G0 F12000 X84.05 Y138.356
G1 F1125 X68.93 Y123.235 E141.96586
G0 F12000 X68.024 Y125.724
G1 F1125 X81.561 Y139.261 E144.71658
G0 F12000 X79.073 Y140.167
G1 F1125 X67.118 Y128.212 E147.14583
G0 F12000 X66.212 Y130.7
G1 F1125 X76.585 Y141.073 E149.25362
G0 F12000 X74.096 Y141.978
G1 F1125 X65.307 Y133.189 E151.03954
G0 F12000 X64.436 Y135.712
G1 F1125 X71.579 Y142.855 E152.49099
G0 F12000 X67.928 Y142.598
G1 F1125 X64.688 Y139.358 E153.14936
G1 F2700 E148.14936
G0 F12000 X62.741 Y139.457
G0 X62.425 Y137.912
G0 X62.424 Y136.398
G0 X62.718 Y134.906
G0 X82.205 Y81.408
G0 X82.752 Y80.496
G0 X83.461 Y79.7
G0 X84.322 Y79.044
G0 X85.181 Y78.616
G0 X86.316 Y78.277
G0 X86.868 Y80.08
G1 F2700 E153.14936
G1 F1125 X128.841 Y122.053 E161.67825
G0 F12000 X131.33 Y121.148
G1 F1125 X90.228 Y80.046 E170.03016
G0 F12000 X93.623 Y80.046
G1 F1125 X133.819 Y120.242 E178.19797
G0 F12000 X136.307 Y119.336
G1 F1125 X97.017 Y80.046 E186.18168
G0 F12000 X100.054 Y79.69
G1 F1125 X138.795 Y118.431 E194.05383
G0 F12000 X141.284 Y117.525
G1 F1125 X102.186 Y78.428 E201.99843
G0 F12000 X103.671 Y76.518
G1 F1125 X143.773 Y116.62 E210.14714
G0 F12000 X146.261 Y115.714
G1 F1125 X105.72 Y75.173 E218.38505
G0 F12000 X108.987 Y75.045
G1 F1125 X148.749 Y114.808 E226.46477
G0 F12000 X151.238 Y113.902
G1 F1125 X112.381 Y75.045 E234.3605
G0 F12000 X115.775 Y75.045
G1 F1125 X153.499 Y112.77 E242.0261
G0 F12000 X155.012 Y110.889
G1 F1125 X119.169 Y75.045 E249.30948
G0 F12000 X122.563 Y75.045
G1 F1125 X155.752 Y108.235 E256.05357
G0 F12000 X154.469 Y103.557
G1 F1125 X130.659 Y79.748 E260.89165
G0 F12000 X134.352 Y80.046
G1 F1125 X152.526 Y98.22 E264.5846
G0 F12000 X150.582 Y92.882
G1 F1125 X137.746 Y80.046 E267.19287
G0 F12000 X141.14 Y80.046
G1 F1125 X148.639 Y87.545 E268.71667
G0 F12000 X146.642 Y82.154
G1 F1125 X144.944 Y80.456 E269.0617
G1 F2700 E264.0617
G0 F300 X144.944 Y80.456 Z0.648
G0 F12000 X146.444 Y79.176
G0 X147.27 Y79.866
G0 X147.947 Y80.692
G0 X148.541 Y81.831
G0 X157.329 Y106.073
G0 X157.614 Y107.667
G0 X157.55 Y108.995
G0 X157.232 Y110.49
G0 X156.715 Y111.656
G0 X156.006 Y112.816
G0 X155.079 Y113.883
G0 X154.041 Y114.653
G0 X152.633 Y115.373
G0 X151.885 Y113.774
;TIME_ELAPSED:113.085302
;LAYER:-5
;TYPE:SUPPORT
G1 F2700 E269.0617
G1 F1125 X152.413 Y113.535 E269.15712
G1 X152.983 Y113.229 E269.26363
G1 X153.486 Y112.907 E269.36196
G1 X153.782 Y112.681 E269.42327
G1 X154.055 Y112.408 E269.48683
G1 X154.359 Y112.057 E269.56328
G1 X154.687 Y111.627 E269.65232
G1 X154.85 Y111.389 E269.69981
G1 X154.982 Y111.164 E269.74276
G1 X155.142 Y110.857 E269.79976
G1 X155.24 Y110.648 E269.83776
G1 X155.417 Y110.307 E269.90102
G1 X155.55 Y109.95 E269.96374
G1 X155.622 Y109.704 E270.00594
G1 X155.729 Y109.207 E270.08964
G1 X155.765 Y108.975 E270.12829
G1 X150.439 Y114.3 E271.36824
G1 X147.549 Y115.353 E271.87464
G1 X155.76 Y107.142 E273.78644
G1 X155.622 Y106.53 E273.88972
G1 X155.457 Y105.981 E273.9841
G1 X155.357 Y105.706 E274.03228
G1 X144.658 Y116.405 E276.52336
G1 X141.768 Y117.456 E277.02965
G1 X154.866 Y104.359 E280.07918
G1 X154.375 Y103.011 E280.31537
G1 X138.877 Y118.508 E283.9237
G1 X135.987 Y119.561 E284.4301
G1 X153.884 Y101.663 E288.59722
G1 X153.394 Y100.315 E288.83336
G1 X133.097 Y120.612 E293.55917
G1 X130.206 Y121.664 E294.06567
G1 X152.904 Y98.967 E299.3504
G1 X152.413 Y97.619 E299.58659
G1 X127.315 Y122.716 E305.43011
G1 X124.426 Y123.768 E305.9363
G1 X151.922 Y96.271 E312.33839
G1 X151.431 Y94.924 E312.57443
G1 X121.535 Y124.82 E319.5352
G1 X118.644 Y125.872 E320.0417
G1 X150.941 Y93.576 E327.56139
G1 X150.45 Y92.228 E327.79758
G1 X115.754 Y126.924 E335.87595
G1 X112.864 Y127.976 E336.3823
G1 X149.959 Y90.88 E345.01935
G1 X149.468 Y89.533 E345.25539
G1 X109.973 Y129.028 E354.45112
G1 X107.083 Y130.08 E354.95747
G1 X148.978 Y88.185 E364.712
G1 X148.487 Y86.837 E364.94819
G1 X104.192 Y131.132 E375.26152
G1 X101.302 Y132.183 E375.76781
G1 X147.996 Y85.489 E386.63971
G1 X147.506 Y84.142 E386.87569
G1 X98.412 Y133.235 E398.30627
G1 X95.521 Y134.288 E398.81283
G1 X147.015 Y82.793 E410.80244
G1 X146.796 Y82.228 E410.9022
G1 X146.616 Y81.896 E410.96438
G1 X146.409 Y81.562 E411.02907
G1 X92.631 Y135.339 E423.55024
G1 X89.741 Y136.391 E424.05658
G1 X145.492 Y80.64 E437.03725
G1 X145.025 Y80.383 E437.12501
G1 X144.709 Y80.232 E437.18267
G1 X144.222 Y80.071 E437.26711
G1 X86.85 Y137.443 E450.6252
G1 X83.96 Y138.495 E451.13154
G1 X142.482 Y79.973 E464.75739
G1 X141.909 Y79.946 E464.85183
G1 X140.671 Y79.946 E465.05565
G1 X81.069 Y139.547 E478.93284
G1 X78.179 Y140.599 E479.43918
G1 X138.832 Y79.946 E493.56119
G1 X136.994 Y79.946 E493.86379
G1 X75.289 Y141.651 E508.23074
G1 X72.398 Y142.703 E508.73724
G1 X135.155 Y79.946 E523.34913
G1 X133.317 Y79.946 E523.65174
G1 X70.137 Y143.125 E538.362
G1 X69.823 Y143.125 E538.4137
G1 X69.485 Y143.102 E538.46947
G1 X68.801 Y142.981 E538.58383
G1 X68.511 Y142.913 E538.63287
G1 X131.548 Y79.876 E553.30996
G1 X130.651 Y79.647 E553.46237
G1 X130.142 Y79.444 E553.55259
G1 X67.22 Y142.366 E568.2029
G1 X66.801 Y142.124 E568.28256
G1 X66.512 Y141.911 E568.34167
G1 X66.144 Y141.603 E568.42067
G1 X128.971 Y78.776 E583.04886
G1 X128.637 Y78.533 E583.11686
G1 X127.99 Y77.919 E583.26372
G1 X65.259 Y140.649 E597.86944
G1 X64.763 Y139.795 E598.03203
G1 X64.616 Y139.454 E598.09317
G1 X127.225 Y76.845 E612.6706
G1 X126.975 Y76.472 E612.74452
G1 X126.743 Y76.19 E612.80464
G1 X126.382 Y75.849 E612.8864
G1 X64.214 Y138.017 E627.36115
G1 X64.162 Y137.556 E627.43753
G1 X64.162 Y136.743 E627.57138
G1 X64.196 Y136.445 E627.62076
G1 X64.249 Y136.144 E627.67108
G1 X125.209 Y75.184 E641.86457
G1 X124.969 Y75.106 E641.90612
G1 X124.512 Y75.003 E641.98324
G1 X124.252 Y74.972 E642.02635
G1 X123.621 Y74.934 E642.13043
G1 X65.112 Y133.443 E655.75324
G1 X66.164 Y130.552 E656.25974
G1 X121.771 Y74.945 E669.20688
G1 X119.933 Y74.945 E669.50948
G1 X67.216 Y127.661 E681.78361
G1 X68.269 Y124.771 E682.29002
G1 X118.094 Y74.945 E693.89103
G1 X116.256 Y74.945 E694.19363
G1 X69.321 Y121.88 E705.12164
G1 X70.373 Y118.989 E705.62814
G1 X114.417 Y74.945 E715.88303
G1 X112.579 Y74.945 E716.18563
G1 X71.425 Y116.099 E725.76764
G1 X72.477 Y113.208 E726.27414
G1 X110.74 Y74.945 E735.18302
G1 X108.902 Y74.945 E735.48562
G1 X73.529 Y110.317 E743.7215
G1 X74.582 Y107.427 E744.2279
G1 X107.063 Y74.945 E751.79066
G1 X106.723 Y74.946 E751.84664
G1 X106.104 Y75.002 E751.94897
G1 X105.719 Y75.066 E752.01322
G1 X105.384 Y75.172 E752.07107
G1 X105.146 Y75.265 E752.11314
G1 X104.702 Y75.468 E752.19352
G1 X103.341 Y76.829 E752.5104
G1 X103.461 Y76.641 E752.54712
G1 X103.751 Y76.27 E752.62465
G1 X103.941 Y76.069 E752.67019
G1 X104.294 Y75.762 E752.74721
G1 X104.498 Y75.615 E752.78861
G0 F12000 X102.865 Y77.573
G1 F1125 X102.218 Y78.273 E752.94554
G1 X101.625 Y78.767 E753.07261
G1 X101.01 Y79.16 E753.19277
G1 X75.634 Y104.536 E759.10113
G1 X76.686 Y101.645 E759.60763
G1 X98.409 Y79.922 E764.66546
G1 X98.05 Y79.946 E764.7247
G1 X96.547 Y79.946 E764.97215
G1 X77.738 Y98.755 E769.3515
G1 X78.79 Y95.864 E769.858
G1 X94.709 Y79.946 E773.56435
G1 X92.87 Y79.946 E773.86712
G1 X79.842 Y92.973 E776.90035
G1 X80.895 Y90.083 E777.40675
G1 X91.032 Y79.946 E779.76698
G1 X89.193 Y79.946 E780.06975
G1 X81.947 Y87.192 E781.75685
G1 X83.659 Y82.488 E782.58101
G1 X83.796 Y82.174 E782.63741
G1 X84.032 Y81.748 E782.71759
G1 X84.181 Y81.53 E782.76106
G1 X84.395 Y81.258 E782.81804
G1 X84.751 Y80.905 E782.90058
G1 X85.14 Y80.608 E782.98116
G1 X85.559 Y80.364 E783.06098
G1 X85.917 Y80.212 E783.12502
G1 X86.374 Y80.068 E783.2039
G1 X86.636 Y80.013 E783.24798
G1 X87.047 Y79.958 E783.31625
G1 X87.047 Y80.007 E783.32432
G1 X87.303 Y79.997 E783.3665
G1 X82.999 Y84.301 E784.36861
G1 F2700 E779.36861
G0 F300 X82.999 Y84.301 Z0.888
G0 F12000 X81.338 Y83.698
G0 X62.693 Y134.997
G0 X62.408 Y136.574
G0 X62.458 Y138.167
G0 X62.741 Y139.457
G0 X63.262 Y140.722
G0 X63.911 Y141.746
G0 X64.887 Y142.85
G0 X66.204 Y141.652
;TIME_ELAPSED:282.857654
;LAYER:-4
;TYPE:SUPPORT-INTERFACE
G1 F2700 E784.36861
G1 F1500 X65.632 Y141.08 E784.413
G1 X65.802 Y141.283 E784.42753
G1 X66.072 Y141.542 E784.44806
G1 X66.512 Y141.911 E784.47958
G1 X66.801 Y142.124 E784.49928
G1 X67.394 Y142.466 E784.53685
G1 X67.711 Y142.627 E784.55636
G1 X68.096 Y142.766 E784.57882
G1 X64.52 Y139.191 E784.85632
G1 X64.411 Y138.889 E784.87394
G1 X64.323 Y138.579 E784.89163
G1 X64.244 Y138.137 E784.91627
G1 X69.15 Y143.042 E785.29699
G1 X69.485 Y143.102 E785.31567
G1 X70.024 Y143.139 E785.34531
G1 X64.162 Y137.277 E785.80027
G1 X64.162 Y136.743 E785.82958
G1 X64.186 Y136.523 E785.84172
G1 X70.768 Y143.105 E786.35256
G1 X71.425 Y142.984 E786.38922
G1 X64.288 Y135.847 E786.94313
G1 X64.461 Y135.242 E786.97766
G1 X72.044 Y142.826 E787.56622
G1 X72.619 Y142.622 E787.59971
G1 X64.665 Y134.669 E788.21698
G1 X64.872 Y134.098 E788.25032
G1 X73.189 Y142.414 E788.89577
G1 X73.759 Y142.207 E788.92905
G1 X65.08 Y133.528 E789.60263
G1 X65.288 Y132.958 E789.63593
G1 X74.329 Y141.999 E790.33761
G1 X74.9 Y141.792 E790.37094
G1 X65.495 Y132.388 E791.10084
G1 X65.703 Y131.818 E791.13413
G1 X75.47 Y141.584 E791.89212
G1 X76.04 Y141.377 E791.9254
G1 X65.91 Y131.247 E792.7116
G1 X66.118 Y130.677 E792.7449
G1 X76.61 Y141.169 E793.55919
G1 X77.181 Y140.962 E793.59252
G1 X66.325 Y130.106 E794.43507
G1 X66.533 Y129.537 E794.46832
G1 X77.751 Y140.754 E795.33892
G1 X78.321 Y140.546 E795.37222
G1 X66.74 Y128.966 E796.27099
G1 X66.948 Y128.396 E796.30429
G1 X78.891 Y140.339 E797.2312
G1 X79.461 Y140.131 E797.26449
G1 X67.156 Y127.825 E798.21954
G1 X67.363 Y127.255 E798.25282
G1 X80.032 Y139.924 E799.23607
G1 X80.602 Y139.716 E799.26937
G1 X67.571 Y126.685 E800.28072
G1 X67.779 Y126.115 E800.31401
