;FLAVOR:Marlin
;TIME:3236
;Filament used: 4.01934m
;Layer height: 0.24
;MINX:87.181
;MINY:56.267
;MINZ:0.288
;MAXX:123.552
;MAXY:156.675
;MAXZ:14.238
;Generated with Cura_SteamEngine 5.2.1
M140 S60
M105
M190 S60
M104 S210
M105
M109 S210
M82 ;absolute extrusion mode
; Ender 3 Custom Start G-code
G92 E0 ; Reset Extruder
G28 ; Home all axes
G1 Z2.0 F3000 ; Move Z Axis up little to prevent scratching of Heat Bed
G1 X0.1 Y20 Z0.3 F5000.0 ; Move to start position
G1 X0.1 Y200.0 Z0.3 F1500.0 E15 ; Draw the first line
G1 X0.4 Y200.0 Z0.3 F5000.0 ; Move to side a little
G1 X0.4 Y20 Z0.3 F1500.0 E30 ; Draw the second line
G92 E0 ; Reset Extruder
G1 Z2.0 F3000 ; Move Z Axis up little to prevent scratching of Heat Bed
G1 X5 Y20 Z0.3 F5000.0 ; Move over to prevent blob squish
G92 E0
G92 E0
G1 F2700 E-5
;LAYER_COUNT:54
;LAYER:-6
M107
G0 F12000 X99.826 Y60.465 Z0.288
;TYPE:SUPPORT-INTERFACE
G1 F2700 E0
G1 F1125 X99.739 Y60.738 E0.04117
G1 X99.678 Y60.989 E0.07828
G1 X99.626 Y61.27 E0.11934
G1 X99.593 Y61.537 E0.158
G1 X99.568 Y62.04 E0.23036
G1 X99.732 Y81.021 E2.95773
G1 X99.888 Y90.455 E4.31342
G1 X99.845 Y91.207 E4.42165
G1 X99.728 Y91.841 E4.51428
G1 X99.505 Y92.54 E4.61971
G1 X99.331 Y92.983 E4.68809
G1 X99.253 Y93.236 E4.72613
G1 X99.185 Y93.506 E4.76614
G1 X99.134 Y93.779 E4.80604
G1 X99.101 Y94.048 E4.84498
G1 X99.076 Y94.549 E4.91706
G1 X99.24 Y113.528 E7.64414
G1 X99.399 Y123.109 E9.02096
G1 X99.455 Y123.682 E9.10368
G1 X99.529 Y124.112 E9.16637
G1 X99.655 Y124.521 E9.22787
G1 X99.974 Y125.303 E9.34922
G1 X100.168 Y125.967 E9.44861
G1 X100.28 Y126.668 E9.55061
G1 X100.303 Y127.373 E9.65196
G1 X100.236 Y128.083 E9.75443
G1 X100.081 Y128.777 E9.8566
G1 X99.84 Y129.435 E9.95729
G1 X99.516 Y130.068 E10.05946
G1 X99.119 Y130.65 E10.16069
G1 X98.643 Y131.186 E10.26369
G1 X98.13 Y131.632 E10.36136
G1 X94.746 Y134.215 E10.97304
G1 X94.468 Y134.449 E11.02526
G1 X93.809 Y135.059 E11.15428
G1 X93.579 Y135.289 E11.20102
G1 X93.093 Y135.799 E11.30224
G1 X92.895 Y136.021 E11.34498
G1 X92.282 Y136.748 E11.48162
G1 X91.716 Y137.505 E11.61743
G1 X91.566 Y137.721 E11.65521
G1 X91.116 Y138.409 E11.77333
G1 X90.955 Y138.67 E11.8174
G1 X90.536 Y139.41 E11.93958
G1 X90.41 Y139.65 E11.97853
G1 X89.991 Y140.511 E12.11611
G1 X89.645 Y141.34 E12.24519
G1 X89.509 Y141.696 E12.29994
G1 X89.245 Y142.478 E12.41854
G1 X89.17 Y142.721 E12.45508
G1 X88.939 Y143.565 E12.5808
G1 X88.879 Y143.813 E12.61747
G1 X88.696 Y144.686 E12.74563
G1 X88.546 Y145.708 E12.89405
G1 X88.44 Y146.875 E13.06242
G1 X88.445 Y147.563 E13.16127
G1 X88.474 Y147.895 E13.20916
G1 X88.528 Y148.216 E13.25593
G1 X88.638 Y148.714 E13.32921
G1 X88.799 Y149.231 E13.40701
G1 X88.912 Y149.514 E13.45079
G1 X89.136 Y149.974 E13.52431
G1 X89.325 Y150.3 E13.57845
G1 X89.643 Y150.789 E13.66226
G1 X91.244 Y152.886 E14.04134
G1 X91.51 Y153.21 E14.10158
G1 X91.874 Y153.566 E14.17473
G1 X92.083 Y153.752 E14.21493
G1 X92.409 Y154.014 E14.27503
G1 X92.841 Y154.288 E14.34853
G1 X93.309 Y154.548 E14.42546
G1 X93.663 Y154.714 E14.48163
G1 X93.935 Y154.822 E14.52368
G1 X94.232 Y154.918 E14.56853
G1 X94.714 Y155.032 E14.6397
G1 X95.562 Y155.19 E14.76364
G1 X96.62 Y155.33 E14.91698
G1 X96.97 Y155.363 E14.96749
G1 X97.742 Y155.411 E15.07863
G1 X98.102 Y155.42 E15.13037
G1 X98.778 Y155.42 E15.2275
G1 X99.134 Y155.411 E15.27867
G1 X99.908 Y155.363 E15.3901
G1 X100.215 Y155.335 E15.43439
G1 X101.023 Y155.234 E15.55139
G1 X101.273 Y155.196 E15.58772
G1 X102.046 Y155.053 E15.70068
G1 X102.445 Y154.965 E15.75938
G1 X103.323 Y154.747 E15.88937
G1 X104.231 Y154.459 E16.02624
G1 X104.493 Y154.367 E16.06614
G1 X105.21 Y154.089 E16.17663
G1 X105.593 Y153.926 E16.23644
G1 X106.289 Y153.606 E16.34651
G1 X107.144 Y153.157 E16.48527
G1 X107.49 Y152.962 E16.54233
G1 X108.246 Y152.491 E16.67031
G1 X108.612 Y152.235 E16.73449
G1 X119.033 Y144.297 E18.61674
G1 X119.524 Y143.847 E18.71244
G1 X119.826 Y143.526 E18.77576
G1 X120.061 Y143.192 E18.83444
G1 X120.211 Y142.949 E18.87547
G1 X120.336 Y142.711 E18.9141
G1 X120.453 Y142.452 E18.95494
G1 X120.548 Y142.203 E18.99323
G1 X120.629 Y141.932 E19.03387
G1 X120.696 Y141.659 E19.07426
G1 X120.745 Y141.377 E19.11538
G1 X120.773 Y141.118 E19.15282
G1 X120.785 Y140.833 E19.1938
G1 X120.78 Y140.557 E19.23347
G1 X120.757 Y140.283 E19.27297
G1 X120.716 Y140.002 E19.31378
G1 X120.659 Y139.734 E19.35314
G1 X120.585 Y139.465 E19.39323
G1 X120.493 Y139.198 E19.43381
G1 X120.386 Y138.947 E19.47301
G1 X120.266 Y138.706 E19.5117
G1 X120.12 Y138.451 E19.55392
G1 X119.911 Y138.14 E19.60775
G1 X117.613 Y135.12 E20.15302
G1 X117.132 Y134.367 E20.2814
G1 X116.843 Y133.731 E20.38178
G1 X116.638 Y133.079 E20.47998
G1 X116.509 Y132.356 E20.5855
G1 X116.476 Y131.597 E20.69466
G1 X116.533 Y130.917 E20.79271
G1 X116.673 Y130.249 E20.89078
G1 X116.903 Y129.583 E20.99202
G1 X117.212 Y128.95 E21.09323
G1 X117.615 Y128.341 E21.19815
G1 X118.104 Y127.78 E21.30508
G1 X118.638 Y127.308 E21.40749
G1 X119.198 Y126.925 E21.50497
G1 X119.489 Y126.749 E21.55383
G1 X119.718 Y126.591 E21.59381
G1 X119.929 Y126.424 E21.63247
G1 X120.142 Y126.232 E21.67368
G1 X120.33 Y126.041 E21.71218
G1 X120.51 Y125.832 E21.75182
G1 X120.686 Y125.6 E21.79366
G1 X120.836 Y125.376 E21.83239
G1 X120.972 Y125.137 E21.8719
G1 X121.101 Y124.88 E21.91322
G1 X121.211 Y124.62 E21.95378
G1 X121.294 Y124.37 E21.99163
G1 X121.37 Y124.095 E22.03263
G1 X121.427 Y123.826 E22.07214
G1 X121.466 Y123.55 E22.11219
G1 X121.502 Y123.04 E22.18565
G1 X121.657 Y113.601 E23.54206
G1 X121.825 Y94.496 E26.28725
G1 X121.747 Y93.592 E26.41762
G1 X121.699 Y92.887 E26.51915
G1 X121.753 Y92.152 E26.62504
G1 X121.832 Y91.735 E26.68603
G1 X121.846 Y91.724 E26.68858
G1 X121.918 Y91.324 E26.74698
G1 X121.958 Y91.036 E26.78876
G1 X121.994 Y90.528 E26.86193
G1 X122.149 Y81.089 E28.21835
G1 X122.317 Y61.985 E30.96339
G1 X122.273 Y61.469 E31.0378
G1 X122.259 Y61.311 E31.06059
G1 X122.183 Y60.857 E31.12673
G1 X122.063 Y60.473 E31.18454
G1 X121.964 Y60.223 E31.22317
G1 X121.842 Y59.959 E31.26496
G1 X121.721 Y59.733 E31.30179
G1 X121.563 Y59.483 E31.34428
G1 X121.399 Y59.256 E31.38452
G1 X121.23 Y59.048 E31.42303
G1 X121.04 Y58.843 E31.46319
G1 X120.836 Y58.649 E31.50364
G1 X120.623 Y58.472 E31.54343
G1 X120.401 Y58.309 E31.58301
G1 X120.158 Y58.153 E31.6245
G1 X119.928 Y58.025 E31.66232
G1 X119.673 Y57.905 E31.70281
G1 X119.312 Y57.759 E31.75876
G1 X118.867 Y57.644 E31.8248
G1 X118.62 Y57.595 E31.86098
G1 X118.329 Y57.558 E31.90313
G1 X117.838 Y57.53 E31.97379
G1 X103.99 Y57.531 E33.96353
G1 X103.331 Y57.594 E34.05865
G1 X102.89 Y57.67 E34.12295
G1 X102.478 Y57.799 E34.18498
G1 X102.24 Y57.894 E34.2218
G1 X101.97 Y58.021 E34.26467
G1 X101.74 Y58.147 E34.30235
G1 X101.494 Y58.301 E34.34405
G1 X101.284 Y58.455 E34.38147
G1 X101.053 Y58.647 E34.42463
G1 X100.859 Y58.828 E34.46275
G1 X100.669 Y59.03 E34.5026
G1 X100.498 Y59.24 E34.54151
G1 X100.323 Y59.481 E34.5843
G1 X100.181 Y59.706 E34.62253
G1 X100.048 Y59.947 E34.66208
G1 X99.937 Y60.188 E34.70021
G1 X99.826 Y60.465 E34.74308
G0 F12000 X100.712 Y59.983
G1 F1125 X121.55 Y80.821 E38.97736
G0 F12000 X121.498 Y84.163
G1 F1125 X100.173 Y62.838 E43.31059
G0 F12000 X100.203 Y66.262
G1 F1125 X121.443 Y87.502 E47.62655
G0 F12000 X121.37 Y90.823
G1 F1125 X100.233 Y69.686 E51.92157
G0 F12000 X100.262 Y73.109
G1 F1125 X121.181 Y94.028 E56.17231
G0 F12000 X121.198 Y97.44
G1 F1125 X100.292 Y76.533 E60.4205
G0 F12000 X100.322 Y79.957
G1 F1125 X121.169 Y100.804 E64.6566
G0 F12000 X121.139 Y104.168
G1 F1125 X100.37 Y83.399 E68.87685
G0 F12000 X100.426 Y86.849
G1 F1125 X121.109 Y107.533 E73.07973
G0 F12000 X121.08 Y110.897
G1 F1125 X100.482 Y90.3 E77.26513
G0 F12000 X99.917 Y93.128
G1 F1125 X121.046 Y114.257 E81.55853
G0 F12000 X120.99 Y117.596
G1 F1125 X99.69 Y96.295 E85.88679
G0 F12000 X99.719 Y99.719
G1 F1125 X120.936 Y120.936 E90.19807
G0 F12000 X120.737 Y124.131
G1 F1125 X99.749 Y103.143 E94.46282
G0 F12000 X99.779 Y106.567
G1 F1125 X119.33 Y126.118 E98.43558
G0 F12000 X117.443 Y127.625
G1 F1125 X99.808 Y109.991 E102.0189
G0 F12000 X99.838 Y113.414
G1 F1125 X116.202 Y129.778 E105.34406
G0 F12000 X116.011 Y132.982
G1 F1125 X99.895 Y116.865 E108.61892
G0 F12000 X99.953 Y120.317
G1 F1125 X120.169 Y140.534 E112.72691
G0 F12000 X119.364 Y143.123
G1 F1125 X100.092 Y123.851 E116.64297
G0 F12000 X100.843 Y127.996
G1 F1125 X117.531 Y144.684 E120.03396
G0 F12000 X115.605 Y146.152
G1 F1125 X99.95 Y130.497 E123.21505
G0 F12000 X98.308 Y132.249
G1 F1125 X113.678 Y147.619 E126.33823
G0 F12000 X111.751 Y149.087
G1 F1125 X96.383 Y133.718 E129.4611
G0 F12000 X94.504 Y135.233
G1 F1125 X109.825 Y150.555 E132.57442
G0 F12000 X107.883 Y152.007
G1 F1125 X92.863 Y136.987 E135.62648
G0 F12000 X91.466 Y138.983
G1 F1125 X105.698 Y153.215 E138.51842
G0 F12000 X103.232 Y154.144
G1 F1125 X90.332 Y141.244 E141.13969
G0 F12000 X89.499 Y143.805
G1 F1125 X100.399 Y154.705 E143.35457
G0 F12000 X97.067 Y154.767
G1 F1125 X89.052 Y146.752 E144.98321
G1 F2700 E139.98321
G0 F12000 X87.253 Y145.898
G0 X98.44 Y60.723
G0 X98.771 Y59.694
G0 X99.275 Y58.77
G0 X99.965 Y57.932
G0 X100.784 Y57.253
G0 X101.737 Y56.733
G0 X102.711 Y56.416
G0 X104.062 Y56.267
G0 X118.447 Y56.299
G0 X119.517 Y56.504
G0 X120.505 Y56.898
G0 X121.402 Y57.474
G0 X122.187 Y58.217
G0 X122.814 Y59.095
G0 X123.256 Y60.058
G0 X123.515 Y61.152
G0 X123.552 Y61.672
G0 X123.45 Y77.473
G0 X121.58 Y77.457
G1 F2700 E144.98321
G1 F1125 X102.54 Y58.416 E148.85223
G0 F12000 X105.648 Y58.13
G1 F1125 X121.61 Y74.092 E152.0957
G0 F12000 X121.64 Y70.728
G1 F1125 X109.042 Y58.13 E154.65561
G0 F12000 X112.436 Y58.13
G1 F1125 X121.669 Y67.363 E156.53175
G0 F12000 X121.699 Y63.999
G1 F1125 X115.83 Y58.13 E157.72433
G0 F12000 X119.652 Y58.558
G1 F1125 X121.29 Y60.196 E158.05717
G1 F2700 E153.05717
G0 F300 X121.29 Y60.196 Z0.648
G0 F12000 X122.613 Y58.773
G0 X121.941 Y57.953
G0 X121.12 Y57.266
G0 X120.177 Y56.745
G0 X119.147 Y56.408
G0 X118.11 Y56.294
G0 X103.81 Y56.278
G0 X103.388 Y58.089
;TIME_ELAPSED:71.505194
;LAYER:-5
;TYPE:SUPPORT
G1 F2700 E158.05717
G1 F1125 X102.991 Y58.159 E158.12354
G1 X102.547 Y58.3 E158.20024
G1 X102.187 Y58.471 E158.26585
G1 X101.703 Y58.754 E158.35816
G1 X101.283 Y59.104 E158.44817
G1 X101.051 Y59.351 E158.50396
G1 X100.889 Y59.547 E158.54583
G1 X100.662 Y59.863 E158.60988
G1 X100.438 Y60.27 E158.68637
G1 X100.298 Y60.629 E158.74981
G1 X100.165 Y61.09 E158.8288
G1 X100.095 Y61.474 E158.89307
G1 X100.083 Y61.702 E158.93066
G1 X103.728 Y58.057 E159.77933
G1 X104.021 Y58.03 E159.82777
G1 X105.594 Y58.03 E160.08675
G1 X100.076 Y63.548 E161.37152
G1 X100.088 Y65.374 E161.67216
G1 X107.432 Y58.03 E163.38208
G1 X109.271 Y58.03 E163.68485
G1 X100.105 Y67.196 E165.81899
G1 X100.121 Y69.018 E166.11898
G1 X111.109 Y58.03 E168.67734
G1 X112.948 Y58.03 E168.98011
G1 X100.138 Y70.84 E171.9627
G1 X100.155 Y72.661 E172.26252
G1 X114.786 Y58.03 E175.6691
G1 X116.625 Y58.03 E175.97186
G1 X100.171 Y74.483 E179.80278
G1 X100.188 Y76.305 E180.10276
G1 X118.419 Y58.074 E184.34754
G1 X118.658 Y58.105 E184.38722
G1 X119.134 Y58.228 E184.46816
G1 X119.609 Y58.419 E184.55245
G1 X119.805 Y58.526 E184.58921
G1 X100.205 Y78.126 E189.15273
G1 X100.221 Y79.949 E189.45288
G1 X120.837 Y59.333 E194.25296
G1 X121.157 Y59.773 E194.34253
G1 X121.342 Y60.067 E194.39972
G1 X121.531 Y60.478 E194.4742
G1 X100.244 Y81.764 E199.4304
G1 X100.274 Y83.573 E199.72827
G1 X121.816 Y62.03 E204.74407
G1 X121.804 Y63.881 E205.04882
G1 X100.304 Y85.381 E210.05472
G1 X100.334 Y87.19 E210.35259
G1 X121.792 Y65.732 E215.34872
G1 X121.774 Y67.588 E215.6543
G1 X100.363 Y88.999 E220.63949
G1 X100.387 Y90.442 E220.87709
G1 X100.366 Y90.834 E220.94172
G1 X121.757 Y69.444 E225.92213
G1 X121.739 Y71.3 E226.22771
G1 X99.767 Y93.272 E231.34352
G1 X99.673 Y93.601 E231.39985
G1 X99.603 Y93.985 E231.46411
G1 X99.574 Y94.552 E231.55758
G1 X99.579 Y95.298 E231.68041
G1 X121.722 Y73.155 E236.83602
G1 X121.705 Y75.012 E237.14177
G1 X99.591 Y97.126 E242.29063
G1 X99.605 Y98.949 E242.59078
G1 X121.688 Y76.867 E247.73231
G1 X121.67 Y78.723 E248.03789
G1 X99.622 Y100.771 E253.17139
G1 X99.639 Y102.592 E253.47121
G1 X121.653 Y80.579 E258.59667
G1 X121.625 Y82.445 E258.90392
G1 X99.656 Y104.414 E264.01902
G1 X99.673 Y106.235 E264.31884
G1 X121.594 Y84.314 E269.42277
G1 X121.562 Y86.185 E269.73085
G1 X99.69 Y108.057 E274.82337
G1 X99.707 Y109.879 E275.12336
G1 X121.531 Y88.054 E280.20482
G1 X121.5 Y89.924 E280.51273
G1 X99.723 Y111.7 E285.58301
G1 X99.741 Y113.521 E285.88283
G1 X121.265 Y91.998 E290.89421
G1 X121.125 Y92.664 E291.00626
G1 X121.208 Y92.688 E291.02048
G1 X121.188 Y92.943 E291.06259
G1 X121.265 Y93.836 E291.21016
G1 X99.771 Y115.33 E296.21467
G1 X99.801 Y117.139 E296.51254
G1 X121.317 Y95.622 E301.52229
G1 X121.305 Y97.473 E301.82704
G1 X99.831 Y118.947 E306.82689
G1 X99.861 Y120.756 E307.12476
G1 X121.289 Y99.327 E312.11402
G1 X121.272 Y101.183 E312.4196
G1 X99.89 Y122.564 E317.39791
G1 X99.899 Y123.089 E317.48436
G1 X99.95 Y123.612 E317.57087
G1 X100.015 Y123.997 E317.63516
G1 X100.082 Y124.211 E317.67208
G1 X121.254 Y103.039 E322.60161
G1 X121.236 Y104.895 E322.90719
G1 X100.57 Y125.562 E327.71903
G1 X100.66 Y125.873 E327.77234
G1 X100.781 Y126.636 E327.89953
G1 X100.797 Y127.173 E327.98798
G1 X121.22 Y106.751 E332.743
G1 X121.202 Y108.607 E333.04859
G1 X100.372 Y129.437 E337.89849
G1 X100.293 Y129.651 E337.93605
G1 X99.94 Y130.337 E338.06307
G1 X99.501 Y130.974 E338.19043
G1 X98.987 Y131.548 E338.31729
G1 X98.43 Y132.03 E338.43856
G1 X95.058 Y134.604 E339.13698
G1 X94.81 Y134.813 E339.19037
G1 X94.147 Y135.427 E339.33915
G1 X93.928 Y135.646 E339.39014
G1 X93.447 Y136.151 E339.50496
G1 X93.259 Y136.36 E339.55124
G1 X92.667 Y137.063 E339.70255
G1 X92.046 Y137.895 E339.87348
G1 X91.53 Y138.686 E340.02897
G1 X91.354 Y138.975 E340.08468
G1 X90.914 Y139.754 E340.23197
G1 X90.49 Y140.624 E340.39131
G1 X90.357 Y140.921 E340.44489
G1 X90.098 Y141.549 E340.55673
G1 X121.185 Y110.462 E347.7948
G1 X121.167 Y112.318 E348.10038
G1 X89.313 Y144.172 E355.51704
G1 X89.185 Y144.781 E355.6195
G1 X89.021 Y145.925 E355.80977
G1 X88.987 Y146.337 E355.87783
G1 X121.146 Y114.178 E363.3655
G1 X121.114 Y116.048 E363.67342
G1 X89.023 Y148.14 E371.14537
G1 X89.103 Y148.508 E371.20737
G1 X89.275 Y149.07 E371.30414
G1 X89.457 Y149.544 E371.38773
G1 X121.083 Y117.918 E378.7513
G1 X121.052 Y119.788 E379.05921
G1 X90.176 Y150.663 E386.24804
G1 X90.972 Y151.706 E386.46406
G1 X121.021 Y121.657 E393.46045
G1 X120.996 Y123.16 E393.70794
G1 X120.96 Y123.557 E393.77356
G1 X91.759 Y152.757 E400.5724
G1 X92.307 Y153.287 E400.69791
G1 X92.729 Y153.626 E400.78703
G1 X116.177 Y130.178 E406.2465
G1 X116.036 Y130.855 E406.36035
G1 X115.973 Y131.622 E406.48705
G1 X115.998 Y132.195 E406.58148
G1 X93.908 Y154.286 E411.72487
G1 X94.366 Y154.434 E411.80411
G1 X94.81 Y154.541 E411.87931
G1 X95.384 Y154.648 E411.97544
G1 X116.296 Y133.736 E416.84444
G1 X116.688 Y134.604 E417.00124
G1 X116.915 Y134.956 E417.0702
G1 X97.007 Y154.864 E421.70543
G1 X97.76 Y154.91 E421.82964
G1 X98.117 Y154.919 E421.88843
G1 X98.791 Y154.918 E421.9994
G1 X117.679 Y136.03 E426.39714
G1 X118.473 Y137.074 E426.61309
G1 X100.788 Y154.759 E430.73073
G1 X101.087 Y154.721 E430.78036
G1 X102.067 Y154.54 E430.94443
G1 X103.099 Y154.287 E431.11937
G1 X119.267 Y138.119 E434.88381
G1 X119.501 Y138.425 E434.94723
G1 X119.699 Y138.718 E435.00545
G1 X119.885 Y139.044 E435.06724
G1 X119.972 Y139.252 E435.10436
G1 X106.078 Y153.147 E438.33946
G1 X106.274 Y153.055 E438.37511
G1 X106.987 Y152.673 E438.50828
G1 X107.235 Y152.531 E438.55533
G1 X107.869 Y152.139 E438.67805
G1 X108.306 Y151.837 E438.7655
G1 X112.163 Y148.9 E439.56366
G1 X120.284 Y140.779 E441.45449
G1 X120.288 Y140.948 E441.48232
G1 X120.237 Y141.433 E441.56261
G1 X120.145 Y141.812 E441.62682
G1 X120.044 Y142.144 E441.68396
G1 X119.889 Y142.486 E441.74577
G1 X119.648 Y142.91 E441.82607
G1 X119.44 Y143.206 E441.88563
G1 X119.173 Y143.491 E441.94993
G1 X118.72 Y143.906 E442.05107
G1 F2700 E437.05107
G0 F12000 X119.749 Y145.341
G0 X108.816 Y153.629
G0 X106.771 Y154.777
G0 X104.626 Y155.661
G0 X102.291 Y156.295
G0 X100.002 Y156.624
G0 X97.697 Y156.675
