;FLAVOR:Marlin
;TIME:3196
;Filament used: 3.97873m
;Layer height: 0.24
;MINX:98.897
;MINY:52.199
;MINZ:0.288
;MAXX:124.139
;MAXY:149.607
;MAXZ:14.238
;Generated with Cura_SteamEngine 5.2.1
M140 S60
M105
M190 S60
M104 S210
M105
M109 S210
M82 ;absolute extrusion mode
; Ender 3 Custom Start G-code
G92 E0 ; Reset Extruder
G28 ; Home all axes
G1 Z2.0 F3000 ; Move Z Axis up little to prevent scratching of Heat Bed
G1 X0.1 Y20 Z0.3 F5000.0 ; Move to start position
G1 X0.1 Y200.0 Z0.3 F1500.0 E15 ; Draw the first line
G1 X0.4 Y200.0 Z0.3 F5000.0 ; Move to side a little
G1 X0.4 Y20 Z0.3 F1500.0 E30 ; Draw the second line
G92 E0 ; Reset Extruder
G1 Z2.0 F3000 ; Move Z Axis up little to prevent scratching of Heat Bed
G1 X5 Y20 Z0.3 F5000.0 ; Move over to prevent blob squish
G92 E0
G92 E0
G1 F2700 E-5
;LAYER_COUNT:54
;LAYER:-6
M107
G0 F12000 X100.398 Y56.371 Z0.288
;TYPE:SUPPORT-INTERFACE
G1 F2700 E0
G1 F1125 X100.318 Y56.623 E0.03799
G1 X100.249 Y56.893 E0.07803
G1 X100.196 Y57.16 E0.11714
G1 X100.16 Y57.453 E0.15956
G1 X100.133 Y57.942 E0.22993
G1 X100.166 Y86.636 E4.35279
G1 X100.194 Y87.072 E4.41557
G1 X100.205 Y87.867 E4.52981
G1 X100.115 Y88.591 E4.63463
G1 X100.06 Y88.876 E4.67634
G1 X100.023 Y89.175 E4.71963
G1 X99.997 Y89.664 E4.78999
G1 X100.03 Y118.384 E8.91659
G1 X100.17 Y119.96 E9.14393
G1 X100.125 Y120.677 E9.24715
G1 X100.113 Y120.771 E9.26077
G1 X100.087 Y121.261 E9.33127
G1 X100.108 Y134.369 E11.21468
G1 X100.126 Y134.713 E11.26418
G1 X100.201 Y135.488 E11.37605
G1 X100.241 Y135.809 E11.42253
G1 X100.363 Y136.582 E11.53497
G1 X100.442 Y136.981 E11.59342
G1 X100.635 Y137.831 E11.71866
G1 X100.889 Y138.715 E11.85081
G1 X100.975 Y138.989 E11.89207
G1 X101.235 Y139.722 E12.00382
G1 X101.365 Y140.056 E12.05532
G1 X101.78 Y141 E12.20349
G1 X102.217 Y141.873 E12.34376
G1 X102.737 Y142.763 E12.49187
G1 X103.277 Y143.582 E12.63282
G1 X103.477 Y143.865 E12.68261
G1 X104.107 Y144.681 E12.83074
G1 X104.851 Y145.532 E12.99315
G1 X105.6 Y146.288 E13.14606
G1 X106.322 Y146.944 E13.28623
G1 X106.874 Y147.356 E13.3852
G1 X107.158 Y147.535 E13.43343
G1 X107.456 Y147.694 E13.48196
G1 X107.877 Y147.888 E13.54857
G1 X108.385 Y148.071 E13.62615
G1 X108.69 Y148.157 E13.67168
G1 X109.155 Y148.252 E13.73988
G1 X109.528 Y148.299 E13.79389
G1 X110.098 Y148.341 E13.87601
G1 X112.66 Y148.341 E14.24413
G1 X113.416 Y148.28 E14.35311
G1 X113.767 Y148.221 E14.40425
G1 X114.203 Y148.124 E14.46843
G1 X114.489 Y148.04 E14.51126
G1 X114.795 Y147.923 E14.55833
G1 X115.228 Y147.737 E14.62604
G1 X115.845 Y147.389 E14.72782
G1 X116.119 Y147.205 E14.77525
G1 X116.373 Y147.003 E14.82188
G1 X117.099 Y146.354 E14.96179
G1 X117.361 Y146.101 E15.01413
G1 X117.891 Y145.561 E15.12284
G1 X118.089 Y145.345 E15.16495
G1 X118.662 Y144.68 E15.29107
G1 X118.842 Y144.455 E15.33247
G1 X119.326 Y143.816 E15.44765
G1 X119.493 Y143.58 E15.48919
G1 X119.902 Y142.97 E15.59472
G1 X120.051 Y142.731 E15.63518
G1 X120.439 Y142.069 E15.74544
G1 X120.609 Y141.758 E15.79636
G1 X120.942 Y141.097 E15.90271
G1 X121.101 Y140.756 E15.95677
G1 X121.399 Y140.067 E16.06463
G1 X121.499 Y139.814 E16.10372
G1 X121.785 Y139.015 E16.22566
G1 X122.1 Y137.949 E16.38537
G1 X122.164 Y137.705 E16.42161
G1 X122.331 Y136.965 E16.53061
G1 X122.396 Y136.636 E16.5788
G1 X122.513 Y135.908 E16.68474
G1 X122.56 Y135.561 E16.73506
G1 X122.644 Y134.691 E16.86064
G1 X122.663 Y134.266 E16.92177
G1 X122.681 Y121.205 E18.79843
G1 X122.547 Y119.626 E19.02612
G1 X122.592 Y118.91 E19.1292
G1 X122.604 Y118.813 E19.14324
G1 X122.632 Y118.317 E19.21462
G1 X122.665 Y89.713 E23.32456
G1 X122.638 Y89.296 E23.3846
G1 X122.628 Y88.483 E23.50142
G1 X122.719 Y87.757 E23.60655
G1 X122.777 Y87.459 E23.65017
G1 X122.813 Y87.174 E23.69145
G1 X122.842 Y86.667 E23.76442
G1 X122.874 Y58.091 E27.87033
G1 X122.874 Y57.882 E27.90036
G1 X122.816 Y57.23 E27.99441
G1 X122.742 Y56.786 E28.05908
G1 X122.618 Y56.391 E28.11857
G1 X122.522 Y56.148 E28.15611
G1 X122.397 Y55.878 E28.19886
G1 X122.278 Y55.656 E28.23505
G1 X122.12 Y55.406 E28.27755
G1 X121.96 Y55.183 E28.31698
G1 X121.785 Y54.968 E28.35681
G1 X121.596 Y54.764 E28.39677
G1 X121.389 Y54.569 E28.43763
G1 X121.188 Y54.4 E28.47537
G1 X120.952 Y54.227 E28.51741
G1 X120.719 Y54.078 E28.55715
G1 X120.488 Y53.949 E28.59516
G1 X120.221 Y53.822 E28.63765
G1 X119.964 Y53.72 E28.67738
G1 X119.717 Y53.641 E28.71464
G1 X119.436 Y53.568 E28.75635
G1 X119.17 Y53.515 E28.79532
G1 X118.887 Y53.48 E28.83629
G1 X118.396 Y53.452 E28.90696
G1 X104.569 Y53.452 E30.89367
G1 X103.898 Y53.512 E30.99047
G1 X103.588 Y53.565 E31.03566
G1 X103.337 Y53.625 E31.07274
G1 X103.07 Y53.708 E31.11291
G1 X102.819 Y53.809 E31.15179
G1 X102.565 Y53.926 E31.19197
G1 X102.323 Y54.057 E31.23151
G1 X102.091 Y54.204 E31.27097
G1 X101.859 Y54.37 E31.31196
G1 X101.642 Y54.547 E31.3522
G1 X101.438 Y54.737 E31.39225
G1 X101.253 Y54.934 E31.43108
G1 X101.071 Y55.15 E31.47167
G1 X100.91 Y55.371 E31.51095
G1 X100.76 Y55.605 E31.55089
G1 X100.625 Y55.85 E31.59108
G1 X100.505 Y56.103 E31.63132
G1 X100.398 Y56.371 E31.67278
G0 F12000 X100.898 Y56.775
G1 F1125 X122.25 Y78.127 E36.0115
G0 F12000 X122.247 Y81.518
G1 F1125 X100.734 Y60.005 E40.38293
G0 F12000 X100.737 Y63.402
G1 F1125 X122.243 Y84.907 E44.75284
G0 F12000 X122.066 Y88.125
G1 F1125 X100.742 Y66.801 E49.08586
G0 F12000 X100.746 Y70.199
G1 F1125 X122.062 Y91.515 E53.41727
G0 F12000 X122.058 Y94.905
G1 F1125 X100.749 Y73.597 E57.74714
G0 F12000 X100.754 Y76.995
G1 F1125 X122.054 Y98.295 E62.07529
G0 F12000 X122.05 Y101.686
G1 F1125 X100.757 Y80.393 E66.40202
G0 F12000 X100.762 Y83.791
G1 F1125 X122.046 Y105.076 E70.72702
G0 F12000 X122.043 Y108.466
G1 F1125 X100.793 Y87.217 E75.04491
G0 F12000 X100.597 Y90.414
G1 F1125 X122.038 Y111.856 E79.40182
G0 F12000 X122.035 Y115.247
G1 F1125 X100.6 Y93.812 E83.7574
G0 F12000 X100.605 Y97.21
G1 F1125 X122.013 Y118.619 E88.1076
G0 F12000 X122.079 Y122.079
G1 F1125 X100.609 Y100.609 E92.47029
G0 F12000 X100.612 Y104.006
G1 F1125 X122.074 Y125.469 E96.83146
G0 F12000 X122.07 Y128.858
G1 F1125 X100.617 Y107.405 E101.1907
G0 F12000 X100.621 Y110.803
G1 F1125 X122.066 Y132.248 E105.54832
G0 F12000 X121.958 Y135.534
G1 F1125 X100.625 Y114.201 E109.88317
G0 F12000 X100.629 Y117.599
G1 F1125 X121.361 Y138.332 E114.09601
G0 F12000 X120.423 Y140.788
G1 F1125 X100.697 Y121.062 E118.10432
G0 F12000 X100.692 Y124.45
G1 F1125 X119.192 Y142.95 E121.86351
G0 F12000 X117.711 Y144.864
G1 F1125 X100.697 Y127.85 E125.32075
G0 F12000 X100.702 Y131.249
G1 F1125 X115.99 Y146.537 E128.42726
G0 F12000 X113.682 Y147.624
G1 F1125 X100.723 Y134.664 E131.06063
G0 F12000 X101.587 Y138.923
G1 F1125 X110.404 Y147.74 E132.85224
G1 F2700 E127.85224
G0 F12000 X110.404 Y149.607
G0 X113.383 Y149.557
G0 X114.52 Y149.35
G0 X115.922 Y148.798
G0 X116.865 Y148.227
G0 X118.255 Y146.996
G0 X119.841 Y145.23
G0 X121.164 Y143.335
G0 X122.257 Y141.27
G0 X123.097 Y139.059
G0 X123.653 Y136.79
G0 X123.906 Y134.773
G0 X124.121 Y74.738
G0 X122.254 Y74.736
G1 F2700 E132.85224
G1 F1125 X102.305 Y54.788 E136.90577
G0 F12000 X104.963 Y54.051
G1 F1125 X122.258 Y71.346 E140.4201
G0 F12000 X122.262 Y67.956
G1 F1125 X108.357 Y54.051 E143.24559
G0 F12000 X111.751 Y54.051
G1 F1125 X122.265 Y64.565 E145.38203
G0 F12000 X122.269 Y61.175
G1 F1125 X115.145 Y54.051 E146.82963
G0 F12000 X118.549 Y54.061
G1 F1125 X122.261 Y57.773 E147.5839
G1 F2700 E142.5839
G0 F300 X122.261 Y57.773 Z0.648
G0 F12000 X124.119 Y57.604
G0 X123.923 Y56.329
G0 X123.529 Y55.313
G0 X122.965 Y54.411
G0 X122.232 Y53.624
G0 X121.367 Y52.99
G0 X120.407 Y52.535
G0 X119.368 Y52.265
G0 X118.833 Y52.222
G0 X104.383 Y52.199
G0 X103.946 Y54.01
;TIME_ELAPSED:66.433674
;LAYER:-5
;TYPE:SUPPORT
G1 F2700 E147.5839
G1 F1125 X103.599 Y54.068 E147.64182
G1 X103.235 Y54.182 E147.70462
G1 X102.908 Y54.31 E147.76244
G1 X102.471 Y54.543 E147.84397
G1 X102.063 Y54.836 E147.92667
G1 X101.785 Y55.094 E147.98911
G1 X101.47 Y55.449 E148.06725
G1 X101.246 Y55.756 E148.12982
G1 X101.007 Y56.189 E148.21124
G1 X100.826 Y56.644 E148.29186
G1 X100.705 Y57.116 E148.37209
G1 X100.665 Y57.443 E148.42632
G1 X104.114 Y53.994 E149.22936
G1 X104.59 Y53.952 E149.30804
G1 X105.995 Y53.952 E149.53935
G1 X100.634 Y59.313 E150.78757
G1 X100.636 Y61.149 E151.08984
G1 X107.833 Y53.952 E152.76554
G1 X109.672 Y53.952 E153.06831
G1 X100.638 Y62.986 E155.17172
G1 X100.64 Y64.822 E155.474
G1 X111.51 Y53.952 E158.00489
G1 X113.349 Y53.952 E158.30766
G1 X100.642 Y66.658 E161.26615
G1 X100.644 Y68.495 E161.56859
G1 X115.187 Y53.952 E164.95468
G1 X117.026 Y53.952 E165.25745
G1 X100.646 Y70.331 E169.07113
G1 X100.648 Y72.168 E169.37357
G1 X118.839 Y53.977 E173.60903
G1 X119.095 Y54.01 E173.65153
G1 X119.552 Y54.112 E173.72862
G1 X119.933 Y54.237 E173.79464
G1 X120.261 Y54.394 E173.8545
G1 X100.65 Y74.004 E178.42047
G1 X100.653 Y75.84 E178.72275
G1 X121.305 Y55.188 E183.53121
G1 X121.558 Y55.478 E183.59457
G1 X121.704 Y55.681 E183.63574
G1 X121.904 Y56.002 E183.69801
G1 X122.038 Y56.294 E183.7509
G1 X100.655 Y77.677 E188.72956
G1 X100.657 Y79.513 E189.03184
G1 X122.374 Y57.795 E194.08839
G1 X122.372 Y59.636 E194.39148
G1 X100.659 Y81.349 E199.44698
G1 X100.661 Y83.186 E199.74942
G1 X122.37 Y61.477 E204.80399
G1 X122.367 Y63.318 E205.10709
G1 X100.663 Y85.022 E210.16049
G1 X100.665 Y86.859 E210.46293
G1 X122.365 Y65.159 E215.51541
G1 X122.363 Y66.999 E215.81834
G1 X100.573 Y88.789 E220.89177
G1 X100.519 Y89.235 E220.96573
G1 X100.495 Y89.678 E221.03877
G1 X100.496 Y90.704 E221.20769
G1 X122.361 Y68.84 E226.29846
G1 X122.359 Y70.68 E226.6014
G1 X100.498 Y92.541 E231.69136
G1 X100.501 Y94.377 E231.99363
G1 X122.357 Y72.521 E237.08242
G1 X122.354 Y74.362 E237.38552
G1 X100.503 Y96.213 E242.47315
G1 X100.506 Y98.049 E242.77543
G1 X122.352 Y76.202 E247.86201
G1 X122.35 Y78.043 E248.16511
G1 X100.508 Y99.885 E253.25064
G1 X100.51 Y101.722 E253.55308
G1 X122.348 Y79.883 E258.6378
G1 X122.346 Y81.724 E258.9409
G1 X100.512 Y103.558 E264.02457
G1 X100.514 Y105.394 E264.32685
G1 X122.344 Y83.565 E269.40947
G1 X122.342 Y85.405 E269.7124
G1 X100.516 Y107.231 E274.79421
G1 X100.518 Y109.067 E275.09649
G1 X122.302 Y87.283 E280.16852
G1 X122.221 Y87.698 E280.23813
G1 X122.127 Y88.435 E280.36045
G1 X122.136 Y89.288 E280.5009
G1 X100.52 Y110.904 E285.53381
G1 X100.523 Y112.74 E285.83609
G1 X122.162 Y91.1 E290.87447
G1 X122.16 Y92.941 E291.17757
G1 X100.525 Y114.576 E296.21491
G1 X100.527 Y116.413 E296.51735
G1 X122.158 Y94.782 E301.55376
G1 X122.156 Y96.622 E301.85669
G1 X100.52 Y118.258 E306.89426
G1 X100.67 Y119.947 E307.17343
G1 X122.154 Y98.463 E312.17561
G1 X122.151 Y100.303 E312.47854
G1 X100.588 Y121.867 E317.49923
G1 X100.59 Y123.703 E317.80151
G1 X122.149 Y102.144 E322.82115
G1 X122.147 Y103.985 E323.12425
G1 X100.593 Y125.539 E328.14273
G1 X100.596 Y127.374 E328.44484
G1 X122.145 Y105.825 E333.46215
G1 X122.143 Y107.666 E333.76525
G1 X100.6 Y129.209 E338.78117
G1 X100.602 Y131.045 E339.08344
G1 X122.141 Y109.506 E344.09843
G1 X122.139 Y111.347 E344.40153
G1 X100.605 Y132.88 E349.41523
G1 X100.607 Y134.366 E349.65988
G1 X100.625 Y134.699 E349.71479
G1 X122.137 Y113.187 E354.72349
G1 X122.135 Y115.028 E355.02659
G1 X100.823 Y136.34 E359.98872
G1 X100.926 Y136.859 E360.07583
G1 X101.157 Y137.844 E360.2424
G1 X122.132 Y116.869 E365.12607
G1 X122.131 Y118.303 E365.36216
G1 X122.106 Y118.733 E365.43307
G1 X101.597 Y139.243 E370.20836
G1 X101.776 Y139.747 E370.29641
G1 X102.128 Y140.55 E370.44076
G1 X122.122 Y120.556 E375.09602
G1 X122.18 Y121.229 E375.20723
G1 X122.178 Y122.338 E375.38982
G1 X102.74 Y141.777 E379.91574
G1 X103.115 Y142.42 E380.03829
G1 X103.436 Y142.919 E380.13597
G1 X122.176 Y124.179 E384.49926
G1 X122.173 Y126.02 E384.80236
G1 X104.203 Y143.99 E388.98636
G1 X104.403 Y144.253 E389.04076
G1 X105.038 Y144.994 E389.20142
G1 X122.171 Y127.861 E393.19055
G1 X122.168 Y129.702 E393.49365
G1 X105.945 Y145.925 E397.27089
G1 X106.643 Y146.559 E397.42614
G1 X106.933 Y146.776 E397.48577
G1 X122.166 Y131.543 E401.03251
G1 X122.164 Y133.384 E401.33561
G1 X108.11 Y147.438 E404.60785
G1 X108.54 Y147.595 E404.68321
G1 X108.808 Y147.671 E404.72907
G1 X109.224 Y147.756 E404.79898
G1 X109.585 Y147.8 E404.85885
G1 X122.093 Y135.293 E407.77101
G1 X122.019 Y135.833 E407.86074
G1 X121.869 Y136.733 E408.01096
G1 X121.689 Y137.535 E408.14629
G1 X111.384 Y147.841 E410.54574
G1 X112.543 Y147.841 E410.73656
G1 X113.27 Y147.793 E410.85651
G1 X120.744 Y140.318 E412.59682
G1 X120.609 Y140.63 E412.65279
G1 X120.165 Y141.529 E412.81787
G1 X120.012 Y141.808 E412.87025
G1 X119.63 Y142.461 E412.99481
G1 X119.481 Y142.697 E413.04076
G1 X119.086 Y143.289 E413.15793
G1 X118.853 Y143.616 E413.22403
G1 X118.376 Y144.24 E413.35334
G1 X117.628 Y145.112 E413.54249
G1 X117.014 Y145.738 E413.68685
G1 X116.748 Y145.998 E413.74809
G1 X116.069 Y146.605 E413.89804
G1 X115.817 Y146.805 E413.951
G1 X115.593 Y146.955 E413.99539
G1 X115.002 Y147.29 E414.10723
G1 X114.635 Y147.449 E414.17308
G1 X114.327 Y147.565 E414.22727
G1 X114.076 Y147.64 E414.2704
G1 X113.511 Y147.761 E414.36553
G1 F2700 E409.36553
G0 F300 X113.511 Y147.761 Z0.888
G0 F12000 X113.383 Y149.557
G0 X110.174 Y149.605
G0 X108.794 Y149.472
G0 X108.069 Y149.263
G0 X107.025 Y148.891
G0 X107.46 Y147.129
;TIME_ELAPSED:155.054571
;LAYER:-4
;TYPE:SUPPORT-INTERFACE
G1 F2700 E414.36553
G1 F1500 X103.831 Y143.5 E414.64718
G1 X104.403 Y144.253 E414.69907
G1 X105.023 Y144.978 E414.75142
G1 X105.235 Y145.211 E414.76871
G1 X105.941 Y145.921 E414.82366
G1 X106.643 Y146.559 E414.87572
G1 X107.16 Y146.945 E414.91113
G1 X107.41 Y147.103 E414.92736
G1 X107.765 Y147.288 E414.94933
G1 X108.149 Y147.454 E414.97228
G1 X108.54 Y147.595 E414.9951
G1 X108.769 Y147.66 E415.00816
G1 X102.567 Y141.458 E415.4895
G1 X102.229 Y140.784 E415.53088
G1 X101.885 Y139.998 E415.57797
G1 X109.694 Y147.807 E416.18403
G1 X110.222 Y147.84 E416.21306
G1 X110.505 Y147.84 E416.22859
G1 X101.423 Y138.759 E416.93342
G1 X101.104 Y137.661 E416.99617
G1 X111.283 Y147.84 E417.78617
G1 X112.06 Y147.84 E417.82881
G1 X100.887 Y136.667 E418.69596
G1 X100.733 Y135.735 E418.7478
G1 X112.821 Y147.823 E419.68596
G1 X113.235 Y147.797 E419.70872
G1 X113.532 Y147.756 E419.72518
G1 X100.631 Y134.855 E420.72644
G1 X100.607 Y134.366 E420.7533
G1 X100.607 Y134.053 E420.77048
G1 X114.178 Y147.624 E421.82374
G1 X114.736 Y147.404 E421.85666
G1 X100.605 Y133.274 E422.95334
G1 X100.604 Y132.494 E422.99614
G1 X115.255 Y147.146 E424.13326
G1 X115.753 Y146.865 E424.16464
G1 X100.602 Y131.715 E425.34049
G1 X100.602 Y130.937 E425.38318
G1 X116.174 Y146.509 E426.59174
G1 X116.585 Y146.142 E426.62198
G1 X100.6 Y130.157 E427.86259
G1 X100.599 Y129.378 E427.90534
G1 X116.986 Y145.765 E429.17715
G1 X117.372 Y145.374 E429.2073
G1 X100.597 Y128.599 E430.50923
G1 X100.597 Y127.82 E430.55198
G1 X117.748 Y144.972 E431.88312
G1 X118.108 Y144.553 E431.91344
G1 X100.595 Y127.041 E433.2726
G1 X100.594 Y126.262 E433.31535
G1 X118.461 Y144.129 E434.70202
G1 X118.798 Y143.689 E434.73244
G1 X100.593 Y125.483 E436.14539
G1 X100.591 Y124.703 E436.18819
G1 X119.123 Y143.235 E437.62648
G1 X119.434 Y142.769 E437.65722
G1 X100.59 Y123.925 E439.11972
G1 X100.589 Y123.146 E439.16248
G1 X119.732 Y142.288 E440.64814
G1 X120.018 Y141.797 E440.67933
G1 X100.588 Y122.366 E442.18735
G1 X100.586 Y121.587 E442.2301
G1 X120.285 Y141.287 E443.75899
G1 X120.543 Y140.766 E443.7909
G1 X100.617 Y120.84 E445.33737
G1 X100.66 Y120.106 E445.37773
G1 X120.784 Y140.229 E446.93953
G1 X121.015 Y139.683 E446.97206
G1 X100.609 Y119.277 E448.55579
G1 X100.535 Y118.424 E448.60278
G1 X121.22 Y139.109 E450.20816
G1 X121.422 Y138.534 E450.24161
G1 X100.527 Y117.639 E451.86329
G1 X100.527 Y116.861 E451.90599
G1 X121.589 Y137.923 E453.54063
G1 X121.743 Y137.299 E453.5759
G1 X100.526 Y116.082 E455.22257
G1 X100.525 Y115.303 E455.26532
G1 X121.881 Y136.66 E456.92282
G1 X121.992 Y135.993 E456.95993
G1 X100.524 Y114.525 E458.62608
G1 X100.523 Y113.746 E458.66883
G1 X122.083 Y135.306 E460.34212
G1 X122.148 Y134.593 E460.38141
G1 X100.522 Y112.967 E462.05983
G1 X100.521 Y112.188 E462.10258
G1 X122.164 Y133.831 E463.78231
G1 X122.165 Y133.054 E463.82495
G1 X100.52 Y111.41 E465.5048
