;FLAVOR:Marlin
;TIME:7875
;Filament used: 8.26712m
;Layer height: 0.24
;MINX:70.137
;MINY:71.404
;MINZ:0.288
;MAXX:149.871
;MAXY:143.998
;MAXZ:18.318
;Generated with Cura_SteamEngine 5.2.1
M140 S60
M105
M190 S60
M104 S210
M105
M109 S210
M82 ;absolute extrusion mode
; Ender 3 Custom Start G-code
G92 E0 ; Reset Extruder
G28 ; Home all axes
G1 Z2.0 F3000 ; Move Z Axis up little to prevent scratching of Heat Bed
G1 X0.1 Y20 Z0.3 F5000.0 ; Move to start position
G1 X0.1 Y200.0 Z0.3 F1500.0 E15 ; Draw the first line
G1 X0.4 Y200.0 Z0.3 F5000.0 ; Move to side a little
G1 X0.4 Y20 Z0.3 F1500.0 E30 ; Draw the second line
G92 E0 ; Reset Extruder
G1 Z2.0 F3000 ; Move Z Axis up little to prevent scratching of Heat Bed
G1 X5 Y20 Z0.3 F5000.0 ; Move over to prevent blob squish
G92 E0
G92 E0
G1 F2700 E-5
;LAYER_COUNT:71
;LAYER:-6
M107
G0 F12000 X80.723 Y78.163 Z0.288
;TYPE:SUPPORT-INTERFACE
G1 F2700 E0
G1 F1125 X79.953 Y79.265 E0.19316
G1 X79.715 Y79.65 E0.2582
G1 X79.072 Y80.821 E0.45015
G1 X78.863 Y81.256 E0.51949
G1 X78.35 Y82.477 E0.70978
G1 X78.223 Y82.831 E0.76382
G1 X77.809 Y84.207 E0.97029
G1 X77.688 Y84.718 E1.04574
G1 X77.472 Y85.86 E1.21273
G1 X77.402 Y86.353 E1.28428
G1 X77.286 Y87.804 E1.49343
G1 X77.277 Y88.307 E1.56572
G1 X77.316 Y89.622 E1.75474
G1 X77.358 Y90.105 E1.8244
G1 X77.537 Y91.419 E2.01495
G1 X77.631 Y91.9 E2.08537
G1 X77.913 Y93.058 E2.25662
G1 X78.091 Y93.652 E2.34571
G1 X78.589 Y95.027 E2.55584
G1 X78.862 Y95.621 E2.64977
G1 X79.439 Y96.648 E2.81903
G1 X79.558 Y96.908 E2.86011
G1 X79.809 Y97.362 E2.93465
G1 X80.244 Y98.051 E3.05173
G1 X80.46 Y98.358 E3.10566
G1 X81.302 Y99.438 E3.30243
G1 X81.717 Y99.911 E3.39284
G1 X82.521 Y100.739 E3.55867
G1 X82.803 Y101.003 E3.61417
G1 X83.17 Y101.376 E3.68936
G1 X83.588 Y101.902 E3.7859
G1 X83.973 Y102.533 E3.8921
G1 X84.256 Y103.177 E3.99318
G1 X84.456 Y103.842 E4.09295
G1 X84.574 Y104.541 E4.19481
G1 X84.601 Y105.226 E4.29331
G1 X84.54 Y105.966 E4.4
G1 X84.385 Y106.669 E4.50343
G1 X84.152 Y107.321 E4.60292
G1 X83.831 Y107.957 E4.70528
G1 X83.431 Y108.551 E4.80817
G1 X82.967 Y109.076 E4.90885
G1 X82.545 Y109.457 E4.99054
G1 X81.943 Y109.885 E5.09667
G1 X81.33 Y110.212 E5.1965
G1 X80.687 Y110.524 E5.29919
G1 X79.644 Y111.101 E5.47045
G1 X79.118 Y111.431 E5.55967
G1 X78.163 Y112.102 E5.72737
G1 X77.758 Y112.415 E5.80092
G1 X76.75 Y113.295 E5.99318
G1 X76.404 Y113.63 E6.06238
G1 X75.537 Y114.563 E6.24538
G1 X75.117 Y115.066 E6.33954
G1 X74.411 Y116.017 E6.50972
G1 X74.135 Y116.424 E6.58037
G1 X73.452 Y117.577 E6.77293
G1 X73.219 Y118.017 E6.84446
G1 X72.627 Y119.324 E7.05063
G1 X72.437 Y119.825 E7.12761
G1 X72.039 Y121.048 E7.31241
G1 X71.911 Y121.525 E7.38337
G1 X71.635 Y122.815 E7.57292
G1 X71.563 Y123.279 E7.64039
G1 X71.424 Y124.619 E7.83396
G1 X71.402 Y125.099 E7.903
G1 X71.401 Y126.298 E8.07527
G1 X71.424 Y126.778 E8.14432
G1 X71.562 Y128.101 E8.33545
G1 X71.659 Y128.71 E8.42405
G1 X71.947 Y130.016 E8.61621
G1 X72.075 Y130.469 E8.68385
G1 X72.453 Y131.622 E8.85819
G1 X72.634 Y132.092 E8.93056
G1 X73.174 Y133.287 E9.11898
G1 X73.452 Y133.823 E9.20573
G1 X74.057 Y134.849 E9.37687
G1 X74.401 Y135.369 E9.46646
G1 X75.196 Y136.433 E9.6573
G1 X75.506 Y136.803 E9.72666
G1 X76.316 Y137.681 E9.8983
G1 X76.671 Y138.031 E9.96993
G1 X77.663 Y138.903 E10.1597
G1 X78.054 Y139.214 E10.23148
G1 X79.234 Y140.043 E10.43869
G1 X79.64 Y140.294 E10.50727
G1 X80.81 Y140.938 E10.69917
G1 X81.28 Y141.16 E10.77385
G1 X82.479 Y141.664 E10.96073
G1 X82.968 Y141.837 E11.03526
G1 X84.071 Y142.167 E11.20068
G1 X84.553 Y142.29 E11.27216
G1 X85.881 Y142.544 E11.46643
G1 X86.368 Y142.611 E11.53706
G1 X87.782 Y142.724 E11.74088
G1 X88.294 Y142.733 E11.81446
G1 X89.623 Y142.693 E12.0055
G1 X90.11 Y142.651 E12.07573
G1 X91.364 Y142.481 E12.25756
G1 X91.859 Y142.384 E12.33004
G1 X93.178 Y142.061 E12.52516
G1 X93.649 Y141.916 E12.59597
G1 X95.035 Y141.413 E12.80782
G1 X95.603 Y141.15 E12.89776
G1 X96.619 Y140.58 E13.06514
G1 X96.89 Y140.455 E13.10802
G1 X97.356 Y140.197 E13.18456
G1 X98.066 Y139.747 E13.30534
G1 X98.371 Y139.533 E13.35887
G1 X99.527 Y138.625 E13.57008
G1 X99.903 Y138.287 E13.64273
G1 X100.817 Y137.392 E13.82653
G1 X101.083 Y137.104 E13.88286
G1 X101.995 Y136 E14.08861
G1 X102.296 Y135.588 E14.16193
G1 X102.925 Y134.641 E14.32528
G1 X103.181 Y134.211 E14.39718
G1 X103.879 Y132.863 E14.61529
G1 X104.065 Y132.45 E14.68037
G1 X104.485 Y131.394 E14.84366
G1 X104.663 Y130.866 E14.92372
G1 X104.89 Y130.287 E15.01308
G1 X105.247 Y129.635 E15.11989
G1 X105.635 Y129.095 E15.21543
G1 X106.147 Y128.547 E15.32319
G1 X106.683 Y128.103 E15.42319
G1 X107.257 Y127.738 E15.52093
G1 X107.895 Y127.435 E15.62241
G1 X108.565 Y127.213 E15.72383
G1 X109.25 Y127.081 E15.82406
G1 X109.978 Y127.033 E15.92889
G1 X110.698 Y127.073 E16.0325
G1 X111.387 Y127.197 E16.13309
G1 X112.074 Y127.417 E16.23674
G1 X112.669 Y127.689 E16.33074
G1 X113.287 Y128.072 E16.43521
G1 X113.834 Y128.516 E16.53644
G1 X114.321 Y129.026 E16.63776
G1 X114.745 Y129.598 E16.74006
G1 X115.085 Y130.205 E16.84003
G1 X115.366 Y130.903 E16.94814
G1 X115.46 Y131.196 E16.99235
G1 X115.967 Y132.51 E17.19472
G1 X116.222 Y133.06 E17.28183
G1 X116.735 Y134.034 E17.44
G1 X116.979 Y134.456 E17.51004
G1 X117.771 Y135.657 E17.71675
G1 X118.094 Y136.087 E17.79402
G1 X118.946 Y137.113 E17.98564
G1 X119.292 Y137.483 E18.05843
G1 X120.158 Y138.324 E18.23188
G1 X120.591 Y138.7 E18.31428
G1 X121.533 Y139.441 E18.48649
G1 X122.08 Y139.829 E18.58284
G1 X122.545 Y140.086 E18.65918
G1 X122.951 Y140.253 E18.72226
G1 X123.258 Y140.357 E18.76883
G1 X124.164 Y140.755 E18.91102
G1 X125.121 Y141.379 E19.07517
G1 X125.377 Y141.523 E19.11738
G1 X125.609 Y141.632 E19.15421
G1 X125.965 Y141.774 E19.20928
G1 X126.518 Y141.959 E19.29306
G1 X126.961 Y142.084 E19.3592
G1 X128.134 Y142.371 E19.53271
G1 X128.644 Y142.47 E19.60736
G1 X129.897 Y142.64 E19.78904
G1 X130.385 Y142.682 E19.85942
G1 X131.711 Y142.722 E20.05003
G1 X132.224 Y142.713 E20.12375
G1 X133.639 Y142.6 E20.32771
G1 X134.125 Y142.533 E20.3982
G1 X135.312 Y142.309 E20.57177
G1 X135.9 Y142.167 E20.65868
G1 X137.068 Y141.817 E20.83388
G1 X137.544 Y141.648 E20.90645
G1 X138.855 Y141.094 E21.11095
G1 X139.318 Y140.864 E21.18523
G1 X140.452 Y140.235 E21.37156
G1 X140.889 Y139.957 E21.44597
G1 X141.845 Y139.285 E21.61388
G1 X142.25 Y138.972 E21.68742
G1 X143.275 Y138.077 E21.88294
G1 X143.603 Y137.758 E21.94868
G1 X144.471 Y136.824 E22.13189
G1 X144.891 Y136.321 E22.22604
G1 X145.597 Y135.37 E22.39622
G1 X145.877 Y134.955 E22.46816
G1 X146.556 Y133.81 E22.65943
G1 X146.789 Y133.37 E22.73096
G1 X147.376 Y132.078 E22.93486
G1 X147.526 Y131.694 E22.9941
G1 X147.929 Y130.474 E23.17871
G1 X148.097 Y129.865 E23.26948
G1 X148.349 Y128.704 E23.44018
G1 X148.446 Y128.091 E23.52936
G1 X148.584 Y126.768 E23.72048
G1 X148.607 Y126.288 E23.78953
G1 X148.607 Y125.306 E23.93063
G1 X148.607 Y125.089 E23.96181
G1 X148.584 Y124.609 E24.03085
G1 X148.446 Y123.286 E24.22198
G1 X148.349 Y122.675 E24.31087
G1 X148.061 Y121.371 E24.50275
G1 X147.934 Y120.918 E24.57035
G1 X147.524 Y119.677 E24.75814
G1 X147.339 Y119.212 E24.83004
G1 X146.789 Y118.006 E25.0205
G1 X146.555 Y117.564 E25.09235
G1 X145.955 Y116.544 E25.26239
G1 X145.687 Y116.135 E25.33265
G1 X144.891 Y115.053 E25.52565
G1 X144.472 Y114.551 E25.6196
G1 X143.605 Y113.618 E25.80261
G1 X143.252 Y113.278 E25.87303
G1 X142.346 Y112.486 E26.04593
G1 X141.845 Y112.092 E26.13751
G1 X140.758 Y111.333 E26.328
G1 X140.368 Y111.093 E26.3938
G1 X139.319 Y110.512 E26.5661
G1 X138.326 Y110.027 E26.72488
G1 X137.726 Y109.651 E26.82662
G1 X137.157 Y109.186 E26.93221
G1 X136.693 Y108.692 E27.02959
G1 X136.273 Y108.118 E27.13178
G1 X135.928 Y107.5 E27.23348
G1 X135.67 Y106.851 E27.33383
G1 X135.49 Y106.158 E27.43671
G1 X135.4 Y105.453 E27.53882
G1 X135.403 Y104.718 E27.64443
G1 X135.493 Y104.028 E27.74441
G1 X135.667 Y103.362 E27.84332
G1 X135.922 Y102.716 E27.94311
G1 X136.281 Y102.07 E28.0493
G1 X136.681 Y101.523 E28.14667
G1 X137.183 Y100.995 E28.25135
G1 X137.483 Y100.712 E28.31061
G1 X138.288 Y99.883 E28.47664
G1 X138.666 Y99.449 E28.55933
G1 X139.503 Y98.38 E28.75441
G1 X139.792 Y97.96 E28.82766
G1 X140.016 Y97.57 E28.89229
G1 X140.125 Y97.343 E28.92847
G1 X140.242 Y97.059 E28.9726
G1 X140.344 Y96.758 E29.01827
G1 X140.756 Y95.822 E29.16521
G1 X141.127 Y95.247 E29.26353
G1 X141.226 Y95.112 E29.28758
G1 X141.369 Y94.889 E29.32565
G1 X141.51 Y94.636 E29.36726
G1 X141.625 Y94.395 E29.40563
G1 X141.815 Y93.905 E29.48114
G1 X141.952 Y93.481 E29.54517
G1 X142.039 Y93.179 E29.59032
G1 X142.354 Y91.905 E29.77889
G1 X142.452 Y91.407 E29.85182
G1 X142.63 Y90.114 E30.03935
G1 X142.672 Y89.626 E30.10973
G1 X142.712 Y88.3 E30.30034
G1 X142.703 Y87.787 E30.37406
G1 X142.59 Y86.372 E30.57802
G1 X142.523 Y85.884 E30.6488
G1 X142.299 Y84.699 E30.82208
G1 X142.15 Y84.087 E30.91258
G1 X141.802 Y82.928 E31.08645
G1 X141.587 Y82.342 E31.17614
G1 X141.081 Y81.151 E31.36207
G1 X140.861 Y80.705 E31.43353
G1 X140.218 Y79.549 E31.62359
G1 X139.936 Y79.108 E31.6988
G1 X139.255 Y78.139 E31.86898
G1 X138.947 Y77.743 E31.94106
G1 X138.092 Y76.764 E32.12782
G1 X137.764 Y76.423 E32.1958
G1 X136.782 Y75.512 E32.38827
G1 X136.412 Y75.201 E32.45772
G1 X135.348 Y74.405 E32.64864
G1 X134.942 Y74.132 E32.71894
G1 X133.8 Y73.455 E32.90969
G1 X133.359 Y73.222 E32.98136
G1 X132.153 Y72.672 E33.17181
G1 X131.688 Y72.487 E33.24372
G1 X130.464 Y72.082 E33.42896
G1 X129.855 Y71.914 E33.51973
G1 X128.694 Y71.662 E33.69044
G1 X128.081 Y71.565 E33.77961
G1 X126.758 Y71.427 E33.97073
G1 X126.28 Y71.405 E34.03949
G1 X125.079 Y71.404 E34.21205
G1 X124.601 Y71.427 E34.28081
G1 X123.26 Y71.566 E34.47452
G1 X122.8 Y71.638 E34.54142
G1 X121.36 Y71.95 E34.75313
G1 X120.884 Y72.084 E34.82418
G1 X119.792 Y72.444 E34.98939
G1 X119.304 Y72.63 E35.06443
G1 X118.09 Y73.177 E35.25575
G1 X117.553 Y73.456 E35.3427
G1 X116.536 Y74.055 E35.51229
G1 X115.996 Y74.413 E35.60538
G1 X114.945 Y75.197 E35.79378
G1 X114.562 Y75.519 E35.86568
G1 X113.769 Y76.251 E36.02074
G1 X113.349 Y76.601 E36.09929
G1 X112.796 Y76.966 E36.1945
G1 X112.166 Y77.277 E36.29545
G1 X111.466 Y77.521 E36.40196
G1 X110.789 Y77.661 E36.50129
G1 X110.09 Y77.717 E36.60205
G1 X109.365 Y77.684 E36.70633
G1 X108.663 Y77.559 E36.80878
G1 X108.007 Y77.355 E36.90749
G1 X107.364 Y77.065 E37.00884
G1 X106.742 Y76.68 E37.11395
G1 X106.195 Y76.239 E37.2149
G1 X105.326 Y75.441 E37.38442
G1 X105.053 Y75.216 E37.43525
G1 X104.012 Y74.437 E37.62207
G1 X103.575 Y74.139 E37.69807
G1 X102.335 Y73.409 E37.90482
G1 X101.976 Y73.223 E37.96292
G1 X100.798 Y72.686 E38.14893
G1 X100.356 Y72.509 E38.21734
G1 X99.091 Y72.088 E38.40891
G1 X98.501 Y71.925 E38.49686
G1 X97.326 Y71.67 E38.66961
G1 X96.714 Y71.573 E38.75865
G1 X95.391 Y71.435 E38.94977
G1 X94.911 Y71.412 E39.01882
G1 X93.712 Y71.412 E39.19109
G1 X93.232 Y71.435 E39.26014
G1 X91.893 Y71.574 E39.45357
G1 X91.43 Y71.646 E39.52089
G1 X90.113 Y71.928 E39.71441
G1 X89.651 Y72.052 E39.78315
G1 X88.407 Y72.458 E39.97117
G1 X87.821 Y72.687 E40.06157
G1 X86.646 Y73.222 E40.24707
G1 X86.285 Y73.409 E40.30549
G1 X85.159 Y74.069 E40.49302
G1 X84.748 Y74.338 E40.5636
G1 X83.567 Y75.215 E40.77496
G1 X83.295 Y75.439 E40.82559
G1 X82.241 Y76.412 E41.0317
G1 X81.883 Y76.785 E41.10598
G1 X81.106 Y77.675 E41.27574
G1 X80.723 Y78.163 E41.36487
G0 F12000 X81.515 Y78.121
G1 F1125 X141.885 Y138.491 E53.63203
G0 F12000 X143.632 Y136.844
G1 F1125 X83.164 Y76.376 E65.9191
G0 F12000 X85.045 Y74.863
G1 F1125 X145.146 Y134.964 E78.13159
G0 F12000 X146.384 Y132.808
G1 F1125 X87.203 Y73.627 E90.15715
G0 F12000 X89.652 Y72.682
G1 F1125 X147.333 Y130.362 E101.8778
G0 F12000 X147.9 Y127.535
G1 F1125 X92.481 Y72.116 E113.13892
G0 F12000 X95.844 Y72.086
G1 F1125 X147.934 Y124.175 E123.72348
G0 F12000 X146.909 Y119.757
G1 F1125 X136.913 Y109.76 E125.75476
G0 F12000 X136.243 Y109.09
G1 F1125 X100.278 Y73.125 E133.06283
G1 F2700 E128.06283
G0 F12000 X101.299 Y71.525
G0 X103.056 Y72.363
G0 X104.428 Y73.211
G0 X108.97 Y76.331
G0 X108.728 Y78.181
G1 F2700 E133.06283
G1 F1125 X134.852 Y104.305 E138.37122
G0 F12000 X135.743 Y101.802
G1 F1125 X111.935 Y77.993 E143.2091
G0 F12000 X114.093 Y76.758
G1 F1125 X137.336 Y100.001 E147.93206
G0 F12000 X138.901 Y98.172
G1 F1125 X115.935 Y75.206 E152.59874
G0 F12000 X118.015 Y73.891
G1 F1125 X140.051 Y95.928 E157.07655
G0 F12000 X141.241 Y93.723
G1 F1125 X120.394 Y72.877 E161.31255
G0 F12000 X123.108 Y72.197
G1 F1125 X141.902 Y90.991 E165.13148
G0 F12000 X142.1 Y87.795
G1 F1125 X126.313 Y72.007 E168.3395
G0 F12000 X130.389 Y72.689
G1 F1125 X141.41 Y83.71 E170.57896
G1 F2700 E165.57896
G0 F12000 X143.365 Y83.733
G0 X143.857 Y86.333
G0 X149.701 Y123.127
G0 X149.871 Y125.065
G0 X149.832 Y127.024
G0 X149.591 Y128.943
G0 X149.139 Y130.847
G0 X148.501 Y132.664
G0 X147.659 Y134.431
G0 X146.626 Y136.106
G0 X145.417 Y137.665
G0 X144.131 Y139.01
G0 X142.592 Y140.306
G0 X141 Y141.379
G0 X139.274 Y142.293
G0 X137.457 Y143.021
G0 X135.572 Y143.548
G0 X133.678 Y143.867
G0 X131.701 Y143.987
G0 X129.753 Y143.897
G0 X127.857 Y143.605
G0 X125.682 Y143.016
G0 X124.471 Y142.466
G0 X121.338 Y140.851
G0 X119.299 Y139.252
G0 X118.148 Y138.085
G0 X110.001 Y128.298
G0 X109.491 Y126.462
G1 F2700 E170.57896
G1 F1125 X80.738 Y97.709 E176.42156
G1 F2700 E171.42156
G0 F12000 X78.724 Y98.011
G0 X77.474 Y95.63
G0 X76.691 Y93.382
G0 X78.223 Y91.8
G1 F2700 E176.42156
G1 F1125 X128.189 Y141.765 E186.57452
G0 F12000 X131.934 Y142.116
G1 F1125 X77.88 Y88.063 E197.55817
G0 F12000 X78.239 Y85.027
G1 F1125 X134.972 Y141.76 E209.08629
G0 F12000 X137.583 Y140.978
G1 F1125 X79.024 Y82.418 E220.98556
G0 F12000 X80.132 Y80.132
G1 F1125 X139.869 Y139.869 E233.12409
G1 F2700 E228.12409
G0 F12000 X139.909 Y141.984
G0 X137.457 Y143.021
G0 X135.572 Y143.548
G0 X133.678 Y143.867
G0 X131.701 Y143.987
G0 X129.753 Y143.897
G0 X127.857 Y143.605
G0 X125.682 Y143.016
G0 X124.996 Y142.705
G0 X121.869 Y141.157
G0 X122.223 Y139.193
G1 F2700 E233.12409
G1 F1125 X118.11 Y135.08 E233.95985
G1 F2700 E228.95985
G0 F12000 X115.977 Y135.24
G0 X107.876 Y128.843
G0 X106.892 Y127.257
G1 F2700 E233.95985
G1 F1125 X85.178 Y105.542 E238.37222
G0 F12000 X84.4 Y108.159
G1 F1125 X105.079 Y128.838 E242.57419
G0 F12000 X103.95 Y131.103
G1 F1125 X82.835 Y109.988 E246.86475
G0 F12000 X80.67 Y111.217
G1 F1125 X102.901 Y133.448 E251.38208
G0 F12000 X101.592 Y135.533
G1 F1125 X78.592 Y112.533 E256.05566
G0 F12000 X76.775 Y114.11
G1 F1125 X100.007 Y137.342 E260.7764
G0 F12000 X98.185 Y138.914
G1 F1125 X75.212 Y115.942 E265.4444
G0 F12000 X73.896 Y118.019
G1 F1125 X96.073 Y140.197 E269.95086
G0 F12000 X93.729 Y141.247
G1 F1125 X72.88 Y120.398 E274.18736
G0 F12000 X72.196 Y123.107
G1 F1125 X91.01 Y141.921 E278.01036
G0 F12000 X87.817 Y142.123
G1 F1125 X72.001 Y126.307 E281.22417
G0 F12000 X72.675 Y130.375
G1 F1125 X83.741 Y141.441 E283.47277
G1 F2700 E278.47277
G0 F300 X83.741 Y141.441 Z0.648
G0 F12000 X83.73 Y143.386
G0 X86.226 Y143.868
G0 X88.307 Y143.998
G0 X90.255 Y143.908
G0 X92.151 Y143.616
G0 X94.051 Y143.114
G0 X95.624 Y142.534
G0 X98.008 Y141.281
G0 X99.24 Y140.463
G0 X100.773 Y139.206
G0 X101.846 Y138.118
G0 X102.997 Y136.773
G0 X101.935 Y135.227
;TIME_ELAPSED:120.291636
;LAYER:-5
;TYPE:SUPPORT
G1 F2700 E283.47277
G1 F1125 X97.941 Y139.222 E284.40282
G1 X98.166 Y139.061 E284.44837
G1 X99.206 Y138.24 E284.66652
G1 X99.566 Y137.916 E284.74626
G1 X100.464 Y137.037 E284.95314
G1 X100.71 Y136.771 E285.01279
G1 X101.603 Y135.69 E285.24364
G1 X101.894 Y135.29 E285.32508
G1 X102.507 Y134.367 E285.5075
G1 X102.834 Y133.804 E285.61469
G1 X103.426 Y132.652 E285.82793
G1 X103.61 Y132.24 E285.90222
G1 X103.956 Y131.369 E286.05652
G1 X94.108 Y141.217 E288.34945
G1 X93.485 Y141.442 E288.45851
G1 X92.911 Y141.615 E288.55721
G1 X91.536 Y141.95 E288.79021
G1 X141.908 Y91.578 E300.51846
G1 X141.959 Y91.322 E300.56144
G1 X142.134 Y90.045 E300.77364
G1 X142.184 Y89.463 E300.86982
G1 X89.449 Y142.198 E313.14826
G1 X88.279 Y142.233 E313.34097
G1 X87.59 Y142.219 E313.45443
G1 X142.188 Y87.621 E326.16663
G1 X142.099 Y86.479 E326.35522
G1 X142.029 Y85.941 E326.44454
G1 X85.926 Y142.045 E339.50728
G1 X84.801 Y141.832 E339.69579
