;FLAVOR:Marlin
;TIME:1338
;Filament used: 1.42392m
;Layer height: 0.24
;MINX:98.664
;MINY:95.395
;MINZ:0.288
;MAXX:122.495
;MAXY:128.54
;MAXZ:21.198
;Generated with Cura_SteamEngine 5.2.1
M140 S60
M105
M190 S60
M104 S210
M105
M109 S210
M82 ;absolute extrusion mode
; Ender 3 Custom Start G-code
G92 E0 ; Reset Extruder
G28 ; Home all axes
G1 Z2.0 F3000 ; Move Z Axis up little to prevent scratching of Heat Bed
G1 X0.1 Y20 Z0.3 F5000.0 ; Move to start position
G1 X0.1 Y200.0 Z0.3 F1500.0 E15 ; Draw the first line
G1 X0.4 Y200.0 Z0.3 F5000.0 ; Move to side a little
G1 X0.4 Y20 Z0.3 F1500.0 E30 ; Draw the second line
G92 E0 ; Reset Extruder
G1 Z2.0 F3000 ; Move Z Axis up little to prevent scratching of Heat Bed
G1 X5 Y20 Z0.3 F5000.0 ; Move over to prevent blob squish
G92 E0
G92 E0
G1 F2700 E-5
;LAYER_COUNT:83
;LAYER:-6
M107
G0 F12000 X100.444 Y101.123 Z0.288
;TYPE:SUPPORT-INTERFACE
G1 F2700 E0
G1 F1125 X100.283 Y101.361 E0.04129
G1 X99.93 Y101.971 E0.14255
G1 X99.761 Y102.282 E0.19341
G1 X99.643 Y102.536 E0.23365
G1 X99.543 Y102.792 E0.27314
G1 X99.399 Y103.267 E0.34446
G1 X99.008 Y104.828 E0.57568
G1 X98.915 Y105.321 E0.64776
G1 X98.881 Y105.605 E0.68886
G1 X98.867 Y105.879 E0.72828
G1 X98.868 Y106.151 E0.76736
G1 X98.886 Y106.381 E0.80051
G1 X98.875 Y107.279 E0.92955
G1 X98.837 Y107.693 E0.98928
G1 X98.825 Y108.052 E1.04089
G1 X98.828 Y108.459 E1.09938
G1 X98.817 Y108.813 E1.15026
G1 X98.796 Y109.164 E1.20079
G1 X98.802 Y110.014 E1.32292
G1 X98.789 Y110.491 E1.39148
G1 X98.773 Y110.716 E1.42389
G1 X98.752 Y111.975 E1.60482
G1 X98.765 Y112.302 E1.65184
G1 X98.762 Y112.837 E1.72871
G1 X98.747 Y113.114 E1.76857
G1 X98.749 Y113.391 E1.80837
G1 X98.84 Y114.687 E1.99504
G1 X98.877 Y114.977 E2.03705
G1 X98.933 Y115.252 E2.07737
G1 X98.995 Y115.501 E2.11424
G1 X99.146 Y116.366 E2.24041
G1 X99.168 Y117.034 E2.33644
G1 X99.105 Y117.743 E2.43872
G1 X98.923 Y118.599 E2.56446
G1 X98.88 Y118.868 E2.6036
G1 X98.834 Y119.367 E2.6756
G1 X98.809 Y119.618 E2.71185
G1 X98.796 Y119.63 E2.71439
G1 X98.759 Y120.086 E2.78012
G1 X98.748 Y120.357 E2.81909
G1 X98.754 Y120.642 E2.86005
G1 X98.806 Y121.165 E2.93557
G1 X98.872 Y121.585 E2.99666
G1 X98.984 Y122.105 E3.07309
G1 X99.095 Y122.528 E3.13592
G1 X99.316 Y123.145 E3.23009
G1 X99.487 Y123.533 E3.29101
G1 X99.715 Y123.897 E3.35273
G1 X99.876 Y124.121 E3.39236
G1 X100.049 Y124.333 E3.43168
G1 X100.24 Y124.539 E3.47204
G1 X100.44 Y124.728 E3.51158
G1 X100.648 Y124.903 E3.55064
G1 X100.884 Y125.076 E3.59268
G1 X101.117 Y125.225 E3.63242
G1 X101.348 Y125.354 E3.67044
G1 X101.615 Y125.481 E3.71292
G1 X101.872 Y125.583 E3.75265
G1 X102.119 Y125.662 E3.78991
G1 X102.4 Y125.735 E3.83162
G1 X102.666 Y125.788 E3.8706
G1 X102.951 Y125.823 E3.91185
G1 X103.318 Y125.847 E3.9647
G1 X104.441 Y125.853 E4.12606
G1 X105.114 Y125.935 E4.22347
G1 X105.829 Y126.118 E4.32952
G1 X106.443 Y126.358 E4.42424
G1 X106.862 Y126.577 E4.49217
G1 X106.869 Y126.597 E4.49521
G1 X107.49 Y126.903 E4.59469
G1 X107.738 Y127.003 E4.63311
G1 X108.01 Y127.092 E4.67423
G1 X108.274 Y127.159 E4.71336
G1 X108.546 Y127.212 E4.75318
G1 X108.827 Y127.247 E4.79387
G1 X109.318 Y127.275 E4.86453
G1 X110.685 Y127.274 E5.06095
G1 X111.016 Y127.263 E5.10853
G1 X111.269 Y127.238 E5.14506
G1 X111.552 Y127.195 E5.18619
G1 X111.836 Y127.133 E5.22796
G1 X112.083 Y127.063 E5.26485
G1 X112.366 Y126.966 E5.30783
G1 X112.614 Y126.859 E5.34664
G1 X112.871 Y126.73 E5.38796
G1 X113.13 Y126.582 E5.43082
G1 X113.987 Y126.183 E5.56665
G1 X114.646 Y125.988 E5.66539
G1 X115.397 Y125.868 E5.77467
G1 X116.079 Y125.847 E5.87271
G1 X116.578 Y125.853 E5.94441
G1 X117.001 Y125.837 E6.00523
G1 X117.409 Y125.778 E6.06446
G1 X117.693 Y125.717 E6.1062
G1 X117.957 Y125.645 E6.14552
G1 X118.207 Y125.557 E6.1836
G1 X118.475 Y125.444 E6.22539
G1 X118.724 Y125.32 E6.26536
G1 X118.959 Y125.187 E6.30416
G1 X119.196 Y125.028 E6.34516
G1 X119.407 Y124.868 E6.38321
G1 X119.63 Y124.674 E6.42568
G1 X119.819 Y124.487 E6.46388
G1 X120.007 Y124.278 E6.50428
G1 X120.178 Y124.059 E6.5442
G1 X120.34 Y123.826 E6.58497
G1 X120.479 Y123.59 E6.62433
G1 X120.605 Y123.348 E6.66353
G1 X120.72 Y123.085 E6.70477
G1 X120.818 Y122.819 E6.7455
G1 X120.951 Y122.341 E6.81679
G1 X121.129 Y121.552 E6.93301
G1 X121.21 Y121.057 E7.00508
G1 X121.225 Y120.656 E7.06274
G1 X121.219 Y120.366 E7.10441
G1 X121.151 Y119.524 E7.22579
G1 X121.14 Y119.134 E7.28185
G1 X121.114 Y118.855 E7.32211
G1 X121.071 Y118.585 E7.36139
G1 X120.943 Y118.026 E7.44379
G1 X120.839 Y117.353 E7.54164
G1 X120.822 Y116.605 E7.64914
G1 X120.889 Y115.945 E7.74446
G1 X120.98 Y115.51 E7.80832
G1 X120.995 Y115.499 E7.81099
G1 X121.074 Y115.108 E7.8683
G1 X121.121 Y114.819 E7.91037
G1 X121.15 Y114.544 E7.95011
G1 X121.167 Y114.104 E8.01337
G1 X121.192 Y113.759 E8.06307
G1 X121.226 Y113.429 E8.11074
G1 X121.231 Y113.294 E8.13015
G1 X121.238 Y113.144 E8.15173
G1 X121.216 Y112.154 E8.29401
G1 X121.227 Y111.887 E8.33241
G1 X121.219 Y111.402 E8.4021
G1 X121.234 Y111.388 E8.40505
G1 X121.213 Y109.815 E8.63109
G1 X121.2 Y109.53 E8.67208
G1 X121.196 Y109.149 E8.72682
G1 X121.168 Y108.712 E8.78974
G1 X121.157 Y108.358 E8.84063
G1 X121.157 Y107.962 E8.89753
G1 X121.115 Y107.211 E9.00561
G1 X121.107 Y106.782 E9.06726
G1 X121.087 Y106.44 E9.11648
G1 X121.056 Y106.185 E9.15339
G1 X121.024 Y105.997 E9.18079
G1 X120.955 Y105.425 E9.26357
G1 X120.931 Y105.054 E9.31699
G1 X120.832 Y103.893 E9.48441
G1 X120.787 Y103.596 E9.52757
G1 X120.723 Y103.311 E9.56954
G1 X120.653 Y103.066 E9.60616
G1 X120.552 Y102.781 E9.6496
G1 X120.391 Y102.406 E9.70824
G1 X120.18 Y102.049 E9.76782
G1 X120.013 Y101.801 E9.81078
G1 X119.731 Y101.421 E9.87877
G1 X119.455 Y101.032 E9.94731
G1 X119.29 Y100.826 E9.98523
G1 X119.102 Y100.623 E10.02498
G1 X118.893 Y100.421 E10.06675
G1 X118.687 Y100.247 E10.10549
G1 X118.463 Y100.08 E10.14564
G1 X118.227 Y99.926 E10.18613
G1 X117.997 Y99.796 E10.22409
G1 X117.539 Y99.58 E10.29685
G1 X117.233 Y99.468 E10.34367
G1 X116.974 Y99.392 E10.38245
G1 X116.607 Y99.305 E10.43664
G1 X116.271 Y99.241 E10.48579
G1 X115.473 Y99.174 E10.60085
G1 X104.52 Y99.174 E12.17462
G1 X103.797 Y99.238 E12.27891
G1 X103.493 Y99.285 E12.32311
G1 X102.993 Y99.402 E12.39689
G1 X102.702 Y99.491 E12.44062
G1 X102.203 Y99.689 E12.51775
G1 X101.662 Y99.993 E12.60692
G1 X101.404 Y100.164 E12.65139
G1 X101.195 Y100.325 E12.6893
G1 X100.997 Y100.499 E12.72717
G1 X100.784 Y100.712 E12.77045
G1 X100.617 Y100.9 E12.80658
G1 X100.444 Y101.123 E12.84714
G0 F12000 X101.171 Y101.171
G1 F1125 X120.625 Y120.625 E16.80018
G0 F12000 X119.931 Y123.325
G1 F1125 X99.989 Y103.383 E20.85239
G0 F12000 X99.477 Y106.265
G1 F1125 X118.143 Y124.931 E24.64531
G0 F12000 X115.12 Y125.302
G1 F1125 X99.398 Y109.58 E27.84001
G0 F12000 X99.356 Y112.933
G1 F1125 X112.61 Y126.186 E30.53312
G0 F12000 X109.703 Y126.673
G1 F1125 X99.759 Y116.729 E32.55373
G0 F12000 X99.386 Y119.751
G1 F1125 X104.945 Y125.31 E33.68332
G1 F2700 E28.68332
G0 F12000 X104.884 Y127.18
G0 X107.643 Y128.302
G0 X108.71 Y128.507
G0 X111.105 Y128.525
G0 X112.143 Y128.362
G0 X118.335 Y126.853
G0 X119.32 Y126.437
G0 X120.205 Y125.849
G0 X120.975 Y125.091
G0 X121.586 Y124.203
G0 X122.015 Y123.226
G0 X122.443 Y121.358
G0 X122.495 Y120.521
G0 X122.35 Y118.76
G0 X122.1 Y117.234
G0 X120.226 Y116.832
G1 F2700 E33.68332
G1 F1125 X103.333 Y99.939 E37.11597
G0 F12000 X106.561 Y99.773
G1 F1125 X120.586 Y113.798 E39.96584
G0 F12000 X120.621 Y110.438
G1 F1125 X109.955 Y99.773 E42.13307
G0 F12000 X113.349 Y99.773
G1 F1125 X120.509 Y106.932 E43.58788
G0 F12000 X120.003 Y103.033
G1 F1125 X116.988 Y100.018 E44.20052
G1 F2700 E39.20052
G0 F300 X116.988 Y100.018 Z0.648
G0 F12000 X116.702 Y98.033
G0 X115.413 Y97.909
G0 X104.36 Y97.919
G0 X103.052 Y98.086
G0 X101.851 Y98.478
G0 X100.668 Y99.134
G0 X101.342 Y100.86
;TIME_ELAPSED:24.446777
;LAYER:-5
;TYPE:SUPPORT
G1 F2700 E44.20052
G1 F1125 X101.071 Y101.131 E44.26362
G1 X100.969 Y101.263 E44.29109
G1 X101.596 Y100.635 E44.43719
G1 X101.928 Y100.416 E44.50267
G1 X102.414 Y100.141 E44.5946
G1 X102.855 Y99.967 E44.67266
G1 X103.123 Y99.883 E44.7189
G1 X103.576 Y99.777 E44.79549
G1 X103.853 Y99.735 E44.84162
G1 X104.383 Y99.687 E44.92923
G1 X99.617 Y104.453 E46.03891
G1 X99.492 Y104.95 E46.12329
G1 X99.408 Y105.386 E46.19639
G1 X99.364 Y105.761 E46.25855
G1 X99.367 Y106.143 E46.32144
G1 X99.384 Y106.524 E46.38423
G1 X106.236 Y99.673 E47.97949
G1 X108.074 Y99.673 E48.28209
G1 X99.327 Y108.419 E50.31856
G1 X99.318 Y108.8 E50.38131
G1 X99.294 Y109.173 E50.44285
G1 X99.301 Y110.006 E50.57999
G1 X99.294 Y110.292 E50.62709
G1 X109.913 Y99.673 E53.09955
G1 X111.751 Y99.673 E53.40215
G1 X99.26 Y112.164 E56.31046
G1 X99.262 Y112.835 E56.42094
G1 X99.239 Y113.226 E56.48542
G1 X99.291 Y113.971 E56.60838
G1 X113.59 Y99.673 E59.93754
G1 X115.428 Y99.673 E60.24014
G1 X99.518 Y115.583 E63.94451
G1 X99.641 Y116.281 E64.0612
G1 X99.675 Y117.201 E64.21277
G1 X99.726 Y117.213 E64.22139
G1 X117.019 Y99.92 E68.24777
G1 X117.34 Y100.037 E68.30402
G1 X117.887 Y100.294 E68.40352
G1 X118.238 Y100.539 E68.474
G1 X99.337 Y119.44 E72.87477
G1 X99.257 Y120.139 E72.9906
G1 X99.253 Y120.614 E73.06881
G1 X99.319 Y121.298 E73.18194
G1 X119.151 Y101.465 E77.7996
G1 X119.751 Y102.305 E77.96955
G1 X119.896 Y102.559 E78.0177
G1 X99.694 Y122.761 E82.72139
G1 X99.93 Y123.297 E82.81781
G1 X100.131 Y123.619 E82.88031
G1 X100.358 Y123.936 E82.9445
G1 X120.334 Y103.959 E87.59568
G1 X120.425 Y105.011 E87.76953
G1 X120.468 Y105.663 E87.87711
G1 X101.348 Y124.783 E92.32887
G1 X101.584 Y124.913 E92.37323
G1 X101.901 Y125.064 E92.43104
G1 X102.282 Y125.189 E92.49705
G1 X102.689 Y125.281 E92.56575
G1 X120.621 Y107.349 E96.74091
G1 X120.657 Y107.975 E96.84414
G1 X120.656 Y108.351 E96.90605
G1 X120.669 Y108.743 E96.97062
G1 X120.692 Y109.117 E97.03231
G1 X104.458 Y125.35 E100.812
G1 X105.213 Y125.442 E100.93723
G1 X106.004 Y125.643 E101.07159
G1 X120.708 Y110.94 E104.49505
G1 X120.727 Y111.869 E104.64803
G1 X120.715 Y112.167 E104.69713
G1 X120.727 Y112.758 E104.79445
G1 X107.252 Y126.234 E107.93199
G1 X107.778 Y126.487 E108.02809
G1 X108.16 Y126.613 E108.09431
G1 X108.61 Y126.714 E108.17024
G1 X120.635 Y114.689 E110.97006
G1 X120.585 Y115.001 E111.02208
G1 X120.222 Y116.566 E111.28658
G1 X120.321 Y116.583 E111.30312
G1 X120.326 Y116.837 E111.34494
G1 X110.389 Y126.774 E113.6586
G1 X110.667 Y126.774 E113.70437
G1 X111.082 Y126.76 E113.77273
G1 X111.462 Y126.702 E113.83602
G1 X111.833 Y126.623 E113.89847
G1 X112.28 Y126.465 E113.97653
G1 X112.791 Y126.21 E114.07055
G1 X120.531 Y118.47 E115.87267
G1 X120.6 Y118.769 E115.9232
G1 X120.575 Y118.769 E115.92731
G1 X120.696 Y120.144 E116.15456
G1 X115.476 Y125.364 E117.36995
G1 X116.067 Y125.347 E117.46729
G1 X116.562 Y125.353 E117.54879
G1 X116.968 Y125.336 E117.61569
G1 X117.405 Y125.273 E117.68838
G1 X120.47 Y122.208 E118.40202
G1 X120.334 Y122.688 E118.48415
G1 X120.159 Y123.123 E118.56135
G1 X119.926 Y123.541 E118.64014
G1 X119.703 Y123.863 E118.70462
G1 X119.374 Y124.232 E118.78602
G1 X119.093 Y124.476 E118.84729
G1 X118.699 Y124.758 E118.92706
G1 X118.373 Y124.945 E118.98893
G1 X117.927 Y125.132 E119.06855
G1 X117.451 Y125.266 E119.14997
G1 F2700 E114.14997
G0 F300 X117.451 Y125.266 Z0.888
G0 F12000 X117.264 Y127.078
G0 X111.783 Y128.44
G0 X110.703 Y128.54
G0 X108.71 Y128.507
G0 X107.643 Y128.302
G0 X101.429 Y126.768
G0 X100.469 Y126.313
G0 X99.599 Y125.675
G0 X99.393 Y125.454
G0 X98.664 Y124.605
G0 X99.93 Y123.297
;TIME_ELAPSED:50.377802
;LAYER:-4
;TYPE:SUPPORT-INTERFACE
G1 F2700 E119.14997
G1 F1500 X100.131 Y123.619 E119.1708
G1 X100.358 Y123.937 E119.19224
G1 X100.84 Y124.425 E119.22988
G1 X101.252 Y124.729 E119.25798
G1 X101.571 Y124.906 E119.278
G1 X99.904 Y123.238 E119.40742
G1 X99.779 Y122.955 E119.4244
G1 X99.574 Y122.39 E119.45738
G1 X99.485 Y122.042 E119.47709
G1 X102.734 Y125.29 E119.72921
G1 X102.997 Y125.324 E119.74377
G1 X103.583 Y125.362 E119.77599
G1 X99.297 Y121.076 E120.10863
G1 X99.253 Y120.614 E120.1341
G1 X99.255 Y120.256 E120.15375
G1 X104.334 Y125.335 E120.54793
G1 X105.221 Y125.444 E120.59698
G1 X99.325 Y119.549 E121.05453
G1 X99.4 Y118.845 E121.09339
G1 X106.184 Y125.629 E121.6199
G1 X107.451 Y126.33 E121.69936
G1 X107.778 Y126.487 E121.71927
G1 X107.839 Y126.507 E121.72279
G1 X99.522 Y118.19 E122.36828
G1 X99.661 Y117.551 E122.40417
G1 X108.855 Y126.745 E123.11773
G1 X109.331 Y126.774 E123.1439
G1 X109.662 Y126.774 E123.16206
G1 X99.659 Y116.771 E123.93841
G1 X99.641 Y116.281 E123.96531
G1 X99.575 Y115.909 E123.98605
G1 X110.44 Y126.774 E124.82929
G1 X111.201 Y126.757 E124.87106
G1 X99.373 Y114.929 E125.78905
G1 X99.339 Y114.652 E125.80436
G1 X99.299 Y114.077 E125.83599
G1 X111.84 Y126.619 E126.80935
G1 X112.417 Y126.417 E126.8429
G1 X99.24 Y113.241 E127.86554
G1 X99.262 Y112.835 E127.88786
G1 X99.26 Y112.483 E127.90717
G1 X112.91 Y126.133 E128.96656
G1 X113.439 Y125.884 E128.99865
G1 X99.263 Y111.708 E130.09886
G1 X99.27 Y110.937 E130.14118
G1 X113.99 Y125.657 E131.28361
G1 X114.595 Y125.484 E131.31814
G1 X99.296 Y110.185 E132.50551
G1 X99.296 Y109.407 E132.54821
G1 X115.257 Y125.369 E133.78699
G1 X116.015 Y125.348 E133.82861
G1 X99.321 Y108.655 E135.12421
G1 X99.33 Y107.886 E135.16641
G1 X116.805 Y125.361 E136.52266
G1 X117.479 Y125.257 E136.56009
G1 X99.376 Y107.154 E137.96508
G1 X99.385 Y106.385 E138.00729
G1 X118.071 Y125.071 E139.45752
G1 X118.373 Y124.945 E139.47548
G1 X118.595 Y124.817 E139.48955
G1 X99.369 Y105.591 E140.98169
G1 X99.494 Y104.939 E141.01813
G1 X119.056 Y124.501 E142.53635
G1 X119.477 Y124.144 E142.56664
G1 X99.65 Y104.317 E144.10544
G1 X99.806 Y103.695 E144.14063
G1 X119.828 Y123.717 E145.69455
G1 X120.107 Y123.218 E145.72593
G1 X99.967 Y103.078 E147.28901
G1 X100.186 Y102.52 E147.32191
G1 X120.338 Y122.672 E148.88593
G1 X120.511 Y122.067 E148.92046
G1 X100.472 Y102.028 E150.4757
G1 X100.759 Y101.536 E150.50696
G1 X120.644 Y121.422 E152.05029
G1 X120.708 Y121.026 E152.07231
G1 X120.721 Y120.721 E152.08906
G1 X101.101 Y101.101 E153.61179
G1 X101.49 Y100.712 E153.64198
G1 X120.675 Y119.897 E155.13095
G1 X120.599 Y119.044 E155.17794
G1 X101.956 Y100.4 E156.62488
G1 X102.453 Y100.119 E156.65622
G1 X120.451 Y118.117 E158.05306
G1 X120.338 Y117.395 E158.09316
G1 X120.334 Y117.223 E158.1026
G1 X103.018 Y99.907 E159.44651
G1 X103.649 Y99.76 E159.48207
G1 X120.266 Y116.377 E160.77173
G1 X120.413 Y115.746 E160.80729
G1 X104.34 Y99.673 E162.05473
G1 X105.118 Y99.673 E162.09742
G1 X120.566 Y115.121 E163.29636
G1 X120.673 Y114.451 E163.33359
G1 X105.896 Y99.673 E164.48049
G1 X106.674 Y99.673 E164.52319
G1 X120.696 Y113.695 E165.61145
G1 X120.739 Y113.255 E165.63571
G1 X120.733 Y112.955 E165.65217
G1 X107.451 Y99.673 E166.683
G1 X108.229 Y99.673 E166.7257
G1 X120.715 Y112.159 E167.69475
G1 X120.727 Y111.869 E167.71068
G1 X120.717 Y111.384 E167.7373
G1 X109.007 Y99.673 E168.64616
G1 X109.785 Y99.673 E168.68886
G1 X120.701 Y110.59 E169.5361
G1 X120.696 Y110.325 E169.55064
G1 X120.711 Y110.325 E169.55147
G1 X120.704 Y109.815 E169.57946
G1 X110.563 Y99.673 E170.36655
G1 X111.341 Y99.673 E170.40925
G1 X120.686 Y109.019 E171.13456
G1 X120.669 Y108.743 E171.14973
G1 X120.657 Y108.212 E171.17888
G1 X112.118 Y99.673 E171.8416
G1 X112.896 Y99.673 E171.8843
G1 X120.618 Y107.395 E172.48361
G1 X120.602 Y106.601 E172.52719
G1 X113.674 Y99.673 E173.06488
G1 X114.452 Y99.673 E173.10758
G1 X120.471 Y105.693 E173.57476
G1 X120.413 Y104.856 E173.6208
G1 X115.23 Y99.673 E174.02306
G1 X115.452 Y99.673 E174.03524
G1 X116.058 Y99.724 E174.06862
G1 X120.341 Y104.006 E174.40099
G1 X120.288 Y103.651 E174.42068
G1 X120.179 Y103.224 E174.44487
G1 X120.083 Y102.956 E174.46049
G1 X119.881 Y102.526 E174.48656
G1 X119.751 Y102.305 E174.50063
G1 X118.977 Y101.22 E174.57378
G1 X118.566 Y100.798 E174.6061
G1 X118.368 Y100.631 E174.62032
G1 X117.887 Y100.294 E174.65255
G1 X117.34 Y100.037 E174.68572
G1 X117.04 Y99.928 E174.70323
G1 X120.092 Y102.98 E174.9401
G1 F2700 E169.9401
G0 F300 X120.092 Y102.98 Z1.128
G0 F12000 X121.855 Y102.665
G0 X122.088 Y103.736
G0 X122.371 Y106.736
G0 X122.476 Y111.13
G0 X122.476 Y121.031
G0 X122.18 Y122.646
G0 X121.936 Y123.353
G0 X121.586 Y124.203
