;FLAVOR:Marlin
;TIME:8449
;Filament used: 11.5816m
;Layer height: 0.24
;MINX:71.93
;MINY:49.362
;MINZ:0.288
;MAXX:148.057
;MAXY:170.656
;MAXZ:31.278
;Generated with Cura_SteamEngine 5.2.1
M140 S60
M105
M190 S60
M104 S210
M105
M109 S210
M82 ;absolute extrusion mode
; Ender 3 Custom Start G-code
G92 E0 ; Reset Extruder
G28 ; Home all axes
G1 Z2.0 F3000 ; Move Z Axis up little to prevent scratching of Heat Bed
G1 X0.1 Y20 Z0.3 F5000.0 ; Move to start position
G1 X0.1 Y200.0 Z0.3 F1500.0 E15 ; Draw the first line
G1 X0.4 Y200.0 Z0.3 F5000.0 ; Move to side a little
G1 X0.4 Y20 Z0.3 F1500.0 E30 ; Draw the second line
G92 E0 ; Reset Extruder
G1 Z2.0 F3000 ; Move Z Axis up little to prevent scratching of Heat Bed
G1 X5 Y20 Z0.3 F5000.0 ; Move over to prevent blob squish
G92 E0
G92 E0
G1 F2700 E-5
;LAYER_COUNT:125
;LAYER:-6
M107
G0 F12000 X77.555 Y53.251 Z0.288
;TYPE:SUPPORT-INTERFACE
G1 F2700 E0
G1 F1125 X77.455 Y53.499 E0.03842
G1 X77.366 Y53.771 E0.07954
G1 X77.299 Y54.035 E0.11868
G1 X77.246 Y54.307 E0.15849
G1 X77.211 Y54.586 E0.1989
G1 X77.183 Y55.079 E0.26985
G1 X77.183 Y74.95 E3.12499
G1 X77.171 Y75.309 E3.1766
G1 X77.079 Y76.004 E3.27733
G1 X76.904 Y76.674 E3.37683
G1 X76.628 Y77.364 E3.48361
G1 X76.301 Y77.948 E3.57978
G1 X75.881 Y78.519 E3.68162
G1 X75.41 Y79.017 E3.78011
G1 X74.701 Y79.608 E3.91274
G1 X74.495 Y79.799 E3.9531
G1 X74.3 Y80.006 E3.99396
G1 X74.131 Y80.207 E4.03169
G1 X73.958 Y80.443 E4.07374
G1 X73.809 Y80.676 E4.11348
G1 X73.68 Y80.907 E4.15149
G1 X73.553 Y81.174 E4.19397
G1 X73.451 Y81.431 E4.2337
G1 X73.372 Y81.678 E4.27096
G1 X73.299 Y81.959 E4.31268
G1 X73.246 Y82.225 E4.35165
G1 X73.211 Y82.507 E4.39248
G1 X73.183 Y83.001 E4.46357
G1 X73.184 Y87.054 E5.04592
G1 X73.242 Y87.703 E5.13955
G1 X73.315 Y88.136 E5.20264
G1 X73.437 Y88.533 E5.26231
G1 X73.538 Y88.792 E5.30226
G1 X73.657 Y89.05 E5.34308
G1 X73.786 Y89.289 E5.3821
G1 X73.934 Y89.524 E5.42201
G1 X74.098 Y89.753 E5.46248
G1 X74.271 Y89.966 E5.50191
G1 X74.47 Y90.18 E5.5439
G1 X74.655 Y90.356 E5.58058
G1 X75.031 Y90.669 E5.65088
G1 X75.665 Y91.236 E5.77309
G1 X76.087 Y91.741 E5.86765
G1 X76.474 Y92.343 E5.97048
G1 X76.769 Y92.96 E6.06874
G1 X77.003 Y93.656 E6.17425
G1 X77.137 Y94.353 E6.27623
G1 X77.183 Y95.05 E6.3766
G1 X77.183 Y124.949 E10.6726
G1 X77.17 Y125.318 E10.72565
G1 X77.082 Y125.991 E10.82317
G1 X76.902 Y126.682 E10.92577
G1 X76.654 Y127.307 E11.02238
G1 X76.301 Y127.948 E11.12753
G1 X75.881 Y128.519 E11.22937
G1 X75.41 Y129.017 E11.32786
G1 X74.701 Y129.606 E11.4603
G1 X74.493 Y129.799 E11.50107
G1 X74.3 Y130.004 E11.54153
G1 X74.129 Y130.207 E11.57966
G1 X73.958 Y130.44 E11.62119
G1 X73.807 Y130.676 E11.66145
G1 X73.681 Y130.905 E11.699
G1 X73.555 Y131.171 E11.74129
G1 X73.455 Y131.419 E11.77972
G1 X73.366 Y131.691 E11.82084
G1 X73.299 Y131.955 E11.85997
G1 X73.246 Y132.227 E11.89979
G1 X73.211 Y132.508 E11.94048
G1 X73.184 Y133.001 E12.01142
G1 X73.183 Y137.055 E12.59391
G1 X73.242 Y137.699 E12.68683
G1 X73.318 Y138.149 E12.7524
G1 X73.439 Y138.542 E12.81149
G1 X73.536 Y138.785 E12.84908
G1 X73.661 Y139.055 E12.89183
G1 X73.781 Y139.278 E12.92822
G1 X73.938 Y139.529 E12.97076
G1 X74.097 Y139.751 E13.00999
G1 X74.271 Y139.964 E13.04951
G1 X74.461 Y140.169 E13.08967
G1 X74.666 Y140.362 E13.13013
G1 X74.938 Y140.587 E13.18085
G1 X75.656 Y141.224 E13.31876
G1 X76.087 Y141.74 E13.41536
G1 X76.474 Y142.342 E13.51819
G1 X76.779 Y142.981 E13.61993
G1 X77.002 Y143.651 E13.72139
G1 X77.139 Y144.364 E13.82571
G1 X77.182 Y145.028 E13.92131
G1 X77.184 Y164.968 E16.78637
G1 X77.231 Y165.551 E16.87041
G1 X77.28 Y165.871 E16.91692
G1 X77.337 Y166.119 E16.95349
G1 X77.414 Y166.383 E16.993
G1 X77.511 Y166.642 E17.03274
G1 X77.622 Y166.896 E17.07257
G1 X77.753 Y167.149 E17.1135
G1 X77.888 Y167.376 E17.15145
G1 X78.054 Y167.617 E17.1935
G1 X78.221 Y167.827 E17.23205
G1 X78.399 Y168.026 E17.27041
G1 X78.612 Y168.234 E17.31319
G1 X78.81 Y168.406 E17.35087
G1 X79.041 Y168.581 E17.39251
G1 X79.263 Y168.729 E17.43085
G1 X79.518 Y168.874 E17.473
G1 X79.752 Y168.991 E17.51059
G1 X80.02 Y169.105 E17.55243
G1 X80.274 Y169.192 E17.59101
G1 X80.548 Y169.267 E17.63183
G1 X80.82 Y169.325 E17.67179
G1 X81.093 Y169.365 E17.71143
G1 X81.372 Y169.387 E17.75165
G1 X81.637 Y169.391 E17.78973
G1 X81.919 Y169.378 E17.83029
G1 X82.206 Y169.347 E17.87177
G1 X82.467 Y169.301 E17.90985
G1 X82.743 Y169.234 E17.95065
G1 X83.016 Y169.151 E17.99165
G1 X83.268 Y169.055 E18.0304
G1 X83.526 Y168.939 E18.07104
G1 X83.762 Y168.814 E18.10942
G1 X84.012 Y168.66 E18.15161
G1 X84.223 Y168.511 E18.18872
G1 X84.612 Y168.191 E18.26109
G1 X107.068 Y147.605 E22.63828
G1 X107.287 Y147.385 E22.68288
G1 X107.779 Y146.937 E22.77849
G1 X108.028 Y146.729 E22.82511
G1 X128.073 Y128.352 E26.73245
G1 X128.514 Y127.99 E26.81443
G1 X129.125 Y127.598 E26.91873
G1 X129.735 Y127.309 E27.01572
G1 X130.42 Y127.08 E27.1195
G1 X131.13 Y126.944 E27.22337
G1 X131.832 Y126.899 E27.32444
G1 X133.604 Y126.898 E27.57905
G1 X133.96 Y126.882 E27.63025
G1 X134.645 Y126.828 E27.72898
G1 X135.367 Y126.714 E27.834
G1 X136.039 Y126.555 E27.93323
G1 X136.687 Y126.352 E28.0308
G1 X137.37 Y126.079 E28.13648
G1 X138.047 Y125.743 E28.24508
G1 X138.668 Y125.373 E28.34894
G1 X139.342 Y124.882 E28.46876
G1 X141.121 Y123.384 E28.80292
G1 X141.689 Y122.817 E28.91824
G1 X143.236 Y120.975 E29.26386
G1 X143.699 Y120.313 E29.37993
G1 X144.916 Y118.196 E29.73079
G1 X145.259 Y117.46 E29.84746
G1 X146.112 Y115.135 E30.2033
G1 X146.332 Y114.314 E30.32543
G1 X146.721 Y112.105 E30.64771
G1 X146.793 Y111.284 E30.76613
G1 X146.793 Y109.114 E31.07792
G1 X146.793 Y108.702 E31.13712
G1 X146.72 Y107.87 E31.25712
G1 X146.311 Y105.565 E31.59349
G1 X146.097 Y104.769 E31.71192
G1 X145.31 Y102.616 E32.04129
G1 X144.965 Y101.877 E32.15847
G1 X143.712 Y99.701 E32.51926
G1 X143.245 Y99.033 E32.63637
G1 X141.688 Y97.178 E32.98435
G1 X141.111 Y96.601 E33.10159
G1 X139.258 Y95.044 E33.44935
G1 X138.65 Y94.612 E33.55652
G1 X138.066 Y94.261 E33.65442
G1 X137.487 Y93.973 E33.74734
G1 X136.804 Y93.689 E33.85362
G1 X136.007 Y93.435 E33.97381
G1 X135.308 Y93.276 E34.07681
G1 X134.573 Y93.17 E34.18351
G1 X133.962 Y93.121 E34.27158
G1 X133.467 Y93.1 E34.34277
G1 X131.799 Y93.1 E34.58243
G1 X131.212 Y93.066 E34.66692
G1 X130.532 Y92.947 E34.76611
G1 X129.84 Y92.734 E34.87014
G1 X129.228 Y92.457 E34.96666
G1 X128.581 Y92.058 E35.07588
G1 X128.049 Y91.627 E35.17426
G1 X108.021 Y73.267 E39.07815
G1 X107.698 Y72.995 E39.13882
G1 X107.245 Y72.576 E39.22749
G1 X107.049 Y72.378 E39.26752
G1 X84.572 Y51.773 E43.64877
G1 X84.111 Y51.414 E43.73272
G1 X83.754 Y51.176 E43.79437
G1 X83.374 Y50.99 E43.85516
G1 X83.115 Y50.883 E43.89543
G1 X82.863 Y50.801 E43.9335
G1 X82.581 Y50.725 E43.97547
G1 X82.323 Y50.671 E44.01334
G1 X82.047 Y50.634 E44.05335
G1 X81.772 Y50.612 E44.09299
G1 X81.485 Y50.61 E44.13423
G1 X81.223 Y50.623 E44.17192
G1 X80.941 Y50.656 E44.21272
G1 X80.66 Y50.707 E44.25375
G1 X80.414 Y50.768 E44.29017
G1 X80.126 Y50.856 E44.33344
G1 X79.878 Y50.954 E44.37175
G1 X79.61 Y51.077 E44.41412
G1 X79.384 Y51.2 E44.45109
G1 X79.134 Y51.355 E44.49336
G1 X78.911 Y51.515 E44.53279
G1 X78.699 Y51.688 E44.57211
G1 X78.493 Y51.879 E44.61247
G1 X78.3 Y52.084 E44.65293
G1 X78.129 Y52.287 E44.69107
G1 X77.958 Y52.52 E44.73259
G1 X77.807 Y52.756 E44.77285
G1 X77.681 Y52.985 E44.8104
G1 X77.555 Y53.251 E44.8527
G0 F12000 X77.897 Y54.138
G1 F1125 X143.395 Y119.636 E58.16186
G0 F12000 X141.943 Y121.579
G1 F1125 X77.782 Y57.417 E71.19945
G0 F12000 X77.782 Y60.811
G1 F1125 X140.278 Y123.308 E83.89871
G0 F12000 X138.4 Y124.824
G1 F1125 X77.782 Y64.206 E96.21626
G0 F12000 X77.782 Y67.6
G1 F1125 X136.091 Y125.908 E108.06452
G0 F12000 X133.085 Y126.297
G1 F1125 X77.782 Y70.994 E119.30207
G0 F12000 X77.782 Y74.388
G1 F1125 X129.985 Y126.591 E129.90969
G0 F12000 X127.8 Y127.8
G1 F1125 X77.299 Y77.299 E140.17147
G0 F12000 X75.936 Y79.331
G1 F1125 X126.022 Y129.416 E150.34882
G0 F12000 X124.252 Y131.04
G1 F1125 X74.273 Y81.061 E160.50454
G0 F12000 X73.783 Y83.965
G1 F1125 X122.48 Y132.663 E170.39985
G0 F12000 X120.71 Y134.286
G1 F1125 X73.816 Y87.392 E179.92869
G1 F2700 E174.92869
G0 F12000 X72.058 Y88.295
G0 X72.373 Y89.287
G0 X72.786 Y90.049
G0 X75.882 Y94.523
G0 X77.761 Y94.732
G1 F2700 E179.92869
G1 F1125 X118.939 Y135.91 E188.29604
G0 F12000 X117.169 Y137.533
G1 F1125 X77.782 Y98.147 E196.29936
G0 F12000 X77.782 Y101.541
G1 F1125 X115.397 Y139.156 E203.94271
G0 F12000 X113.627 Y140.78
G1 F1125 X77.782 Y104.935 E211.2264
G0 F12000 X77.782 Y108.329
G1 F1125 X111.856 Y142.403 E218.15022
G0 F12000 X110.085 Y144.027
G1 F1125 X77.783 Y111.724 E224.71407
G0 F12000 X77.783 Y115.118
G1 F1125 X108.315 Y145.65 E230.91816
G0 F12000 X106.541 Y147.271
G1 F1125 X77.783 Y118.512 E236.76187
G0 F12000 X77.783 Y121.906
G1 F1125 X104.771 Y148.894 E242.24582
G0 F12000 X103 Y150.518
G1 F1125 X77.769 Y125.287 E247.37275
G0 F12000 X77.003 Y127.914
G1 F1125 X101.229 Y152.141 E252.29557
G0 F12000 X99.458 Y153.764
G1 F1125 X75.455 Y129.761 E257.17296
G0 F12000 X73.995 Y131.695
G1 F1125 X97.688 Y155.388 E261.98737
G0 F12000 X95.917 Y157.011
G1 F1125 X73.783 Y134.877 E266.48499
G0 F12000 X74.111 Y138.599
G1 F1125 X94.147 Y158.635 E270.5563
G0 F12000 X92.375 Y160.257
G1 F1125 X77.781 Y145.663 E273.52179
G0 F12000 X77.781 Y149.057
G1 F1125 X90.605 Y161.881 E276.12762
G0 F12000 X88.834 Y163.505
G1 F1125 X77.781 Y152.452 E278.37359
G0 F12000 X77.782 Y155.847
G1 F1125 X87.063 Y165.128 E280.25948
G0 F12000 X85.293 Y166.752
G1 F1125 X77.782 Y159.241 E281.78571
G0 F12000 X77.783 Y162.635
G1 F1125 X83.448 Y168.301 E282.93694
G0 F12000 X80.323 Y168.57
G1 F1125 X78.01 Y166.257 E283.40694
G1 F2700 E278.40694
G0 F12000 X76.112 Y166.438
G0 X76.48 Y167.443
G0 X77.038 Y168.371
G0 X77.754 Y169.165
G0 X78.598 Y169.806
G0 X79.568 Y170.286
G0 X80.599 Y170.572
G0 X81.659 Y170.656
G0 X82.727 Y170.54
G0 X83.755 Y170.224
G0 X84.711 Y169.716
G0 X140.13 Y125.872
G0 X142.048 Y124.245
G0 X142.694 Y123.586
G0 X144.304 Y121.654
G0 X144.603 Y121.216
G0 X145.978 Y118.888
G0 X144.601 Y117.448
G1 F2700 E283.40694
G1 F1125 X79.206 Y52.053 E296.69518
G0 F12000 X81.761 Y51.214
G1 F1125 X145.528 Y114.981 E309.6526
G0 F12000 X146.101 Y112.16
G1 F1125 X108.048 Y74.106 E317.38506
G1 F2700 E312.38506
G0 F12000 X109.309 Y72.73
G0 X130.815 Y91.713
G0 X130.966 Y93.631
G1 F2700 E317.38506
G1 F1125 X146.192 Y108.856 E320.47887
G0 F12000 X145.434 Y104.704
G1 F1125 X134.495 Y93.766 E322.70157
G1 F2700 E317.70157
G0 F300 X134.495 Y93.766 Z0.648
G0 F12000 X134.912 Y91.937
G0 X136.448 Y92.247
G0 X138.02 Y92.825
G0 X139.434 Y93.616
G0 X140.113 Y94.109
G0 X142.072 Y95.776
G0 X142.694 Y96.409
G0 X144.317 Y98.36
G0 X144.838 Y99.123
G0 X146.141 Y101.406
G0 X146.525 Y102.253
G0 X147.337 Y104.513
G0 X147.566 Y105.4
G0 X147.985 Y107.826
G0 X148.057 Y108.756
G0 X148.047 Y111.458
G0 X147.953 Y112.402
G0 X147.531 Y114.728
G0 X147.272 Y115.64
G0 X146.376 Y118.057
G0 X146.264 Y118.292
G0 X145.374 Y119.938
G0 X143.842 Y119.059
;TIME_ELAPSED:134.313940
;LAYER:-5
;TYPE:SUPPORT
G1 F2700 E322.70157
G1 F1125 X137.395 Y125.507 E324.20276
G1 X137.858 Y125.273 E324.28817
G1 X138.394 Y124.953 E324.39095
G1 X139.019 Y124.499 E324.51813
G1 X140.779 Y123.018 E324.89683
G1 X141.32 Y122.477 E325.02279
G1 X142.834 Y120.674 E325.41041
G1 X143.283 Y120.033 E325.53925
G1 X144.471 Y117.965 E325.93191
G1 X144.797 Y117.263 E326.05934
G1 X145.374 Y115.689 E326.33534
G1 X134.751 Y126.312 E328.80872
G1 X133.918 Y126.384 E328.94638
G1 X133.596 Y126.398 E328.99944
G1 X132.825 Y126.399 E329.12637
G1 X146.017 Y113.207 E332.19791
G1 X146.223 Y112.038 E332.39333
G1 X146.307 Y111.078 E332.55199
G1 X130.911 Y126.475 E336.1368
G1 X130.304 Y126.591 E336.23854
G1 X129.573 Y126.832 E336.36526
G1 X128.875 Y127.162 E336.49238
G1 X128.229 Y127.574 E336.61852
G1 X127.732 Y127.984 E336.7246
G1 X125.707 Y129.841 E337.17695
G1 X146.291 Y109.256 E341.9697
G1 X146.292 Y108.789 E342.04658
G1 X146.225 Y107.951 E342.18499
G1 X146.154 Y107.555 E342.25122
G1 X103.625 Y150.084 E352.15337
G1 X84.289 Y167.809 E356.47195
G1 X83.842 Y168.176 E356.56717
G1 X83.46 Y168.41 E356.64093
G1 X145.877 Y105.993 E371.17365
G1 X145.818 Y105.662 E371.22901
G1 X145.62 Y104.931 E371.35369
G1 X145.482 Y104.55 E371.42041
G1 X81.17 Y168.862 E386.39435
G1 X80.912 Y168.833 E386.4371
G1 X80.434 Y168.718 E386.51804
G1 X80.188 Y168.633 E386.56089
G1 X79.748 Y168.446 E386.6396
G1 X144.991 Y103.202 E401.83043
G1 X144.847 Y102.805 E401.89996
G1 X144.434 Y101.921 E402.0606
G1 X78.722 Y167.633 E417.36051
G1 X78.456 Y167.318 E417.42839
G1 X78.305 Y167.099 E417.47218
G1 X77.987 Y166.529 E417.57964
G1 X143.748 Y100.769 E432.89085
G1 X143.285 Y99.965 E433.04359
G1 X143.049 Y99.629 E433.11119
G1 X77.686 Y164.992 E448.32985
G1 X77.682 Y163.157 E448.63196
G1 X142.233 Y98.607 E463.66143
G1 X141.393 Y97.608 E463.87632
G1 X77.682 Y161.319 E478.71033
G1 X77.682 Y159.48 E479.0131
G1 X140.457 Y96.706 E493.62906
G1 X139.459 Y95.865 E493.84393
G1 X77.682 Y157.642 E508.22765
G1 X77.682 Y155.803 E508.53042
G1 X138.423 Y95.063 E522.6728
G1 X137.825 Y94.699 E522.78806
G1 X137.236 Y94.411 E522.896
G1 X77.682 Y153.965 E536.76212
G1 X77.682 Y152.126 E537.06489
G1 X135.889 Y93.92 E550.61728
G1 X135.154 Y93.757 E550.74123
G1 X134.331 Y93.639 E550.87811
G1 X77.682 Y150.288 E564.06785
G1 X77.682 Y148.449 E564.37062
G1 X132.532 Y93.6 E577.14139
G1 X131.801 Y93.599 E577.26174
G1 X131.161 Y93.564 E577.36726
G1 X130.794 Y93.5 E577.4286
G1 X77.682 Y146.611 E589.7947
G1 X77.682 Y144.772 E590.09747
G1 X129.381 Y93.074 E602.13457
G1 X128.966 Y92.886 E602.20958
G1 X128.202 Y92.415 E602.35735
G1 X77.389 Y143.228 E614.18828
G1 X77.25 Y142.807 E614.26127
G1 X76.839 Y141.939 E614.41939
G1 X127.227 Y91.551 E626.15137
G1 X126.268 Y90.672 E626.36555
G1 X76.044 Y140.896 E638.05934
G1 X75.067 Y140.034 E638.27385
G1 X125.309 Y89.792 E649.97184
G1 X124.349 Y88.913 E650.18613
G1 X74.209 Y139.053 E661.86037
G1 X74.002 Y138.602 E661.94207
G1 X73.908 Y138.364 E661.9842
G1 X73.802 Y138.029 E662.04205
G1 X73.745 Y137.679 E662.10043
G1 X123.39 Y88.034 E673.65942
G1 X122.431 Y87.155 E673.87359
G1 X73.684 Y135.901 E685.22338
G1 X73.685 Y134.062 E685.52615
G1 X121.472 Y86.275 E696.65253
G1 X120.513 Y85.395 E696.86682
G1 X73.778 Y132.13 E707.74826
G1 X73.843 Y131.842 E707.79687
G1 X73.967 Y131.461 E707.86283
G1 X74.119 Y131.143 E707.92086
G1 X74.304 Y130.81 E707.98358
G1 X74.589 Y130.425 E708.06244
G1 X74.937 Y130.058 E708.14571
G1 X76.304 Y128.94 E708.43645
G1 X76.236 Y128.872 E708.45228
G1 X76.713 Y128.233 E708.58357
G1 X77.088 Y127.557 E708.71084
G1 X77.376 Y126.844 E708.83744
G1 X77.43 Y126.64 E708.87218
G1 X119.554 Y84.516 E718.68003
G1 X118.595 Y83.637 E718.89421
G1 X77.682 Y124.549 E728.41998
G1 X77.682 Y122.711 E728.72259
G1 X117.635 Y82.758 E738.02496
G1 X116.676 Y81.878 E738.23924
G1 X77.682 Y120.872 E747.31833
G1 X77.682 Y119.034 E747.62093
G1 X115.718 Y80.999 E756.47684
G1 X114.758 Y80.12 E756.69114
G1 X77.682 Y117.195 E765.32353
G1 X77.682 Y115.357 E765.62614
G1 X113.799 Y79.24 E774.03536
G1 X112.84 Y78.361 E774.24954
G1 X77.682 Y113.518 E782.43536
G1 X77.682 Y111.68 E782.73796
G1 X111.881 Y77.481 E790.70061
G1 X110.921 Y76.602 E790.91491
G1 X77.682 Y109.841 E798.65404
G1 X77.682 Y108.003 E798.95664
G1 X109.962 Y75.723 E806.47249
G1 X109.004 Y74.843 E806.68665
G1 X77.682 Y106.165 E813.97944
G1 X77.682 Y104.326 E814.28221
G1 X108.044 Y73.964 E821.35148
G1 X107.693 Y73.643 E821.42979
G1 X107.383 Y73.382 E821.49651
G1 X107.074 Y73.096 E821.56583
G1 X77.682 Y102.488 E828.40925
G1 X77.682 Y100.649 E828.71202
G1 X106.125 Y72.206 E835.33448
G1 X105.165 Y71.327 E835.54878
G1 X77.682 Y98.811 E841.94784
G1 X77.682 Y96.972 E842.25061
G1 X104.207 Y70.448 E848.42638
G1 X103.247 Y69.569 E848.64068
G1 X77.688 Y95.128 E854.59165
G1 X77.636 Y94.3 E854.72824
G1 X77.478 Y93.5 E854.8625
G1 X102.288 Y68.689 E860.6392
G1 X101.329 Y67.81 E860.85337
G1 X76.961 Y92.178 E866.52704
G1 X76.504 Y91.46 E866.66717
G1 X76.201 Y91.1 E866.74463
G1 X100.37 Y66.931 E872.37197
G1 X99.411 Y66.051 E872.58626
G1 X75.255 Y90.207 E878.21057
G1 X74.904 Y89.912 E878.28606
G1 X74.647 Y89.634 E878.34839
