;FLAVOR:Marlin
;TIME:6167
;Filament used: 8.39065m
;Layer height: 0.24
;MINX:73.684
;MINY:51.942
;MINZ:0.288
;MAXX:144.936
;MAXY:168.059
;MAXZ:16.398
;Generated with Cura_SteamEngine 5.2.1
M140 S60
M105
M190 S60
M104 S210
M105
M109 S210
M82 ;absolute extrusion mode
; Ender 3 Custom Start G-code
G92 E0 ; Reset Extruder
G28 ; Home all axes
G1 Z2.0 F3000 ; Move Z Axis up little to prevent scratching of Heat Bed
G1 X0.1 Y20 Z0.3 F5000.0 ; Move to start position
G1 X0.1 Y200.0 Z0.3 F1500.0 E15 ; Draw the first line
G1 X0.4 Y200.0 Z0.3 F5000.0 ; Move to side a little
G1 X0.4 Y20 Z0.3 F1500.0 E30 ; Draw the second line
G92 E0 ; Reset Extruder
G1 Z2.0 F3000 ; Move Z Axis up little to prevent scratching of Heat Bed
G1 X5 Y20 Z0.3 F5000.0 ; Move over to prevent blob squish
G92 E0
G92 E0
G1 F2700 E-5
;LAYER_COUNT:63
;LAYER:-6
M107
G0 F12000 X77.053 Y55.851 Z0.288
;TYPE:SUPPORT-INTERFACE
G1 F2700 E0
G1 F1125 X76.951 Y56.108 E0.03973
G1 X76.872 Y56.355 E0.07699
G1 X76.799 Y56.636 E0.11871
G1 X76.746 Y56.902 E0.15768
G1 X76.711 Y57.184 E0.19851
G1 X76.683 Y57.677 E0.26946
G1 X76.683 Y59.1 E0.47392
G1 X76.707 Y59.858 E0.58289
G1 X76.683 Y60.458 E0.66916
G1 X76.683 Y76.251 E2.93836
G1 X76.585 Y77.275 E3.08617
G1 X76.41 Y77.949 E3.18622
G1 X76.154 Y78.599 E3.2866
G1 X75.815 Y79.216 E3.38775
G1 X75.373 Y79.822 E3.49552
G1 X75.101 Y80.121 E3.5536
G1 X75.085 Y80.121 E3.5559
G1 X74.85 Y80.383 E3.60647
G1 X74.631 Y80.642 E3.6552
G1 X74.458 Y80.878 E3.69725
G1 X74.309 Y81.111 E3.73699
G1 X74.18 Y81.342 E3.775
G1 X74.053 Y81.609 E3.81748
G1 X73.951 Y81.866 E3.85721
G1 X73.872 Y82.113 E3.89447
G1 X73.799 Y82.394 E3.93619
G1 X73.746 Y82.66 E3.97516
G1 X73.711 Y82.942 E4.01599
G1 X73.684 Y83.435 E4.08693
G1 X73.684 Y86.618 E4.54428
G1 X73.742 Y87.262 E4.63719
G1 X73.817 Y87.705 E4.70174
G1 X73.939 Y88.103 E4.76156
G1 X74.037 Y88.351 E4.79987
G1 X74.161 Y88.62 E4.84243
G1 X74.281 Y88.843 E4.87882
G1 X74.438 Y89.095 E4.92148
G1 X74.596 Y89.316 E4.96051
G1 X74.77 Y89.529 E5.00003
G1 X75.112 Y89.898 E5.07232
G1 X75.112 Y89.918 E5.07519
G1 X75.588 Y90.447 E5.17744
G1 X75.975 Y91.049 E5.28027
G1 X76.277 Y91.682 E5.38104
G1 X76.502 Y92.358 E5.48341
G1 X76.637 Y93.058 E5.58585
G1 X76.684 Y93.775 E5.68909
G1 X76.683 Y126.25 E10.35522
G1 X76.588 Y127.258 E10.50069
G1 X76.414 Y127.937 E10.60141
G1 X76.154 Y128.599 E10.7036
G1 X75.815 Y129.216 E10.80475
G1 X75.373 Y129.822 E10.91252
G1 X75.101 Y130.121 E10.9706
G1 X75.085 Y130.121 E10.9729
G1 X74.85 Y130.383 E11.02347
G1 X74.631 Y130.642 E11.07221
G1 X74.458 Y130.878 E11.11425
G1 X74.309 Y131.111 E11.15399
G1 X74.18 Y131.342 E11.192
G1 X74.053 Y131.609 E11.23449
G1 X73.951 Y131.866 E11.27422
G1 X73.872 Y132.113 E11.31148
G1 X73.799 Y132.394 E11.35319
G1 X73.746 Y132.66 E11.39216
G1 X73.711 Y132.942 E11.43299
G1 X73.684 Y133.435 E11.50393
G1 X73.684 Y136.618 E11.96128
G1 X73.742 Y137.262 E12.05419
G1 X73.817 Y137.705 E12.11874
G1 X73.939 Y138.103 E12.17856
G1 X74.037 Y138.351 E12.21687
G1 X74.161 Y138.62 E12.25943
G1 X74.281 Y138.843 E12.29582
G1 X74.438 Y139.095 E12.33848
G1 X74.596 Y139.316 E12.37751
G1 X74.77 Y139.529 E12.41703
G1 X75.112 Y139.898 E12.48932
G1 X75.112 Y139.918 E12.49219
G1 X75.588 Y140.447 E12.59444
G1 X75.975 Y141.049 E12.69727
G1 X76.277 Y141.682 E12.79805
G1 X76.502 Y142.357 E12.90028
G1 X76.639 Y143.07 E13.0046
G1 X76.684 Y143.773 E13.10582
G1 X76.683 Y159.5 E15.36553
G1 X76.697 Y159.754 E15.40208
G1 X76.703 Y160.538 E15.51473
G1 X76.684 Y160.898 E15.56653
G1 X76.683 Y162.385 E15.78019
G1 X76.732 Y162.961 E15.86325
G1 X76.798 Y163.385 E15.92491
G1 X76.918 Y163.795 E15.98629
G1 X77.011 Y164.044 E16.02448
G1 X77.125 Y164.305 E16.0654
G1 X77.256 Y164.558 E16.10634
G1 X77.397 Y164.791 E16.14547
G1 X77.553 Y165.016 E16.18481
G1 X77.731 Y165.242 E16.22614
G1 X77.908 Y165.437 E16.26398
G1 X78.114 Y165.64 E16.30554
G1 X78.316 Y165.813 E16.34375
G1 X78.551 Y165.991 E16.38611
G1 X78.777 Y166.141 E16.42508
G1 X79.015 Y166.276 E16.4644
G1 X79.269 Y166.402 E16.50514
G1 X79.526 Y166.51 E16.54519
G1 X79.789 Y166.599 E16.58509
G1 X80.047 Y166.67 E16.62354
G1 X80.328 Y166.729 E16.66479
G1 X80.6 Y166.768 E16.70427
G1 X80.888 Y166.79 E16.74577
G1 X81.148 Y166.794 E16.78314
G1 X81.423 Y166.781 E16.82269
G1 X81.709 Y166.749 E16.86404
G1 X81.986 Y166.7 E16.90446
G1 X82.25 Y166.635 E16.94353
G1 X82.52 Y166.552 E16.98411
G1 X82.772 Y166.456 E17.02286
G1 X83.036 Y166.336 E17.06453
G1 X83.269 Y166.212 E17.10245
G1 X83.498 Y166.07 E17.14117
G1 X83.75 Y165.891 E17.18558
G1 X84.018 Y165.674 E17.23513
G1 X84.437 Y165.294 E17.3164
G1 X84.72 Y165.009 E17.37411
G1 X84.885 Y164.818 E17.41038
G1 X85.062 Y164.591 E17.45174
G1 X85.222 Y164.355 E17.4927
G1 X85.36 Y164.122 E17.53161
G1 X85.536 Y163.774 E17.58765
G1 X85.819 Y163.282 E17.6692
G1 X86.246 Y162.704 E17.77245
G1 X86.747 Y162.18 E17.87662
G1 X126.551 Y125.71 E25.63344
G1 X126.98 Y125.361 E25.7129
G1 X127.565 Y124.984 E25.8129
G1 X128.229 Y124.668 E25.91856
G1 X128.901 Y124.447 E26.0202
G1 X129.602 Y124.314 E26.12272
G1 X130.266 Y124.271 E26.21833
G1 X133.848 Y124.271 E26.733
G1 X134.158 Y124.245 E26.7777
G1 X134.465 Y124.204 E26.8222
G1 X134.739 Y124.149 E26.86236
G1 X135.02 Y124.077 E26.90404
G1 X135.27 Y123.994 E26.94189
G1 X135.528 Y123.887 E26.98202
G1 X135.784 Y123.763 E27.02289
G1 X136.11 Y123.581 E27.07654
G1 X136.483 Y123.344 E27.14003
G1 X136.805 Y123.118 E27.19656
G1 X138.162 Y122.052 E27.4445
G1 X138.604 Y121.656 E27.52977
G1 X139.67 Y120.568 E27.74863
G1 X140.102 Y120.053 E27.84521
G1 X140.879 Y119.019 E28.03105
G1 X141.22 Y118.507 E28.11944
G1 X141.933 Y117.254 E28.32659
G1 X142.207 Y116.701 E28.41526
G1 X142.746 Y115.386 E28.61946
G1 X142.936 Y114.823 E28.70484
G1 X143.333 Y113.338 E28.9257
G1 X143.461 Y112.662 E29.02456
G1 X143.624 Y111.397 E29.20782
G1 X143.672 Y110.727 E29.30434
G1 X143.672 Y109.641 E29.46038
G1 X143.672 Y109.275 E29.51296
G1 X143.624 Y108.602 E29.60991
G1 X143.449 Y107.253 E29.80536
G1 X143.309 Y106.572 E29.90526
G1 X142.983 Y105.337 E30.08878
G1 X142.805 Y104.775 E30.17349
G1 X142.207 Y103.298 E30.40244
G1 X141.932 Y102.744 E30.49131
G1 X141.293 Y101.614 E30.67784
G1 X140.97 Y101.11 E30.76385
G1 X140.067 Y99.894 E30.98147
G1 X139.62 Y99.38 E31.07935
G1 X138.709 Y98.446 E31.26682
G1 X138.264 Y98.038 E31.35356
G1 X136.922 Y96.972 E31.59982
G1 X136.533 Y96.693 E31.6686
G1 X135.907 Y96.296 E31.77511
G1 X135.517 Y96.112 E31.83707
G1 X135.244 Y96.001 E31.87941
G1 X134.974 Y95.914 E31.92017
G1 X134.727 Y95.851 E31.9568
G1 X134.446 Y95.797 E31.99791
G1 X134.165 Y95.762 E32.0386
G1 X133.669 Y95.733 E32.10999
G1 X130.251 Y95.732 E32.6011
G1 X129.641 Y95.694 E32.68891
G1 X128.968 Y95.576 E32.78709
G1 X128.292 Y95.365 E32.88884
G1 X127.667 Y95.082 E32.98742
G1 X127.034 Y94.691 E33.09432
G1 X126.516 Y94.272 E33.19005
G1 X86.739 Y57.813 E40.94295
G1 X86.275 Y57.329 E41.03928
G1 X85.839 Y56.75 E41.14343
G1 X85.475 Y56.103 E41.25009
G1 X85.414 Y55.977 E41.27021
G1 X85.273 Y55.726 E41.31157
G1 X85.121 Y55.49 E41.35191
G1 X84.952 Y55.262 E41.39268
G1 X84.783 Y55.063 E41.4302
G1 X84.525 Y54.793 E41.48385
G1 X84.092 Y54.387 E41.56914
G1 X83.611 Y54.011 E41.65686
G1 X83.264 Y53.778 E41.71692
G1 X82.874 Y53.587 E41.77931
G1 X82.615 Y53.48 E41.81958
G1 X82.363 Y53.398 E41.85766
G1 X82.081 Y53.322 E41.89962
G1 X81.823 Y53.268 E41.93749
G1 X81.547 Y53.231 E41.97751
G1 X81.272 Y53.209 E42.01715
G1 X80.985 Y53.207 E42.05838
G1 X80.725 Y53.22 E42.09579
G1 X80.438 Y53.253 E42.1373
G1 X80.17 Y53.301 E42.17642
G1 X79.9 Y53.367 E42.21635
G1 X79.622 Y53.454 E42.25821
G1 X79.379 Y53.55 E42.29575
G1 X79.109 Y53.675 E42.3385
G1 X78.887 Y53.794 E42.37469
G1 X78.637 Y53.951 E42.41711
G1 X78.413 Y54.112 E42.45674
G1 X78.199 Y54.287 E42.49646
G1 X77.995 Y54.476 E42.53642
G1 X77.8 Y54.683 E42.57728
G1 X77.631 Y54.884 E42.61502
G1 X77.458 Y55.12 E42.65706
G1 X77.309 Y55.353 E42.6968
G1 X77.18 Y55.584 E42.73481
G1 X77.053 Y55.851 E42.7773
G0 F12000 X77.348 Y56.984
G1 F1125 X139.809 Y119.444 E55.46924
G0 F12000 X138.19 Y121.22
G1 F1125 X77.288 Y60.317 E67.8446
G0 F12000 X77.281 Y63.705
G1 F1125 X136.308 Y122.731 E79.83876
G0 F12000 X133.85 Y123.668
G1 F1125 X77.281 Y67.099 E91.33356
G0 F12000 X77.281 Y70.493
G1 F1125 X130.46 Y123.672 E102.13951
G0 F12000 X127.664 Y124.27
G1 F1125 X77.281 Y73.887 E112.37731
G0 F12000 X77.196 Y77.196
G1 F1125 X125.686 Y125.686 E122.23046
G0 F12000 X123.915 Y127.309
G1 F1125 X76.248 Y79.642 E131.91637
G0 F12000 X74.75 Y81.538
G1 F1125 X122.144 Y128.932 E141.54681
G0 F12000 X120.372 Y130.555
G1 F1125 X74.283 Y84.466 E150.91207
G0 F12000 X74.632 Y88.208
G1 F1125 X118.601 Y132.178 E159.84666
G0 F12000 X116.831 Y133.801
G1 F1125 X77.282 Y94.253 E167.88289
G0 F12000 X77.282 Y97.647
G1 F1125 X115.059 Y135.424 E175.55916
G0 F12000 X113.288 Y137.047
G1 F1125 X77.282 Y101.041 E182.87557
G0 F12000 X77.282 Y104.435
G1 F1125 X111.517 Y138.67 E189.8321
G0 F12000 X109.745 Y140.292
G1 F1125 X77.282 Y107.829 E196.42857
G0 F12000 X77.283 Y111.224
G1 F1125 X107.975 Y141.916 E202.66517
G0 F12000 X106.203 Y143.539
G1 F1125 X77.283 Y114.618 E208.5418
G0 F12000 X77.283 Y118.012
G1 F1125 X104.432 Y145.161 E214.05847
G0 F12000 X102.661 Y146.784
G1 F1125 X77.283 Y121.406 E219.21527
G0 F12000 X77.283 Y124.8
G1 F1125 X100.889 Y148.407 E224.0121
G0 F12000 X99.119 Y150.031
G1 F1125 X77.029 Y127.941 E228.50078
G0 F12000 X75.863 Y130.169
G1 F1125 X97.348 Y151.653 E232.86642
G0 F12000 X95.576 Y153.276
G1 F1125 X74.476 Y132.175 E237.15403
G0 F12000 X74.283 Y135.377
G1 F1125 X93.805 Y154.899 E241.12089
G0 F12000 X92.034 Y156.523
G1 F1125 X76.713 Y141.201 E244.23421
G0 F12000 X77.283 Y145.165
G1 F1125 X90.263 Y158.145 E246.87174
G0 F12000 X88.492 Y159.768
G1 F1125 X77.283 Y148.559 E249.14941
G0 F12000 X77.283 Y151.953
G1 F1125 X86.72 Y161.391 E251.0671
G0 F12000 X85.159 Y163.224
G1 F1125 X77.283 Y155.347 E252.6676
G0 F12000 X77.283 Y158.741
G1 F1125 X83.695 Y165.153 E253.97052
G0 F12000 X81.33 Y166.183
G1 F1125 X77.283 Y162.136 E254.79287
G1 F2700 E249.79287
G0 F12000 X75.418 Y162.136
G0 X75.539 Y163.526
G0 X75.837 Y164.52
G0 X76.335 Y165.478
G0 X76.997 Y166.314
G0 X77.821 Y167.025
G0 X78.742 Y167.553
G0 X79.75 Y167.901
G0 X80.828 Y168.054
G0 X81.89 Y168.002
G0 X82.931 Y167.749
G0 X83.9 Y167.308
G0 X84.963 Y166.529
G0 X139.474 Y122.576
G0 X141.098 Y120.834
G0 X142.378 Y119.036
G0 X141.159 Y117.4
G1 F2700 E254.79287
G1 F1125 X78.539 Y54.78 E267.51722
G0 F12000 X80.967 Y53.815
G1 F1125 X142.219 Y115.066 E279.9635
G0 F12000 X142.896 Y112.349
G1 F1125 X115.923 Y85.376 E285.4444
G1 F2700 E280.4444
G0 F12000 X117.183 Y84.001
G0 X129.818 Y94.441
G0 X130.273 Y96.332
G1 F2700 E285.4444
G1 F1125 X143.059 Y109.117 E288.04241
G0 F12000 X142.188 Y104.853
G1 F1125 X133.669 Y96.334 E289.77347
G1 F2700 E284.77347
G0 F300 X133.669 Y96.334 Z0.648
G0 F12000 X133.848 Y94.474
G0 X135.003 Y94.615
G0 X136.019 Y94.95
G0 X137.242 Y95.645
G0 X139.472 Y97.423
G0 X140.997 Y99.038
G0 X142.381 Y100.967
G0 X143.416 Y102.904
G0 X144.201 Y104.991
G0 X144.711 Y107.147
G0 X144.936 Y109.34
G0 X144.882 Y111.531
G0 X144.54 Y113.724
G0 X143.922 Y115.85
G0 X143.136 Y117.654
G0 X142.015 Y119.602
G0 X140.382 Y118.842
;TIME_ELAPSED:121.111364
;LAYER:-5
;TYPE:SUPPORT
G1 F2700 E289.77347
G1 F1125 X136.526 Y122.698 E290.67127
G1 X137.853 Y121.656 E290.94905
G1 X138.271 Y121.282 E291.04139
G1 X139.314 Y120.216 E291.28693
G1 X139.708 Y119.747 E291.38778
G1 X140.548 Y118.619 E291.61933
G1 X140.797 Y118.238 E291.69426
G1 X141.501 Y117.002 E291.92845
G1 X141.756 Y116.484 E292.0235
G1 X142.342 Y115.044 E292.27946
G1 X133.615 Y123.771 E294.31139
G1 X131.777 Y123.771 E294.61399
G1 X142.966 Y112.582 E297.21916
G1 X143.125 Y111.362 E297.42172
G1 X143.183 Y110.526 E297.55969
G1 X129.916 Y123.793 E300.64868
G1 X129.53 Y123.817 E300.71235
G1 X128.771 Y123.961 E300.83954
G1 X128.039 Y124.202 E300.96642
G1 X127.329 Y124.542 E301.09602
G1 X143.136 Y108.735 E304.77641
G1 X142.967 Y107.422 E304.99436
G1 X142.908 Y107.124 E305.04438
G1 X108.174 Y141.858 E313.13159
G1 X86.381 Y161.834 E317.99879
G1 X85.871 Y162.366 E318.12012
G1 X85.414 Y162.981 E318.24627
G1 X85.105 Y163.52 E318.34856
G1 X84.869 Y163.982 E318.43397
G1 X84.658 Y164.298 E318.49653
G1 X84.41 Y164.613 E318.56253
G1 X84.099 Y164.926 E318.63518
G1 X83.683 Y165.302 E318.7275
G1 X83.457 Y165.484 E318.77527
G1 X83.215 Y165.658 E318.82434
G1 X82.817 Y165.885 E318.89977
G1 X82.45 Y166.054 E318.9663
G1 X82.02 Y166.174 E319.03979
G1 X142.546 Y105.648 E333.13223
G1 X142.463 Y105.334 E333.18571
G1 X142.277 Y104.793 E333.27989
G1 X142.07 Y104.285 E333.37021
G1 X80.158 Y166.197 E347.78535
G1 X79.705 Y166.042 E347.86418
G1 X79.351 Y165.894 E347.92735
G1 X78.888 Y165.629 E348.01518
G1 X141.505 Y103.012 E362.59447
G1 X140.842 Y101.836 E362.81673
G1 X77.958 Y164.72 E377.45819
G1 X77.694 Y164.316 E377.53765
G1 X77.575 Y164.089 E377.57985
G1 X77.433 Y163.768 E377.63763
G1 X77.35 Y163.49 E377.6854
G1 X140.084 Y100.756 E392.29193
G1 X139.727 Y100.274 E392.39069
G1 X139.267 Y99.734 E392.50747
G1 X77.183 Y161.818 E406.96267
G1 X77.183 Y160.909 E407.11232
G1 X77.203 Y160.533 E407.17431
G1 X77.199 Y159.964 E407.26799
G1 X138.359 Y98.804 E421.50805
G1 X137.938 Y98.416 E421.60231
G1 X137.364 Y97.96 E421.723
G1 X77.182 Y158.142 E435.73535
G1 X77.182 Y156.303 E436.03812
G1 X136.326 Y97.16 E449.80866
G1 X135.673 Y96.739 E449.93658
G1 X135.155 Y96.492 E450.03106
G1 X77.182 Y154.465 E463.52908
G1 X77.182 Y152.626 E463.83185
G1 X133.577 Y96.232 E476.96234
G1 X131.738 Y96.232 E477.26511
G1 X77.182 Y150.788 E489.96753
G1 X77.182 Y148.949 E490.2703
G1 X129.92 Y96.212 E502.54932
G1 X129.616 Y96.195 E502.59945
G1 X128.858 Y96.066 E502.72604
G1 X128.378 Y95.916 E502.80884
G1 X77.182 Y147.111 E514.72883
G1 X77.182 Y145.272 E515.0316
G1 X127.12 Y95.334 E526.6588
G1 X126.763 Y95.115 E526.72776
G1 X126.065 Y94.551 E526.8755
G1 X77.165 Y143.452 E538.26114
G1 X77.136 Y143.005 E538.33489
G1 X76.991 Y142.246 E538.46211
G1 X76.878 Y141.9 E538.52203
G1 X125.113 Y93.665 E549.75273
G1 X124.154 Y92.785 E549.96701
G1 X76.304 Y140.635 E561.10806
G1 X75.914 Y140.026 E561.22713
G1 X75.51 Y139.591 E561.32487
G1 X123.194 Y91.906 E572.42738
G1 X122.235 Y91.027 E572.64156
G1 X74.689 Y138.574 E583.71194
G1 X74.502 Y138.167 E583.78569
G1 X74.408 Y137.929 E583.82782
G1 X74.302 Y137.594 E583.88566
G1 X74.237 Y137.187 E583.95352
G1 X121.276 Y90.148 E594.90574
G1 X120.317 Y89.269 E595.11992
G1 X74.184 Y135.401 E605.86108
G1 X74.186 Y133.561 E606.16401
G1 X119.358 Y88.389 E616.68154
G1 X118.398 Y87.51 E616.89584
G1 X75.77 Y130.138 E626.82103
G1 X76.216 Y129.665 E626.92807
G1 X76.166 Y129.614 E626.93982
G1 X76.603 Y128.822 E627.08875
G1 X76.887 Y128.104 E627.21587
G1 X77.083 Y127.342 E627.34541
G1 X77.12 Y126.95 E627.41023
G1 X117.439 Y86.631 E636.79782
G1 X116.48 Y85.752 E637.012
G1 X77.182 Y125.049 E646.16174
G1 X77.182 Y123.211 E646.46435
G1 X115.521 Y84.872 E655.39093
G1 X114.561 Y83.993 E655.60522
G1 X77.182 Y121.372 E664.30828
G1 X77.182 Y119.534 E664.61088
G1 X113.603 Y83.114 E673.09077
G1 X112.643 Y82.235 E673.30507
G1 X77.182 Y117.695 E681.56144
G1 X77.182 Y115.857 E681.86404
G1 X111.683 Y81.356 E689.89701
G1 X110.725 Y80.476 E690.11117
G1 X77.182 Y114.018 E697.92097
G1 X77.182 Y112.18 E698.22357
G1 X109.765 Y79.597 E705.80996
G1 X108.806 Y78.717 E706.02425
G1 X77.182 Y110.341 E713.38736
G1 X77.182 Y108.503 E713.68996
G1 X107.847 Y77.839 E720.82966
G1 X106.888 Y76.959 E721.04395
G1 X77.182 Y106.664 E727.96037
G1 X77.182 Y104.826 E728.26297
G1 X105.928 Y76.08 E734.95598
G1 X104.97 Y75.2 E735.17015
G1 X77.182 Y102.987 E741.63999
G1 X77.182 Y101.149 E741.94259
G1 X104.01 Y74.321 E748.18903
G1 X103.051 Y73.442 E748.40321
G1 X77.182 Y99.311 E754.42636
G1 X77.182 Y97.472 E754.72913
G1 X102.092 Y72.563 E760.52888
G1 X101.132 Y71.684 E760.74318
G1 X77.182 Y95.634 E766.31952
G1 X77.182 Y93.795 E766.62229
G1 X100.173 Y70.804 E771.97535
G1 X99.214 Y69.925 E772.18953
G1 X76.968 Y92.171 E777.36913
G1 X76.751 Y91.514 E777.48304
G1 X76.441 Y90.86 E777.6022
G1 X98.255 Y69.046 E782.68121
G1 X97.295 Y68.167 E782.89551
G1 X75.684 Y89.778 E787.92726
G1 X75.065 Y89.111 E788.07708
G1 X74.836 Y88.787 E788.1424
