;FLAVOR:Marlin
;TIME:2401
;Filament used: 2.97446m
;Layer height: 0.24
;MINX:83.335
;MINY:94.353
;MINZ:0.288
;MAXX:136.665
;MAXY:125.665
;MAXZ:26.238
;Generated with Cura_SteamEngine 5.2.1
M140 S60
M105
M190 S60
M104 S210
M105
M109 S210
M82 ;absolute extrusion mode
; Ender 3 Custom Start G-code
G92 E0 ; Reset Extruder
G28 ; Home all axes
G1 Z2.0 F3000 ; Move Z Axis up little to prevent scratching of Heat Bed
G1 X0.1 Y20 Z0.3 F5000.0 ; Move to start position
G1 X0.1 Y200.0 Z0.3 F1500.0 E15 ; Draw the first line
G1 X0.4 Y200.0 Z0.3 F5000.0 ; Move to side a little
G1 X0.4 Y20 Z0.3 F1500.0 E30 ; Draw the second line
G92 E0 ; Reset Extruder
G1 Z2.0 F3000 ; Move Z Axis up little to prevent scratching of Heat Bed
G1 X5 Y20 Z0.3 F5000.0 ; Move over to prevent blob squish
G92 E0
G92 E0
G1 F2700 E-5
;LAYER_COUNT:104
;LAYER:-6
M107
G0 F12000 X86.311 Y102.16 Z0.288
;TYPE:SUPPORT-INTERFACE
G1 F2700 E0
G1 F1125 X85.915 Y102.635 E0.08886
G1 X85.691 Y102.933 E0.14242
G1 X85.254 Y103.693 E0.26839
G1 X85.097 Y104.06 E0.32574
G1 X84.903 Y104.597 E0.40778
G1 X84.792 Y104.967 E0.46328
G1 X84.644 Y105.808 E0.58598
G1 X84.616 Y106.164 E0.63729
G1 X84.6 Y106.581 E0.69725
G1 X84.601 Y113.417 E1.67947
G1 X84.616 Y113.835 E1.73957
G1 X84.644 Y114.194 E1.79131
G1 X84.793 Y115.043 E1.91516
G1 X84.902 Y115.406 E1.96962
G1 X85.103 Y115.951 E2.05308
G1 X85.253 Y116.304 E2.10819
G1 X85.682 Y117.052 E2.23209
G1 X85.914 Y117.366 E2.28818
G1 X86.386 Y117.93 E2.39386
G1 X86.658 Y118.187 E2.44762
G1 X87.133 Y118.584 E2.53657
G1 X87.434 Y118.808 E2.59048
G1 X88.193 Y119.246 E2.7164
G1 X88.56 Y119.403 E2.77375
G1 X89.211 Y119.639 E2.87324
G1 X89.578 Y119.727 E2.92747
G1 X90.309 Y119.856 E3.03413
G1 X90.666 Y119.884 E3.08558
G1 X91.083 Y119.899 E3.14553
G1 X103.688 Y119.9 E4.95667
G1 X104.295 Y119.936 E5.04404
G1 X104.995 Y120.062 E5.14623
G1 X105.64 Y120.265 E5.24339
G1 X106.28 Y120.554 E5.34429
G1 X106.885 Y120.927 E5.44641
G1 X107.455 Y121.386 E5.55156
G1 X107.921 Y121.876 E5.64872
G1 X108.389 Y122.432 E5.75315
G1 X108.658 Y122.687 E5.8064
G1 X109.133 Y123.084 E5.89535
G1 X109.434 Y123.308 E5.94926
G1 X110.193 Y123.746 E6.07517
G1 X110.56 Y123.903 E6.13253
G1 X111.095 Y124.096 E6.21425
G1 X111.466 Y124.207 E6.26989
G1 X112.308 Y124.356 E6.39275
G1 X112.664 Y124.384 E6.44406
G1 X113.08 Y124.4 E6.50388
G1 X128.917 Y124.4 E8.7794
G1 X129.335 Y124.384 E8.8395
G1 X129.694 Y124.356 E8.89124
G1 X130.543 Y124.207 E9.01509
G1 X130.906 Y124.098 E9.06955
G1 X131.451 Y123.897 E9.15301
G1 X131.808 Y123.745 E9.20876
G1 X132.56 Y123.313 E9.33337
G1 X132.865 Y123.085 E9.38809
G1 X133.424 Y122.617 E9.49284
G1 X133.688 Y122.34 E9.54782
G1 X134.166 Y121.767 E9.65504
G1 X134.374 Y121.453 E9.70916
G1 X134.747 Y120.805 E9.81659
G1 X134.903 Y120.44 E9.87362
G1 X135.097 Y119.903 E9.95566
G1 X135.208 Y119.532 E10.0113
G1 X135.356 Y118.695 E10.13343
G1 X135.384 Y118.336 E10.18517
G1 X135.4 Y117.919 E10.24513
G1 X135.4 Y102.209 E12.5024
G1 X135.382 Y101.634 E12.58506
G1 X135.356 Y101.305 E12.63248
G1 X135.206 Y100.455 E12.7565
G1 X135.098 Y100.093 E12.81078
G1 X134.897 Y99.549 E12.89411
G1 X134.745 Y99.192 E12.94986
G1 X134.308 Y98.432 E13.07582
G1 X134.087 Y98.135 E13.12901
G1 X133.613 Y97.569 E13.23509
G1 X133.34 Y97.311 E13.28906
G1 X132.867 Y96.916 E13.37761
G1 X132.564 Y96.691 E13.43183
G1 X131.806 Y96.254 E13.55755
G1 X131.44 Y96.097 E13.61477
G1 X130.905 Y95.904 E13.69649
G1 X130.533 Y95.792 E13.75231
G1 X129.695 Y95.644 E13.87458
G1 X129.336 Y95.616 E13.92632
G1 X128.92 Y95.6 E13.98614
G1 X113.083 Y95.6 E16.26166
G1 X112.665 Y95.616 E16.32176
G1 X112.306 Y95.644 E16.3735
G1 X111.457 Y95.793 E16.49735
G1 X111.094 Y95.902 E16.55181
G1 X110.549 Y96.103 E16.63527
G1 X110.19 Y96.256 E16.69134
G1 X109.445 Y96.683 E16.81472
G1 X109.135 Y96.914 E16.87027
G1 X108.569 Y97.389 E16.97644
G1 X108.319 Y97.654 E17.02879
G1 X107.922 Y98.125 E17.1173
G1 X107.482 Y98.587 E17.20897
G1 X106.997 Y98.993 E17.29985
G1 X106.39 Y99.385 E17.40367
G1 X105.753 Y99.69 E17.50515
G1 X105.053 Y99.924 E17.6112
G1 X104.385 Y100.052 E17.70892
G1 X103.689 Y100.1 E17.80916
G1 X91.083 Y100.1 E19.62044
G1 X90.665 Y100.116 E19.68055
G1 X90.306 Y100.144 E19.73229
G1 X89.457 Y100.293 E19.85614
G1 X89.094 Y100.402 E19.9106
G1 X88.549 Y100.603 E19.99406
G1 X88.193 Y100.755 E20.04968
G1 X87.446 Y101.183 E20.17338
G1 X87.134 Y101.415 E20.22924
G1 X86.576 Y101.883 E20.33388
G1 X86.311 Y102.16 E20.38897
G0 F12000 X86.235 Y103.205
G1 F1125 X102.328 Y119.298 E23.65906
G0 F12000 X98.934 Y119.298
G1 F1125 X85.281 Y105.645 E26.43334
G0 F12000 X85.2 Y108.958
G1 F1125 X95.539 Y119.298 E28.53432
G0 F12000 X92.145 Y119.298
G1 F1125 X85.2 Y112.353 E29.94554
G0 F12000 X86.212 Y116.759
G1 F1125 X87.741 Y118.288 E30.25623
G1 F2700 E25.25623
G0 F12000 X86.347 Y119.576
G0 X85.362 Y118.677
G0 X84.545 Y117.612
G0 X83.925 Y116.416
G0 X83.533 Y115.174
G0 X83.339 Y113.595
G0 X83.363 Y105.949
G0 X83.628 Y104.43
G0 X84.207 Y102.975
G0 X84.924 Y101.847
G0 X85.652 Y101.05
G0 X86.544 Y100.273
G0 X87.988 Y101.564
G1 F2700 E30.25623
G1 F1125 X106.353 Y119.929 E33.98799
G1 F2700 E28.98799
G0 F12000 X105.707 Y121.683
G0 X108.347 Y124.076
G0 X109.475 Y124.793
G0 X110.93 Y125.372
G0 X112.276 Y125.594
G0 X113.063 Y125.665
G0 X113.617 Y123.799
G1 F2700 E33.98799
G1 F1125 X90.544 Y100.726 E38.67642
G0 F12000 X93.91 Y100.699
G1 F1125 X117.011 Y123.799 E43.37043
G0 F12000 X120.405 Y123.799
G1 F1125 X97.304 Y100.699 E48.06444
G0 F12000 X100.698 Y100.698
G1 F1125 X123.799 Y123.799 E52.75855
G0 F12000 X127.193 Y123.799
G1 F1125 X104.069 Y100.675 E57.45734
G0 F12000 X106.689 Y99.901
G1 F1125 X130.408 Y123.62 E62.27703
G0 F12000 X132.657 Y122.475
G1 F1125 X108.523 Y98.341 E67.18105
G0 F12000 X110.402 Y96.826
G1 F1125 X134.173 Y120.597 E72.0113
G0 F12000 X134.799 Y117.828
G1 F1125 X113.171 Y96.2 E76.4061
G0 F12000 X116.565 Y96.2
G1 F1125 X134.799 Y114.434 E80.11125
G0 F12000 X134.799 Y111.04
G1 F1125 X119.959 Y96.2 E83.12673
G0 F12000 X123.353 Y96.2
G1 F1125 X134.799 Y107.646 E85.45255
G0 F12000 X134.799 Y104.252
G1 F1125 X126.747 Y96.2 E87.08871
G0 F12000 X130.302 Y96.361
G1 F1125 X134.638 Y100.697 E87.96978
G1 F2700 E82.96978
G0 F300 X134.638 Y100.697 Z0.648
G0 F12000 X136.59 Y101.021
G0 X136.665 Y102.063
G0 X136.638 Y118.542
G0 X136.372 Y120.07
G0 X135.793 Y121.524
G0 X135.076 Y122.653
G0 X134.177 Y123.638
G0 X133.112 Y124.455
G0 X132.144 Y124.957
G0 X131.304 Y125.297
G0 X130.443 Y123.714
;TIME_ELAPSED:42.756707
;LAYER:-5
;TYPE:SUPPORT
G1 F2700 E87.96978
G1 F1125 X130.729 Y123.628 E88.01895
G1 X131.289 Y123.423 E88.11713
G1 X131.574 Y123.301 E88.16817
G1 X132.298 Y122.886 E88.30557
G1 X132.549 Y122.697 E88.35729
G1 X133.018 Y122.306 E88.45782
G1 X133.252 Y122.081 E88.51127
G1 X133.703 Y121.542 E88.62698
G1 X133.894 Y121.282 E88.68009
G1 X134.3 Y120.579 E88.81375
G1 X134.425 Y120.284 E88.86649
G1 X134.633 Y119.713 E88.96655
G1 X134.713 Y119.45 E89.0118
G1 X134.809 Y118.9 E89.10372
G1 X129.898 Y123.811 E90.24717
G1 X129.618 Y123.861 E90.29399
G1 X129.311 Y123.885 E90.34469
G1 X128.897 Y123.899 E90.41289
G1 X127.971 Y123.899 E90.56535
G1 X134.896 Y116.975 E92.1776
G1 X134.896 Y115.136 E92.48036
G1 X126.133 Y123.899 E94.52068
G1 X124.294 Y123.899 E94.82345
G1 X134.896 Y113.297 E97.29194
G1 X134.897 Y111.458 E97.59471
G1 X122.456 Y123.899 E100.49138
G1 X120.617 Y123.899 E100.79415
G1 X134.897 Y109.619 E104.119
G1 X134.898 Y107.78 E104.42177
G1 X118.779 Y123.899 E108.17481
G1 X116.94 Y123.899 E108.47757
G1 X134.898 Y105.942 E112.65867
G1 X134.899 Y104.103 E112.96144
G1 X115.102 Y123.899 E117.57071
G1 X113.263 Y123.899 E117.87348
G1 X134.899 Y102.264 E122.91094
G1 X134.883 Y101.667 E123.00926
G1 X134.845 Y101.302 E123.06968
G1 X134.722 Y100.602 E123.18669
G1 X111.602 Y123.722 E128.56978
G1 X111.269 Y123.628 E128.62675
G1 X110.709 Y123.423 E128.72493
G1 X110.255 Y123.23 E128.80615
G1 X134.214 Y99.272 E134.38448
G1 X133.89 Y98.707 E134.49171
G1 X133.702 Y98.456 E134.54334
G1 X133.469 Y98.178 E134.60306
G1 X109.177 Y122.47 E140.25903
G1 X108.98 Y122.305 E140.30134
G1 X108.793 Y122.125 E140.34407
G1 X108.281 Y121.528 E140.47355
G1 X132.525 Y97.283 E146.11847
G1 X132.284 Y97.104 E146.16789
G1 X131.58 Y96.698 E146.30169
G1 X131.364 Y96.607 E146.34028
G1 X107.347 Y120.624 E151.93223
G1 X106.544 Y120.126 E152.08779
G1 X106.175 Y119.957 E152.15461
G1 X129.937 Y96.195 E157.68718
G1 X129.618 Y96.139 E157.74051
G1 X129.31 Y96.114 E157.79138
G1 X128.898 Y96.1 E157.85925
G1 X128.194 Y96.1 E157.97516
G1 X104.779 Y119.515 E163.42694
G1 X104.35 Y119.437 E163.49873
G1 X103.684 Y119.399 E163.60855
G1 X103.056 Y119.399 E163.71194
G1 X126.355 Y96.1 E169.13672
G1 X124.517 Y96.1 E169.43932
G1 X101.218 Y119.399 E174.86409
G1 X99.379 Y119.399 E175.16686
G1 X122.678 Y96.1 E180.59163
G1 X120.84 Y96.1 E180.89424
G1 X97.541 Y119.399 E186.31901
G1 X95.702 Y119.399 E186.62178
G1 X119.001 Y96.1 E192.04655
G1 X117.163 Y96.1 E192.34915
G1 X93.864 Y119.399 E197.77393
G1 X92.025 Y119.399 E198.07669
G1 X115.324 Y96.1 E203.50147
G1 X113.486 Y96.1 E203.80407
G1 X90.249 Y119.336 E209.21429
G1 X89.555 Y119.214 E209.3303
G1 X89.27 Y119.128 E209.37931
G1 X88.793 Y118.954 E209.46291
G1 X111.439 Y96.308 E214.73564
G1 X110.708 Y96.575 E214.86377
G1 X110.418 Y96.698 E214.91563
G1 X109.713 Y97.104 E215.04957
G1 X109.453 Y97.299 E215.10308
G1 X108.98 Y97.693 E215.20443
G1 X108.749 Y97.913 E215.25695
G1 X108.306 Y98.444 E215.3708
G1 X107.849 Y98.928 E215.48039
G1 X107.26 Y99.421 E215.60685
G1 X106.609 Y99.837 E215.73404
G1 X105.912 Y100.168 E215.86108
G1 X105.658 Y100.251 E215.90507
G1 X87.592 Y118.316 E220.11131
G1 X86.981 Y117.805 E220.24245
G1 X86.614 Y117.456 E220.32583
G1 X103.471 Y100.599 E224.25069
G1 X101.633 Y100.599 E224.5533
G1 X85.865 Y116.367 E228.2246
G1 X85.697 Y116.075 E228.28007
G1 X85.574 Y115.788 E228.33147
G1 X85.317 Y115.076 E228.4561
G1 X99.794 Y100.599 E231.82682
G1 X97.956 Y100.599 E232.12942
G1 X85.102 Y113.453 E235.12226
G1 X85.1 Y111.616 E235.4247
G1 X96.117 Y100.599 E237.98982
G1 X94.279 Y100.599 E238.29242
G1 X85.1 Y109.778 E240.42959
G1 X85.1 Y107.939 E240.73236
G1 X92.44 Y100.599 E242.44135
G1 X91.1 Y100.599 E242.66197
G1 X90.579 Y100.622 E242.74783
G1 X85.124 Y106.077 E244.01793
G1 X85.139 Y105.88 E244.05046
G1 X85.286 Y105.047 E244.18972
G1 X85.366 Y104.784 E244.23498
G1 X85.579 Y104.199 E244.33748
G1 X85.696 Y103.925 E244.38653
G1 X86.109 Y103.207 E244.5229
G1 X86.297 Y102.955 E244.57466
G1 X86.693 Y102.48 E244.67648
G1 X86.916 Y102.247 E244.72958
G1 X87.454 Y101.798 E244.84494
G1 X87.715 Y101.604 E244.89849
G1 X87.819 Y101.544 E244.91825
G1 X86.046 Y103.316 E245.33095
G1 F2700 E240.33095
G0 F300 X86.046 Y103.316 Z0.888
G0 F12000 X84.517 Y102.438
G0 X83.925 Y103.584
G0 X83.533 Y104.826
G0 X83.339 Y106.405
G0 X83.363 Y114.051
G0 X83.628 Y115.57
G0 X84.207 Y117.024
G0 X84.924 Y118.153
G0 X85.823 Y119.138
G0 X86.685 Y119.799
G0 X87.475 Y120.293
G0 X88.496 Y118.831
;TIME_ELAPSED:95.667086
;LAYER:-4
;TYPE:SUPPORT-INTERFACE
G1 F2700 E245.33095
G1 F1500 X85.664 Y115.999 E245.55074
G1 X85.697 Y116.075 E245.55529
G1 X86.105 Y116.782 E245.60009
G1 X86.296 Y117.042 E245.61779
G1 X86.749 Y117.584 E245.65656
G1 X86.981 Y117.805 E245.67414
G1 X87.444 Y118.192 E245.70726
G1 X87.703 Y118.387 E245.72505
G1 X88.42 Y118.798 E245.7704
G1 X88.71 Y118.923 E245.78774
G1 X89.27 Y119.128 E245.82046
G1 X89.555 Y119.214 E245.8368
G1 X89.678 Y119.235 E245.84365
G1 X85.262 Y114.819 E246.18638
G1 X85.139 Y114.131 E246.22473
G1 X85.12 Y113.9 E246.23745
G1 X90.597 Y119.376 E246.66249
G1 X91.1 Y119.399 E246.69012
G1 X91.397 Y119.399 E246.70642
G1 X85.1 Y113.101 E247.19518
G1 X85.1 Y112.323 E247.23787
G1 X92.175 Y119.399 E247.78701
G1 X92.953 Y119.399 E247.8297
G1 X85.1 Y111.546 E248.43918
G1 X85.1 Y110.768 E248.48188
G1 X93.731 Y119.399 E249.15174
G1 X94.509 Y119.399 E249.19443
G1 X85.1 Y109.99 E249.92468
G1 X85.1 Y109.212 E249.96737
G1 X95.286 Y119.399 E250.75796
G1 X96.064 Y119.399 E250.80065
G1 X85.1 Y108.434 E251.65162
G1 X85.1 Y107.657 E251.69426
G1 X96.842 Y119.399 E252.60557
G1 X97.62 Y119.399 E252.64826
G1 X85.1 Y106.879 E253.61995
G1 X85.1 Y106.6 E253.63526
G1 X85.12 Y106.121 E253.66157
G1 X98.398 Y119.399 E254.69209
G1 X99.175 Y119.399 E254.73473
G1 X85.216 Y105.44 E255.8181
G1 X85.286 Y105.047 E255.84001
G1 X85.359 Y104.805 E255.85388
G1 X99.953 Y119.399 E256.98654
G1 X100.731 Y119.399 E257.02923
G1 X85.566 Y104.233 E258.20624
G1 X85.696 Y103.925 E258.22459
G1 X85.82 Y103.709 E258.23826
G1 X101.509 Y119.399 E259.45593
G1 X102.287 Y119.399 E259.49863
G1 X86.103 Y103.215 E260.75468
G1 X86.435 Y102.769 E260.7852
G1 X103.065 Y119.399 E262.07587
G1 X103.843 Y119.399 E262.11856
G1 X86.793 Y102.35 E263.44179
G1 X87.218 Y101.996 E263.47215
G1 X104.726 Y119.504 E264.83096
G1 X105.107 Y119.573 E264.85221
G1 X105.785 Y119.786 E264.89121
G1 X87.644 Y101.645 E266.29915
G1 X88.138 Y101.36 E266.33045
G1 X109.611 Y122.834 E267.99703
G1 X110.423 Y123.301 E268.04843
G1 X110.709 Y123.423 E268.0655
G1 X111.133 Y123.578 E268.09027
G1 X88.654 Y101.099 E269.83489
G1 X89.221 Y100.888 E269.86809
G1 X112.177 Y123.844 E271.64972
G1 X112.688 Y123.884 E271.67785
G1 X113.006 Y123.895 E271.69532
G1 X89.844 Y100.733 E273.49294
G1 X90.505 Y100.616 E273.52978
G1 X113.788 Y123.899 E275.33679
G1 X114.566 Y123.899 E275.37949
G1 X91.266 Y100.6 E277.18779
G1 X92.044 Y100.6 E277.23048
G1 X115.343 Y123.899 E279.03874
G1 X116.121 Y123.899 E279.08144
G1 X92.821 Y100.6 E280.88973
G1 X93.599 Y100.6 E280.93243
G1 X116.899 Y123.899 E282.74072
G1 X117.677 Y123.899 E282.78342
G1 X94.377 Y100.6 E284.59172
G1 X95.155 Y100.6 E284.63441
G1 X118.455 Y123.899 E286.44271
G1 X119.233 Y123.899 E286.4854
G1 X95.933 Y100.6 E288.2937
G1 X96.71 Y100.6 E288.33634
G1 X120.01 Y123.899 E290.14464
G1 X120.788 Y123.899 E290.18733
G1 X97.488 Y100.6 E291.99563
G1 X98.266 Y100.6 E292.03833
G1 X121.566 Y123.899 E293.84662
G1 X122.344 Y123.899 E293.88932
G1 X99.044 Y100.6 E295.69761
G1 X99.822 Y100.6 E295.74031
G1 X123.122 Y123.899 E297.54861
G1 X123.899 Y123.899 E297.59125
G1 X100.6 Y100.6 E299.39951
G1 X101.377 Y100.6 E299.44215
G1 X124.677 Y123.899 E301.25044
G1 X125.455 Y123.899 E301.29314
G1 X102.155 Y100.6 E303.10143
G1 X102.933 Y100.6 E303.14413
G1 X126.233 Y123.899 E304.95243
G1 X127.011 Y123.899 E304.99512
G1 X103.709 Y100.598 E306.80357
G1 X104.439 Y100.55 E306.84372
G1 X127.789 Y123.899 E308.6559
G1 X128.566 Y123.899 E308.69854
G1 X105.102 Y100.435 E310.5196
G1 X105.687 Y100.242 E310.55341
G1 X129.328 Y123.883 E312.38821
G1 X129.618 Y123.861 E312.40417
G1 X130.012 Y123.79 E312.42614
G1 X106.237 Y100.014 E314.27138
G1 X106.764 Y99.763 E314.30341
G1 X130.651 Y123.651 E316.15735
G1 X131.224 Y123.446 E316.19074
G1 X107.223 Y99.445 E318.05348
G1 X107.651 Y99.095 E318.08383
G1 X131.754 Y123.198 E319.95448
G1 X132.248 Y122.914 E319.98575
G1 X108.049 Y98.715 E321.86386
G1 X108.427 Y98.316 E321.89402
G1 X132.69 Y122.579 E323.7771
G1 X133.115 Y122.226 E323.80742
G1 X108.777 Y97.887 E325.69635
G1 X108.98 Y97.693 E325.71176
G1 X109.188 Y97.521 E325.72657
G1 X133.479 Y121.811 E327.61178
G1 X133.832 Y121.387 E327.64206
G1 X109.609 Y97.164 E329.52203
G1 X110.103 Y96.88 E329.5533
G1 X134.118 Y120.895 E331.41713
G1 X134.3 Y120.579 E331.43714
G1 X134.383 Y120.382 E331.44887
G1 X110.611 Y96.61 E333.29384
G1 X111.181 Y96.403 E333.32712
G1 X134.596 Y119.817 E335.14434
G1 X134.713 Y119.45 E335.16548
G1 X134.757 Y119.201 E335.17936
G1 X111.798 Y96.242 E336.96123
G1 X112.459 Y96.124 E336.99807
G1 X134.864 Y118.53 E338.73699
G1 X134.896 Y118.062 E338.76273
G1 X134.896 Y117.784 E338.77799
G1 X113.212 Y96.1 E340.4609
G1 X113.989 Y96.1 E340.50354
G1 X134.896 Y117.007 E342.12615
G1 X134.896 Y116.229 E342.16885
G1 X114.767 Y96.1 E343.73108
G1 X115.545 Y96.1 E343.77378
G1 X134.896 Y115.451 E345.27563
G1 X134.897 Y114.674 E345.31827
G1 X116.323 Y96.1 E346.75981
G1 X117.101 Y96.1 E346.80251
G1 X134.897 Y113.896 E348.18367
G1 X134.897 Y113.118 E348.22637
G1 X117.878 Y96.1 E349.54719
G1 X118.656 Y96.1 E349.58989
G1 X134.897 Y112.34 E350.85033
G1 X134.898 Y111.563 E350.89297
G1 X119.434 Y96.1 E352.09311
G1 X120.212 Y96.1 E352.1358
G1 X134.898 Y110.785 E353.27556
