;FLAVOR:Marlin
;TIME:2930
;Filament used: 3.16944m
;Layer height: 0.24
;MINX:82.58
;MINY:71.003
;MINZ:0.288
;MAXX:139.878
;MAXY:148.993
;MAXZ:9.198
;Generated with Cura_SteamEngine 5.2.1
M140 S60
M105
M190 S60
M104 S210
M105
M109 S210
M82 ;absolute extrusion mode
; Ender 3 Custom Start G-code
G92 E0 ; Reset Extruder
G28 ; Home all axes
G1 Z2.0 F3000 ; Move Z Axis up little to prevent scratching of Heat Bed
G1 X0.1 Y20 Z0.3 F5000.0 ; Move to start position
G1 X0.1 Y200.0 Z0.3 F1500.0 E15 ; Draw the first line
G1 X0.4 Y200.0 Z0.3 F5000.0 ; Move to side a little
G1 X0.4 Y20 Z0.3 F1500.0 E30 ; Draw the second line
G92 E0 ; Reset Extruder
G1 Z2.0 F3000 ; Move Z Axis up little to prevent scratching of Heat Bed
G1 X5 Y20 Z0.3 F5000.0 ; Move over to prevent blob squish
G92 E0
G92 E0
G1 F2700 E-5
;LAYER_COUNT:33
;LAYER:-6
M107
G0 F12000 X97.278 Y79.286 Z0.288
;TYPE:SUPPORT-INTERFACE
G1 F2700 E0
G1 F1125 X97.028 Y79.697 E0.06912
G1 X96.456 Y80.766 E0.24332
G1 X96.302 Y81.096 E0.29565
G1 X95.88 Y82.122 E0.45505
G1 X95.741 Y82.528 E0.51671
G1 X95.443 Y83.542 E0.66857
G1 X95.297 Y84.157 E0.75939
G1 X95.111 Y85.193 E0.91063
G1 X95.05 Y85.702 E0.98428
G1 X94.982 Y86.591 E1.11239
G1 X94.965 Y87.087 E1.1837
G1 X94.996 Y88.286 E1.35604
G1 X95.023 Y88.635 E1.40633
G1 X95.174 Y89.812 E1.57683
G1 X95.28 Y90.382 E1.66014
G1 X95.385 Y91.246 E1.78519
G1 X95.368 Y91.995 E1.89284
G1 X95.258 Y92.698 E1.99508
G1 X95.06 Y93.377 E2.0967
G1 X94.78 Y94.025 E2.19813
G1 X94.419 Y94.634 E2.29985
G1 X93.971 Y95.207 E2.40436
G1 X93.469 Y95.703 E2.50576
G1 X92.907 Y96.135 E2.60761
G1 X92.305 Y96.485 E2.70766
G1 X91.756 Y96.76 E2.79589
G1 X91.321 Y97.002 E2.86741
G1 X90.421 Y97.571 E3.0204
G1 X90.028 Y97.846 E3.08932
G1 X89.08 Y98.594 E3.26283
G1 X88.732 Y98.903 E3.3297
G1 X88.044 Y99.574 E3.46778
G1 X87.721 Y99.919 E3.53569
G1 X87.033 Y100.74 E3.6896
G1 X86.744 Y101.12 E3.75819
G1 X86.158 Y101.984 E3.9082
G1 X85.906 Y102.398 E3.97784
G1 X85.397 Y103.344 E4.13219
G1 X85.129 Y103.919 E4.22334
G1 X84.735 Y104.891 E4.37404
G1 X84.569 Y105.383 E4.44864
G1 X84.279 Y106.408 E4.6017
G1 X84.178 Y106.854 E4.66741
G1 X83.991 Y107.893 E4.81909
G1 X83.93 Y108.402 E4.89275
G1 X83.862 Y109.287 E5.02029
G1 X83.845 Y109.783 E5.0916
G1 X83.877 Y111.016 E5.26882
G1 X83.912 Y111.445 E5.33066
G1 X84.036 Y112.394 E5.46818
G1 X84.141 Y112.973 E5.55273
G1 X84.362 Y113.914 E5.69161
G1 X84.487 Y114.358 E5.75789
G1 X84.837 Y115.376 E5.91256
G1 X85.015 Y115.823 E5.98169
G1 X85.468 Y116.796 E6.13591
G1 X85.769 Y117.361 E6.22789
G1 X86.308 Y118.251 E6.37739
G1 X86.565 Y118.631 E6.44331
G1 X87.155 Y119.416 E6.5844
G1 X87.535 Y119.87 E6.66947
G1 X88.246 Y120.633 E6.81932
G1 X88.521 Y120.9 E6.87439
G1 X89.424 Y121.691 E7.04688
G1 X89.788 Y121.976 E7.11331
G1 X90.569 Y122.532 E7.25105
G1 X90.94 Y122.771 E7.31446
G1 X91.86 Y123.298 E7.46681
G1 X92.336 Y123.546 E7.54393
G1 X92.984 Y123.931 E7.65223
G1 X93.557 Y124.386 E7.75736
G1 X94.057 Y124.905 E7.8609
G1 X94.487 Y125.481 E7.96418
G1 X94.822 Y126.07 E8.06155
G1 X95.085 Y126.707 E8.16057
G1 X95.274 Y127.389 E8.26225
G1 X95.374 Y128.09 E8.36399
G1 X95.385 Y128.791 E8.46473
G1 X95.303 Y129.524 E8.57071
G1 X95.111 Y130.593 E8.72676
G1 X95.05 Y131.102 E8.80042
G1 X94.982 Y131.991 E8.92853
G1 X94.965 Y132.487 E8.99984
G1 X94.996 Y133.686 E9.17217
G1 X95.023 Y134.035 E9.22247
G1 X95.175 Y135.21 E9.3927
G1 X95.243 Y135.591 E9.44831
G1 X95.484 Y136.617 E9.59974
G1 X95.649 Y137.189 E9.68528
G1 X95.969 Y138.108 E9.8251
G1 X96.143 Y138.536 E9.89149
G1 X96.591 Y139.501 E10.04435
G1 X96.815 Y139.927 E10.11351
G1 X97.418 Y140.933 E10.28203
G1 X97.637 Y141.261 E10.3387
G1 X98.331 Y142.187 E10.50497
G1 X98.57 Y142.474 E10.55864
G1 X99.365 Y143.332 E10.7267
G1 X99.733 Y143.686 E10.80007
G1 X100.542 Y144.391 E10.95426
G1 X100.912 Y144.681 E11.0218
G1 X101.778 Y145.291 E11.174
G1 X102.093 Y145.491 E11.22761
G1 X103.149 Y146.088 E11.40191
G1 X103.662 Y146.335 E11.48372
G1 X104.536 Y146.712 E11.62049
G1 X104.968 Y146.871 E11.68663
G1 X105.896 Y147.168 E11.82663
G1 X106.446 Y147.311 E11.90828
G1 X107.268 Y147.485 E12.02901
G1 X107.586 Y147.545 E12.07551
G1 X108.042 Y147.61 E12.14169
G1 X108.958 Y147.701 E12.27395
G1 X109.552 Y147.729 E12.35939
G1 X110.594 Y147.726 E12.50911
G1 X111.106 Y147.694 E12.58282
G1 X112.022 Y147.599 E12.71514
G1 X112.479 Y147.531 E12.78153
G1 X113.514 Y147.317 E12.93339
G1 X114.146 Y147.153 E13.0272
G1 X115.003 Y146.879 E13.15648
G1 X115.585 Y146.659 E13.24588
G1 X116.578 Y146.221 E13.40182
G1 X117.009 Y146.002 E13.47128
G1 X117.812 Y145.547 E13.6039
G1 X118.319 Y145.224 E13.69027
G1 X119.001 Y144.744 E13.8101
G1 X119.439 Y144.408 E13.88942
G1 X119.634 Y144.245 E13.92594
G1 X120.282 Y143.671 E14.05032
G1 X120.721 Y143.244 E14.13831
G1 X121.36 Y142.552 E14.27365
G1 X121.678 Y142.175 E14.34452
G1 X122.303 Y141.344 E14.49392
G1 X122.589 Y140.925 E14.56681
G1 X123.191 Y139.916 E14.73563
G1 X123.404 Y139.516 E14.80074
G1 X123.783 Y138.714 E14.9282
G1 X123.964 Y138.288 E14.9947
G1 X124.071 Y138.004 E15.03831
G1 X124.365 Y137.145 E15.16876
G1 X124.491 Y136.715 E15.23314
G1 X124.738 Y135.681 E15.38589
G1 X124.843 Y135.11 E15.46931
G1 X124.959 Y134.235 E15.59614
G1 X124.986 Y133.976 E15.63355
G1 X125.018 Y133.467 E15.70683
G1 X125.037 Y132.566 E15.83632
G1 X125.027 Y132.123 E15.89999
G1 X124.934 Y130.933 E16.07149
G1 X124.855 Y130.351 E16.15588
G1 X124.787 Y129.605 E16.26351
G1 X124.823 Y128.833 E16.37456
G1 X124.941 Y128.167 E16.47174
G1 X125.152 Y127.491 E16.57349
G1 X125.436 Y126.863 E16.67253
G1 X125.809 Y126.257 E16.77477
G1 X126.249 Y125.711 E16.87553
G1 X126.772 Y125.207 E16.97989
G1 X127.316 Y124.802 E17.07733
G1 X127.958 Y124.438 E17.18337
G1 X128.548 Y124.201 E17.27473
G1 X128.559 Y124.206 E17.27647
G1 X129.173 Y123.961 E17.37145
G1 X130.171 Y123.521 E17.52817
G1 X130.602 Y123.302 E17.59763
G1 X131.405 Y122.847 E17.73024
G1 X131.912 Y122.524 E17.81662
G1 X132.594 Y122.044 E17.93645
G1 X133.032 Y121.708 E18.01577
G1 X133.227 Y121.545 E18.05228
G1 X133.875 Y120.971 E18.17667
G1 X134.314 Y120.544 E18.26466
G1 X134.953 Y119.852 E18.4
G1 X135.271 Y119.475 E18.47086
G1 X135.896 Y118.644 E18.62026
G1 X136.182 Y118.225 E18.69316
G1 X136.786 Y117.214 E18.86237
G1 X136.997 Y116.816 E18.9271
G1 X137.376 Y116.015 E19.05442
G1 X137.589 Y115.509 E19.1333
G1 X137.958 Y114.442 E19.29552
G1 X138.116 Y113.889 E19.37816
G1 X138.327 Y112.996 E19.51
G1 X138.435 Y112.418 E19.59449
G1 X138.552 Y111.536 E19.72233
G1 X138.579 Y111.276 E19.75989
G1 X138.611 Y110.769 E19.83288
G1 X138.63 Y109.86 E19.96352
G1 X138.626 Y109.646 E19.99427
G1 X138.619 Y109.4 E20.02963
G1 X138.535 Y108.317 E20.18571
G1 X138.481 Y107.898 E20.24641
G1 X138.271 Y106.737 E20.41593
G1 X138.184 Y106.369 E20.47026
G1 X137.893 Y105.351 E20.62239
G1 X137.753 Y104.94 E20.68478
G1 X137.34 Y103.912 E20.84396
G1 X137.143 Y103.479 E20.91231
G1 X136.712 Y102.655 E21.04593
G1 X136.518 Y102.31 E21.1028
G1 X136.278 Y101.927 E21.16774
G1 X135.787 Y101.203 E21.29343
G1 X135.436 Y100.736 E21.37737
G1 X134.827 Y100.006 E21.51397
G1 X134.407 Y99.554 E21.60262
G1 X133.652 Y98.821 E21.75382
G1 X133.379 Y98.581 E21.80605
G1 X132.552 Y97.923 E21.9579
G1 X132.057 Y97.572 E22.04509
G1 X131.151 Y97.001 E22.19896
G1 X130.71 Y96.756 E22.27145
G1 X129.776 Y96.292 E22.4213
G1 X129.329 Y96.099 E22.49126
G1 X128.391 Y95.746 E22.63526
G1 X128.031 Y95.595 E22.69135
G1 X127.4 Y95.251 E22.79461
G1 X126.811 Y94.824 E22.89914
G1 X126.297 Y94.342 E23.00039
G1 X125.863 Y93.817 E23.09826
G1 X125.474 Y93.205 E23.20245
G1 X125.174 Y92.566 E23.30388
G1 X124.964 Y91.921 E23.40135
G1 X124.824 Y91.182 E23.50942
G1 X124.786 Y90.444 E23.6156
G1 X124.834 Y89.775 E23.71197
G1 X124.959 Y88.835 E23.84822
G1 X124.986 Y88.576 E23.88564
G1 X125.018 Y88.068 E23.95877
G1 X125.037 Y87.164 E24.08869
G1 X125.027 Y86.721 E24.15236
G1 X124.934 Y85.531 E24.32386
G1 X124.875 Y85.091 E24.38765
G1 X124.701 Y84.143 E24.52614
G1 X124.557 Y83.534 E24.61606
G1 X124.3 Y82.653 E24.74792
G1 X124.161 Y82.24 E24.81053
G1 X123.747 Y81.212 E24.96976
G1 X123.55 Y80.78 E25.03798
G1 X123.118 Y79.957 E25.17154
G1 X122.822 Y79.439 E25.25726
G1 X122.687 Y79.228 E25.29325
G1 X122.194 Y78.501 E25.41946
G1 X121.845 Y78.037 E25.50289
G1 X121.146 Y77.205 E25.65902
G1 X120.818 Y76.856 E25.72784
G1 X120.052 Y76.115 E25.88097
G1 X119.68 Y75.796 E25.95138
G1 X118.838 Y75.136 E26.1051
G1 X118.474 Y74.878 E26.16921
G1 X117.663 Y74.363 E26.30724
G1 X117.115 Y74.055 E26.39757
G1 X116.18 Y73.592 E26.54748
G1 X115.754 Y73.406 E26.61427
G1 X114.844 Y73.064 E26.75395
G1 X114.393 Y72.92 E26.82197
G1 X113.255 Y72.621 E26.99104
G1 X112.897 Y72.545 E27.04362
G1 X111.853 Y72.379 E27.19551
G1 X111.203 Y72.314 E27.28937
G1 X110.175 Y72.265 E27.43725
G1 X109.69 Y72.267 E27.50693
G1 X108.613 Y72.328 E27.66193
G1 X108.126 Y72.383 E27.73235
G1 X107.088 Y72.548 E27.88336
G1 X106.63 Y72.648 E27.95072
G1 X105.582 Y72.926 E28.10651
G1 X105.109 Y73.082 E28.17807
G1 X104.135 Y73.454 E28.32788
G1 X103.69 Y73.652 E28.39786
G1 X102.718 Y74.144 E28.5544
G1 X102.317 Y74.376 E28.62096
G1 X101.542 Y74.87 E28.75302
G1 X101.148 Y75.146 E28.82214
G1 X100.207 Y75.89 E28.9945
G1 X99.853 Y76.204 E29.06249
G1 X99.079 Y76.962 E29.21815
G1 X98.859 Y77.199 E29.26461
G1 X98.165 Y78.027 E29.41984
G1 X97.858 Y78.429 E29.49252
G1 X97.278 Y79.286 E29.64121
G0 F12000 X97.344 Y80.373
G1 F1125 X135.346 Y118.376 E37.3633
G0 F12000 X133.79 Y120.214
G1 F1125 X96.305 Y82.729 E44.98023
G0 F12000 X95.677 Y85.495
G1 F1125 X131.946 Y121.764 E52.35008
G0 F12000 X129.811 Y123.023
G1 F1125 X95.656 Y88.868 E59.29036
G0 F12000 X95.893 Y92.499
G1 F1125 X127.436 Y124.042 E65.69988
G0 F12000 X125.583 Y125.583
G1 F1125 X94.936 Y94.936 E71.92734
G0 F12000 X93.239 Y96.633
G1 F1125 X124.422 Y127.816 E78.26371
G0 F12000 X124.348 Y131.136
G1 F1125 X91.077 Y97.865 E85.02436
G0 F12000 X89.15 Y99.332
G1 F1125 X124.318 Y134.5 E92.17049
G0 F12000 X123.689 Y137.265
G1 F1125 X87.517 Y101.094 E99.52052
G0 F12000 X86.181 Y103.152
G1 F1125 X122.661 Y139.632 E106.93324
G0 F12000 X121.306 Y141.67
G1 F1125 X85.155 Y105.52 E114.279
G0 F12000 X84.545 Y108.304
G1 F1125 X119.658 Y143.417 E121.41395
G0 F12000 X117.732 Y144.885
G1 F1125 X84.55 Y111.703 E128.15652
G0 F12000 X86.032 Y116.579
G1 F1125 X92.305 Y122.852 E129.43119
G0 F12000 X95.437 Y125.984
G1 F1125 X115.494 Y146.041 E133.50676
G0 F12000 X112.89 Y146.831
G1 F1125 X95.861 Y129.802 E136.96705
G0 F12000 X95.575 Y132.91
G1 F1125 X109.792 Y147.127 E139.85594
G0 F12000 X105.765 Y146.494
G1 F1125 X96.197 Y136.926 E141.80015
G1 F2700 E136.80015
G0 F12000 X94.405 Y137.448
G0 X95.045 Y139.183
G0 X95.785 Y140.676
G0 X96.669 Y142.082
G0 X97.714 Y143.414
G0 X98.885 Y144.622
G0 X100.163 Y145.7
G0 X101.519 Y146.622
G0 X103.146 Y147.49
G0 X104.564 Y148.068
G0 X106.163 Y148.545
G0 X107.813 Y148.879
G0 X109.53 Y148.993
G0 X111.215 Y148.955
G0 X112.893 Y148.741
G0 X114.507 Y148.365
G0 X116.073 Y147.826
G0 X117.616 Y147.112
G0 X119.031 Y146.27
G0 X120.485 Y145.181
G0 X121.634 Y144.119
G0 X122.732 Y142.879
G0 X123.532 Y141.763
G0 X138.077 Y117.485
G0 X136.605 Y116.24
G1 F2700 E141.80015
G1 F1125 X98.693 Y78.329 E149.50375
G0 F12000 X100.336 Y76.577
G1 F1125 X137.526 Y113.767 E157.06074
G0 F12000 X138.003 Y110.851
G1 F1125 X102.27 Y75.117 E164.32177
G0 F12000 X104.502 Y73.955
G1 F1125 X137.744 Y107.197 E171.07653
G1 F2700 E166.07653
G0 F12000 X139.408 Y106.043
G0 X138.855 Y104.277
G0 X138.21 Y102.783
G0 X137.503 Y101.528
G0 X136.423 Y99.944
G0 X134.531 Y100.59
G1 F2700 E171.07653
G1 F1125 X132.938 Y98.997 E171.40023
G1 F2700 E166.40023
G0 F12000 X133.316 Y96.916
G0 X126.051 Y90.484
G0 X124.196 Y90.255
G1 F2700 E171.40023
G1 F1125 X107.1 Y73.159 E174.87413
G0 F12000 X110.202 Y72.867
G1 F1125 X124.435 Y87.099 E177.76616
G0 F12000 X123.796 Y83.066
G1 F1125 X114.226 Y73.496 E179.71078
G1 F2700 E174.71078
G0 F300 X114.226 Y73.496 Z0.648
G0 F12000 X114.604 Y71.664
G0 X112.978 Y71.274
G0 X111.289 Y71.052
G0 X109.645 Y71.003
G0 X107.95 Y71.13
G0 X106.329 Y71.418
G0 X104.68 Y71.893
G0 X103.142 Y72.512
G0 X101.655 Y73.297
G0 X100.254 Y74.234
G0 X98.986 Y75.281
G0 X97.783 Y76.511
G0 X96.751 Y77.805
G0 X96.013 Y78.957
G0 X95.147 Y80.581
G0 X96.566 Y81.766
;TIME_ELAPSED:78.707043
;LAYER:-5
;TYPE:SUPPORT
G1 F2700 E179.71078
G1 F1125 X104.477 Y73.854 E181.55284
G1 X104.006 Y74.054 E181.63709
G1 X103.121 Y74.495 E181.79988
G1 X102.559 Y74.812 E181.90611
G1 X101.823 Y75.281 E182.04979
G1 X101.321 Y75.637 E182.15112
G1 X100.52 Y76.277 E182.31992
G1 X100.21 Y76.552 E182.38814
G1 X99.447 Y77.299 E182.56394
G1 X99.127 Y77.653 E182.6425
G1 X98.456 Y78.463 E182.81567
G1 X98.265 Y78.715 E182.86773
G1 X97.617 Y79.682 E183.05938
G1 X97.382 Y80.083 E183.1359
G1 X96.901 Y80.989 E183.30478
G1 X96.758 Y81.296 E183.36054
G1 X96.346 Y82.301 E183.53936
G1 X96.215 Y82.681 E183.60554
G1 X95.92 Y83.683 E183.77751
G1 X95.809 Y84.143 E183.85541
G1 X95.759 Y84.41 E183.90013
G1 X107.127 Y73.043 E186.54686
G1 X108.182 Y72.879 E186.72264
G1 X108.675 Y72.823 E186.80433
G1 X109.216 Y72.793 E186.89354
G1 X95.486 Y86.522 E190.09021
G1 X95.463 Y87.102 E190.18578
G1 X95.496 Y88.351 E190.39148
G1 X111.039 Y72.808 E194.0104
G1 X111.335 Y72.824 E194.05921
G1 X111.799 Y72.875 E194.13606
G1 X112.674 Y73.011 E194.28185
G1 X95.713 Y89.972 E198.23092
G1 X95.77 Y90.28 E198.28249
G1 X95.889 Y91.266 E198.446
G1 X95.878 Y91.645 E198.50843
G1 X114.153 Y73.37 E202.76345
G1 X114.659 Y73.528 E202.85072
G1 X115.512 Y73.85 E203.00083
G1 X95.314 Y94.048 E207.70359
G1 X95.222 Y94.26 E207.74164
G1 X94.827 Y94.924 E207.86884
G1 X94.352 Y95.532 E207.99586
G1 X93.805 Y96.075 E208.12276
G1 X93.193 Y96.546 E208.2499
G1 X92.557 Y96.916 E208.37104
G1 X92.336 Y97.027 E208.41176
G1 X85.884 Y103.478 E209.91388
G1 X85.586 Y104.115 E210.02966
G1 X85.202 Y105.07 E210.19912
G1 X85.046 Y105.534 E210.27972
G1 X84.795 Y106.406 E210.42911
G1 X116.763 Y74.438 E217.87231
G1 X117.291 Y74.723 E217.97109
G1 X117.919 Y75.12 E218.09341
G1 X84.412 Y108.627 E225.89494
G1 X84.359 Y109.309 E226.00756
G1 X84.343 Y109.933 E226.11033
G1 X84.361 Y110.517 E226.20653
G1 X118.989 Y75.888 E234.26918
G1 X119.379 Y76.194 E234.35079
G1 X119.729 Y76.496 E234.4269
G1 X119.979 Y76.738 E234.48418
G1 X84.514 Y112.202 E242.74148
G1 X84.627 Y112.864 E242.85205
G1 X84.83 Y113.724 E242.99753
G1 X120.884 Y77.671 E251.39197
G1 X121.463 Y78.362 E251.54039
G1 X121.707 Y78.686 E251.60717
G1 X85.277 Y115.116 E260.08927
G1 X85.472 Y115.619 E260.17809
G1 X85.836 Y116.396 E260.31935
G1 X122.452 Y79.78 E268.84476
G1 X123.094 Y80.976 E269.06824
G1 X86.489 Y117.581 E277.59109
G1 X86.73 Y117.982 E277.66811
G1 X86.965 Y118.331 E277.73738
G1 X87.228 Y118.68 E277.80933
G1 X123.634 Y82.274 E286.28584
G1 X123.821 Y82.799 E286.37759
G1 X124.075 Y83.672 E286.52728
G1 X88.054 Y119.693 E294.91415
G1 X88.599 Y120.278 E295.04579
G1 X88.962 Y120.623 E295.12824
G1 X124.385 Y85.201 E303.37576
G1 X124.435 Y85.581 E303.43886
G1 X124.521 Y86.621 E303.61067
G1 X124.529 Y86.895 E303.6558
G1 X89.947 Y121.477 E311.70762
G1 X91.022 Y122.24 E311.92465
G1 X124.457 Y88.805 E319.70942
G1 X124.334 Y89.743 E319.86517
G1 X124.282 Y90.475 E319.98599
G1 X124.3 Y90.8 E320.03958
G1 X92.193 Y122.908 E327.51526
G1 X92.558 Y123.095 E327.58278
G1 X93.363 Y123.576 E327.73717
G1 X124.58 Y92.359 E335.00551
G1 X124.703 Y92.74 E335.07143
G1 X125.029 Y93.438 E335.19826
G1 X125.149 Y93.629 E335.2354
G1 X94.337 Y124.441 E342.40944
G1 X94.896 Y125.19 E342.56331
G1 X95.088 Y125.528 E342.62731
G1 X125.931 Y94.685 E349.80857
G1 X126.496 Y95.215 E349.93612
G1 X126.927 Y95.528 E350.02381
G1 X95.636 Y126.818 E357.30927
G1 X95.771 Y127.318 E357.39453
G1 X95.878 Y128.085 E357.52203
G1 X95.88 Y128.413 E357.57604
G1 X128.12 Y96.173 E365.08257
G1 X129.144 Y96.565 E365.26309
G1 X129.44 Y96.691 E365.31605
G1 X95.624 Y130.507 E373.18953
G1 X95.544 Y131.166 E373.29882
G1 X95.479 Y132.014 E373.43884
G1 X95.465 Y132.506 E373.51987
G1 X130.679 Y97.291 E381.71897
G1 X131.803 Y98.005 E381.9382
G1 X95.554 Y134.254 E390.37816
G1 X95.652 Y135.028 E390.5066
G1 X95.731 Y135.489 E390.58361
G1 X95.812 Y135.835 E390.64211
G1 X132.858 Y98.789 E399.26764
G1 X133.399 Y99.27 E399.38682
