;FLAVOR:Marlin
;TIME:17402
;Filament used: 25.0759m
;Layer height: 0.24
;MINX:32.175
;MINY:27.175
;MINZ:0.24
;MAXX:187.825
;MAXY:192.825
;MAXZ:24.96
;Generated with Cura_SteamEngine 5.2.1
M140 S60
M105
M190 S60
M104 S210
M105
M109 S210
M82 ;absolute extrusion mode
; Ender 3 Custom Start G-code
G92 E0 ; Reset Extruder
G28 ; Home all axes
G1 Z2.0 F3000 ; Move Z Axis up little to prevent scratching of Heat Bed
G1 X0.1 Y20 Z0.3 F5000.0 ; Move to start position
G1 X0.1 Y200.0 Z0.3 F1500.0 E15 ; Draw the first line
G1 X0.4 Y200.0 Z0.3 F5000.0 ; Move to side a little
G1 X0.4 Y20 Z0.3 F1500.0 E30 ; Draw the second line
G92 E0 ; Reset Extruder
G1 Z2.0 F3000 ; Move Z Axis up little to prevent scratching of Heat Bed
G1 X5 Y20 Z0.3 F5000.0 ; Move over to prevent blob squish
G92 E0
G92 E0
G1 F2700 E-5
;LAYER_COUNT:104
;LAYER:0
M107
G0 F6000 X34.131 Y29.844 Z0.24
;TYPE:SKIRT
G1 F2700 E0
G1 F1500 X34.682 Y29.277 E0.04339
G1 X35.288 Y28.768 E0.08682
G1 X35.942 Y28.324 E0.1302
G1 X36.638 Y27.947 E0.17364
G1 X37.368 Y27.643 E0.21704
G1 X38.125 Y27.414 E0.26044
G1 X38.901 Y27.263 E0.30383
G1 X39.79 Y27.187 E0.35279
G1 X40.33 Y27.175 E0.38243
G1 X59.293 Y27.175 E1.42311
G1 X60.13 Y27.187 E1.46905
G1 X61.091 Y27.261 E1.52194
G1 X63.259 Y27.563 E1.64207
G1 X65.866 Y27.86 E1.78606
G1 X68.488 Y28.084 E1.93048
G1 X71.044 Y28.228 E2.07098
G1 X73.68 Y28.304 E2.2157
G1 X76.277 Y28.304 E2.35822
G1 X78.903 Y28.231 E2.50239
G1 X81.473 Y28.085 E2.64365
G1 X84.087 Y27.863 E2.78762
G1 X86.677 Y27.569 E2.93067
G1 X88.942 Y27.257 E3.05615
G1 X89.79 Y27.187 E3.10285
G1 X90.33 Y27.175 E3.13249
G1 X119.404 Y27.176 E4.72805
G1 X120.108 Y27.186 E4.76668
G1 X120.897 Y27.237 E4.81007
G1 X121.859 Y27.41 E4.86372
G1 X124.838 Y28.102 E5.03155
G1 X127.433 Y28.623 E5.17681
G1 X129.951 Y29.055 E5.31701
G1 X132.556 Y29.426 E5.46141
G1 X135.136 Y29.72 E5.60392
G1 X137.775 Y29.945 E5.74927
G1 X140.321 Y30.089 E5.88922
G1 X142.979 Y30.166 E6.03515
G1 X144.328 Y30.175 E6.10918
G1 X179.405 Y30.176 E8.03418
G1 X180.103 Y30.186 E8.07249
G1 X180.892 Y30.237 E8.11588
G1 X181.672 Y30.368 E8.15928
G1 X182.435 Y30.577 E8.2027
G1 X183.173 Y30.861 E8.2461
G1 X183.879 Y31.219 E8.28954
G1 X184.544 Y31.646 E8.33291
G1 X185.164 Y32.138 E8.37634
G1 X185.73 Y32.691 E8.41977
G1 X186.238 Y33.297 E8.46317
G1 X186.681 Y33.952 E8.50656
G1 X187.057 Y34.648 E8.54998
G1 X187.36 Y35.378 E8.59335
G1 X187.588 Y36.136 E8.63679
G1 X187.739 Y36.912 E8.68018
G1 X187.813 Y37.79 E8.72853
G1 X187.825 Y38.33 E8.75817
G1 X187.824 Y184.361 E16.77224
G1 X187.815 Y185.088 E16.81214
G1 X187.766 Y185.877 E16.85552
G1 X187.636 Y186.658 E16.89897
G1 X187.429 Y187.421 E16.94236
G1 X187.146 Y188.159 E16.98574
G1 X186.789 Y188.865 E17.02915
G1 X186.364 Y189.532 E17.07256
G1 X185.873 Y190.152 E17.11596
G1 X185.322 Y190.719 E17.15935
G1 X184.716 Y191.228 E17.20278
G1 X184.062 Y191.673 E17.24619
G1 X183.367 Y192.05 E17.28958
G1 X182.637 Y192.355 E17.333
G1 X181.88 Y192.585 E17.37642
G1 X181.104 Y192.736 E17.41981
G1 X180.21 Y192.813 E17.46905
G1 X179.67 Y192.825 E17.49869
G1 X40.606 Y192.824 E25.13042
G1 X39.908 Y192.815 E25.16872
G1 X39.119 Y192.765 E25.21211
G1 X38.338 Y192.636 E25.25555
G1 X37.575 Y192.428 E25.29895
G1 X36.837 Y192.144 E25.34235
G1 X36.131 Y191.787 E25.38577
G1 X35.465 Y191.361 E25.42915
G1 X34.845 Y190.87 E25.47256
G1 X34.278 Y190.319 E25.51594
G1 X33.769 Y189.713 E25.55938
G1 X33.324 Y189.059 E25.60279
G1 X32.948 Y188.363 E25.6462
G1 X32.644 Y187.633 E25.6896
G1 X32.414 Y186.876 E25.73302
G1 X32.263 Y186.1 E25.7764
G1 X32.187 Y185.202 E25.82586
G1 X32.175 Y184.658 E25.85572
G1 X32.176 Y35.596 E34.03613
G1 X32.185 Y34.907 E34.07394
G1 X32.235 Y34.117 E34.11738
G1 X32.365 Y33.337 E34.16078
G1 X32.572 Y32.574 E34.20417
G1 X32.856 Y31.836 E34.24756
G1 X33.213 Y31.13 E34.29098
G1 X33.639 Y30.464 E34.33437
G1 X34.131 Y29.844 E34.3778
G0 F6000 X34.672 Y30.065
G1 F1500 X35.219 Y29.533 E34.41968
G1 X35.818 Y29.062 E34.4615
G1 X36.464 Y28.656 E34.50337
G1 X37.149 Y28.32 E34.54524
G1 X37.865 Y28.057 E34.5871
G1 X38.604 Y27.871 E34.62892
G1 X39.359 Y27.763 E34.67078
G1 X39.805 Y27.737 E34.69529
G1 X40.33 Y27.725 E34.72411
G1 X59.293 Y27.725 E35.76479
G1 X60.122 Y27.737 E35.81029
G1 X61.015 Y27.806 E35.85944
G1 X63.198 Y28.111 E35.9804
G1 X65.795 Y28.406 E36.12384
G1 X68.444 Y28.632 E36.26975
G1 X71.033 Y28.779 E36.41206
G1 X73.664 Y28.854 E36.5565
G1 X76.293 Y28.854 E36.70078
G1 X78.914 Y28.781 E36.84467
G1 X81.514 Y28.633 E36.98759
G1 X84.126 Y28.412 E37.13145
G1 X86.772 Y28.112 E37.27759
G1 X89.017 Y27.802 E37.40196
G1 X89.806 Y27.737 E37.44541
G1 X90.33 Y27.725 E37.47417
G1 X119.396 Y27.726 E39.06929
G1 X120.1 Y27.736 E39.10793
G1 X120.861 Y27.787 E39.14979
G1 X121.728 Y27.944 E39.19814
G1 X122.144 Y28.046 E39.22165
G1 X124.715 Y28.638 E39.36643
G1 X127.339 Y29.165 E39.51331
G1 X129.888 Y29.602 E39.65524
G1 X132.484 Y29.972 E39.79915
G1 X135.064 Y30.265 E39.94165
G1 X137.731 Y30.493 E40.08854
G1 X140.31 Y30.64 E40.23031
G1 X142.959 Y30.715 E40.37574
G1 X144.324 Y30.725 E40.45065
G1 X179.397 Y30.726 E42.37543
G1 X180.095 Y30.736 E42.41374
G1 X180.856 Y30.787 E42.4556
G1 X181.608 Y30.917 E42.49748
G1 X182.341 Y31.125 E42.53929
G1 X183.049 Y31.409 E42.58116
G1 X183.723 Y31.765 E42.62299
G1 X184.356 Y32.19 E42.66483
G1 X184.942 Y32.679 E42.70672
G1 X185.473 Y33.227 E42.74859
G1 X185.943 Y33.827 E42.79042
G1 X186.348 Y34.473 E42.83226
G1 X186.684 Y35.158 E42.87413
G1 X186.945 Y35.874 E42.91596
G1 X187.131 Y36.614 E42.95783
G1 X187.238 Y37.369 E42.99968
G1 X187.263 Y37.805 E43.02364
G1 X187.275 Y38.33 E43.05246
G1 X187.274 Y184.354 E51.06615
G1 X187.265 Y185.081 E51.10605
G1 X187.216 Y185.842 E51.1479
G1 X187.087 Y186.594 E51.18977
G1 X186.88 Y187.328 E51.23162
G1 X186.598 Y188.036 E51.27344
G1 X186.243 Y188.711 E51.3153
G1 X185.819 Y189.345 E51.35716
G1 X185.331 Y189.931 E51.39901
G1 X184.785 Y190.463 E51.44084
G1 X184.186 Y190.935 E51.48269
G1 X183.54 Y191.341 E51.52457
G1 X182.856 Y191.678 E51.56641
G1 X182.14 Y191.941 E51.60827
G1 X181.401 Y192.128 E51.65011
G1 X180.646 Y192.236 E51.69196
G1 X180.195 Y192.263 E51.71676
G1 X179.67 Y192.275 E51.74558
G1 X40.613 Y192.274 E59.37692
G1 X39.915 Y192.265 E59.41522
G1 X39.154 Y192.216 E59.45707
G1 X38.403 Y192.086 E59.4989
G1 X37.669 Y191.879 E59.54075
G1 X36.96 Y191.596 E59.58265
G1 X36.286 Y191.241 E59.62445
G1 X35.652 Y190.817 E59.66631
G1 X35.066 Y190.329 E59.70816
G1 X34.534 Y189.782 E59.75004
G1 X34.063 Y189.183 E59.79185
G1 X33.657 Y188.537 E59.83373
G1 X33.32 Y187.853 E59.87557
G1 X33.058 Y187.137 E59.91741
G1 X32.871 Y186.397 E59.9593
G1 X32.763 Y185.642 E60.00116
G1 X32.737 Y185.188 E60.02611
G1 X32.725 Y184.658 E60.05521
G1 X32.726 Y35.603 E68.23523
G1 X32.735 Y34.914 E68.27304
G1 X32.785 Y34.153 E68.3149
G1 X32.914 Y33.401 E68.35677
G1 X33.121 Y32.667 E68.39862
G1 X33.404 Y31.959 E68.44047
G1 X33.76 Y31.285 E68.4823
G1 X34.184 Y30.651 E68.52415
G1 X34.672 Y30.065 E68.566
G1 F2700 E63.566
;MESH:Body1.STL
G0 F6000 X54.498 Y69.197
G0 X57.025 Y74.74
;TYPE:WALL-INNER
G1 F2700 E68.566
G1 F900 X56.516 Y74.883 E68.59502
G1 X55.978 Y74.925 E68.62463
G1 X55.467 Y74.877 E68.6528
G1 X54.997 Y74.752 E68.67949
G1 X54.539 Y74.537 E68.70726
G1 X54.12 Y74.245 E68.73528
G1 X53.756 Y73.881 E68.76353
G1 X53.463 Y73.467 E68.79137
G1 X53.251 Y73.007 E68.81917
G1 X53.119 Y72.51 E68.84739
G1 X53.071 Y72.003 E68.87533
G1 X53.119 Y71.488 E68.90372
G1 X53.247 Y71 E68.93141
G1 X53.464 Y70.538 E68.95942
G1 X53.761 Y70.118 E68.98765
G1 X54.12 Y69.759 E69.01551
G1 X54.539 Y69.463 E69.04366
G1 X54.993 Y69.254 E69.07109
G1 X55.479 Y69.118 E69.09879
G1 X56.007 Y69.072 E69.12787
G1 X56.532 Y69.123 E69.15682
G1 X56.978 Y69.243 E69.18217
G1 X57.394 Y69.429 E69.20718
G1 X57.463 Y69.464 E69.21142
G1 X57.882 Y69.761 E69.23961
G1 X58.218 Y70.094 E69.26557
G1 X58.529 Y70.52 E69.29451
G1 X58.75 Y71.003 E69.32366
G1 X58.882 Y71.479 E69.35077
G1 X58.928 Y71.998 E69.37937
G1 X58.884 Y72.494 E69.40669
G1 X58.752 Y73.001 E69.43544
G1 X58.539 Y73.466 E69.46351
G1 X58.24 Y73.885 E69.49176
G1 X57.896 Y74.227 E69.51838
G1 X57.465 Y74.539 E69.54758
G1 X57.025 Y74.74 E69.57413
G0 F6000 X57.197 Y74.084
;TYPE:WALL-OUTER
G1 F900 X56.844 Y74.247 E69.59547
G1 X56.422 Y74.364 E69.6195
G1 X56.01 Y74.4 E69.6422
G1 X55.59 Y74.365 E69.66533
G1 X55.18 Y74.256 E69.68861
G1 X54.8 Y74.082 E69.71154
G1 X54.458 Y73.839 E69.73457
G1 X54.161 Y73.542 E69.75762
G1 X53.919 Y73.2 E69.78061
G1 X53.74 Y72.805 E69.80441
G1 X53.636 Y72.419 E69.82635
G1 X53.601 Y72.029 E69.84784
G1 X53.636 Y71.58 E69.87255
G1 X53.737 Y71.204 E69.89392
G1 X53.919 Y70.8 E69.91824
G1 X54.161 Y70.458 E69.94123
G1 X54.458 Y70.161 E69.96428
G1 X54.801 Y69.918 E69.98735
G1 X55.171 Y69.747 E70.00972
G1 X55.553 Y69.642 E70.03146
G1 X55.988 Y69.6 E70.05544
G1 X56.414 Y69.635 E70.0789
G1 X56.829 Y69.747 E70.10249
G1 X57.175 Y69.906 E70.12339
G1 X57.542 Y70.161 E70.14791
G1 X57.839 Y70.458 E70.17096
G1 X58.079 Y70.796 E70.19371
G1 X58.25 Y71.165 E70.21603
G1 X58.364 Y71.581 E70.2397
G1 X58.4 Y71.978 E70.26158
G1 X58.358 Y72.446 E70.28736
G1 X58.261 Y72.803 E70.30767
G1 X58.091 Y73.182 E70.33046
G1 X57.833 Y73.549 E70.35508
G1 X57.548 Y73.834 E70.3772
G1 X57.197 Y74.084 E70.40085
G1 F2700 E65.40085
G0 F6000 X57.354 Y74.422
G0 X57.178 Y74.952
G0 X58.09 Y168.104
G0 X58.538 Y171.967
;TYPE:WALL-INNER
G1 F2700 E70.40085
G1 F900 X58.241 Y172.38 E70.42877
G1 X57.882 Y172.739 E70.45663
G1 X57.465 Y173.035 E70.48469
G1 X57.011 Y173.248 E70.51221
G1 X56.51 Y173.381 E70.54066
G1 X56 Y173.425 E70.56875
G1 X55.488 Y173.384 E70.59694
G1 X54.999 Y173.252 E70.62474
G1 X54.532 Y173.038 E70.65293
G1 X54.118 Y172.739 E70.68096
G1 X53.747 Y172.365 E70.70987
G1 X53.464 Y171.969 E70.73658
G1 X53.251 Y171.507 E70.7645
G1 X53.119 Y171.01 E70.79272
G1 X53.071 Y170.503 E70.82066
G1 X53.119 Y169.988 E70.84905
G1 X53.247 Y169.5 E70.87674
G1 X53.464 Y169.038 E70.90475
G1 X53.761 Y168.618 E70.93298
G1 X54.12 Y168.259 E70.96084
G1 X54.174 Y168.217 E70.9646
G1 X54.539 Y167.963 E70.989
G1 X54.993 Y167.754 E71.01643
G1 X55.481 Y167.618 E71.04423
G1 X56.027 Y167.575 E71.07429
G1 X56.515 Y167.617 E71.10117
G1 X57.016 Y167.757 E71.12971
G1 X57.463 Y167.96 E71.15666
G1 X57.887 Y168.262 E71.18522
G1 X58.241 Y168.62 E71.21285
G1 X58.531 Y169.023 E71.2401
G1 X58.746 Y169.487 E71.26817
G1 X58.883 Y169.985 E71.29651
G1 X58.925 Y170.519 E71.32591
G1 X58.877 Y171.034 E71.35429
G1 X58.753 Y171.498 E71.38065
G1 X58.538 Y171.967 E71.40896
G1 F2700 E66.40896
G0 F6000 X57.009 Y173.082
G1 F2700 E71.40896
G0 F6000 X56.852 Y172.743
;TYPE:WALL-OUTER
G1 F900 X56.419 Y172.864 E71.43364
G1 X55.973 Y172.899 E71.45819
G1 X55.554 Y172.858 E71.48129
G1 X55.203 Y172.763 E71.50125
G1 X54.799 Y172.581 E71.52557
G1 X54.439 Y172.322 E71.5499
G1 X54.178 Y172.061 E71.57016
G1 X53.919 Y171.7 E71.59454
G1 X53.74 Y171.305 E71.61834
G1 X53.636 Y170.919 E71.64028
G1 X53.601 Y170.529 E71.66177
G1 X53.636 Y170.08 E71.68649
G1 X53.737 Y169.704 E71.70785
G1 X53.919 Y169.3 E71.73217
G1 X54.161 Y168.958 E71.75516
G1 X54.478 Y168.646 E71.77957
G1 X54.801 Y168.418 E71.80127
G1 X55.171 Y168.247 E71.82364
G1 X55.553 Y168.142 E71.84538
G1 X55.992 Y168.1 E71.86958
G1 X56.421 Y168.136 E71.89321
G1 X56.817 Y168.243 E71.91572
G1 X57.195 Y168.416 E71.93853
G1 X57.54 Y168.659 E71.96169
G1 X57.839 Y168.958 E71.9849
G1 X58.078 Y169.295 E72.00757
G1 X58.246 Y169.654 E72.02932
G1 X58.364 Y170.078 E72.05347
G1 X58.4 Y170.488 E72.07606
G1 X58.365 Y170.91 E72.0993
G1 X58.256 Y171.319 E72.12253
G1 X58.082 Y171.699 E72.14546
G1 X57.839 Y172.042 E72.16853
G1 X57.561 Y172.322 E72.19019
G1 X57.201 Y172.581 E72.21453
G1 X56.852 Y172.743 E72.23564
G1 F2700 E67.23564
G0 F6000 X57.009 Y173.082
G0 X54.999 Y173.516
G0 X54.999 Y184.405
G0 X40.826 Y184.174
;TYPE:WALL-INNER
G1 F2700 E72.23564
G1 F900 X179.175 Y184.175 E79.82813
G1 X179.175 Y53.95 E86.97477
G1 X179.175 Y38.825 E87.80482
G1 X119.904 Y38.82 E91.05757
G1 X119.648 Y38.747 E91.07218
G1 X119.353 Y38.512 E91.09288
G1 X119.244 Y38.333 E91.10438
G1 X119.175 Y38 E91.12304
G1 X119.175 Y35.825 E91.2424
G1 X90.825 Y35.825 E92.79823
G1 X90.825 Y38.139 E92.92522
G1 X90.701 Y38.436 E92.94288
G1 X90.514 Y38.646 E92.95831
G1 X90.312 Y38.765 E92.97118
G1 X90.055 Y38.824 E92.98565
G1 X59.942 Y38.824 E94.63823
G1 X59.72 Y38.777 E94.65068
G1 X59.498 Y38.656 E94.66456
G1 X59.248 Y38.341 E94.68663
G1 X59.175 Y38 E94.70576
G1 X59.175 Y35.825 E94.82513
G1 X40.826 Y35.826 E95.83211
G1 X40.826 Y184.174 E103.97333
G0 F6000 X40.301 Y184.699
;TYPE:WALL-OUTER
G1 F900 X179.7 Y184.7 E111.62344
G1 X179.7 Y53.95 E118.7989
G1 X179.7 Y38.3 E119.65776
G1 X119.931 Y38.293 E122.93783
G1 X119.798 Y38.223 E122.94608
G1 X119.7 Y38.086 E122.95532
G1 X119.7 Y35.3 E123.10822
G1 X90.3 Y35.3 E124.72167
G1 X90.3 Y38.092 E124.87489
G1 X90.163 Y38.253 E124.88649
G1 X90.025 Y38.3 E124.89449
G1 X59.951 Y38.297 E126.54493
G1 X59.801 Y38.226 E126.55404
G1 X59.7 Y38.089 E126.56338
G1 X59.7 Y35.3 E126.71644
G1 X40.301 Y35.301 E127.78104
G1 X40.301 Y184.699 E135.97988
G1 F2700 E130.97988
G0 F6000 X40.645 Y184.355
G0 X161.462 Y184.405
G0 X161.887 Y172.873
G0 X161.462 Y171.967
;TYPE:WALL-INNER
G1 F2700 E135.97988
G1 F900 X161.254 Y171.506 E136.00764
G1 X161.118 Y171.019 E136.03539
G1 X161.075 Y170.475 E136.06533
G1 X161.117 Y169.985 E136.09232
G1 X161.247 Y169.511 E136.1193
G1 X161.472 Y169.024 E136.14874
G1 X161.755 Y168.62 E136.17581
G1 X162.121 Y168.255 E136.20417
G1 X162.532 Y167.967 E136.23172
G1 X162.975 Y167.76 E136.25855
G1 X163.484 Y167.617 E136.28757
G1 X164.022 Y167.575 E136.31718
G1 X164.533 Y167.623 E136.34535
G1 X164.997 Y167.75 E136.37175
G1 X165.46 Y167.963 E136.39972
G1 X165.88 Y168.259 E136.42792
G1 X166.239 Y168.618 E136.45578
G1 X166.539 Y169.035 E136.48397
G1 X166.748 Y169.488 E136.51135
G1 X166.881 Y169.986 E136.53964
G1 X166.925 Y170.498 E136.56784
G1 X166.881 Y171.012 E136.59615
G1 X166.753 Y171.5 E136.62384
G1 X166.536 Y171.962 E136.65185
G1 X166.253 Y172.365 E136.67887
G1 X165.882 Y172.739 E136.70778
G1 X165.465 Y173.035 E136.73585
G1 X165.011 Y173.248 E136.76337
G1 X164.51 Y173.381 E136.79181
G1 X164 Y173.425 E136.81991
G1 X163.488 Y173.384 E136.84809
G1 X162.999 Y173.252 E136.87589
G1 X162.532 Y173.038 E136.90408
G1 X162.118 Y172.739 E136.93211
G1 X161.759 Y172.38 E136.95997
G1 X161.462 Y171.967 E136.98789
G0 F6000 X161.918 Y171.699
;TYPE:WALL-OUTER
G1 F900 X161.747 Y171.327 E137.01036
G1 X161.642 Y170.947 E137.03199
G1 X161.6 Y170.51 E137.05608
G1 X161.636 Y170.079 E137.07982
G1 X161.743 Y169.684 E137.10228
G1 X161.914 Y169.309 E137.1249
G1 X162.168 Y168.95 E137.14903
G1 X162.464 Y168.656 E137.17193
G1 X162.804 Y168.416 E137.19477
G1 X163.156 Y168.253 E137.21605
G1 X163.578 Y168.136 E137.24009
G1 X163.99 Y168.1 E137.26278
G1 X164.41 Y168.135 E137.28591
G1 X164.82 Y168.244 E137.30919
G1 X165.199 Y168.418 E137.33208
G1 X165.542 Y168.661 E137.35515
G1 X165.839 Y168.958 E137.3782
G1 X166.081 Y169.3 E137.40119
G1 X166.259 Y169.692 E137.42482
G1 X166.364 Y170.079 E137.44682
G1 X166.4 Y170.498 E137.4699
G1 X166.364 Y170.92 E137.49315
G1 X166.263 Y171.296 E137.51451
G1 X166.081 Y171.7 E137.53883
G1 X165.822 Y172.061 E137.56321
G1 X165.561 Y172.322 E137.58347
G1 X165.201 Y172.581 E137.60781
G1 X164.852 Y172.743 E137.62892
G1 X164.419 Y172.864 E137.6536
G1 X163.973 Y172.899 E137.67815
G1 X163.554 Y172.858 E137.70125
G1 X163.203 Y172.763 E137.72121
G1 X162.799 Y172.581 E137.74552
G1 X162.439 Y172.322 E137.76986
G1 X162.161 Y172.042 E137.79152
G1 X161.918 Y171.699 E137.81459
G1 F2700 E132.81459
G0 F6000 X161.579 Y171.856
G0 X161.325 Y170.973
G0 X161.283 Y170.5
G0 X161.316 Y170.119
G0 X161.91 Y168.104
G0 X162.832 Y74.956
G0 X162.531 Y74.533
;TYPE:WALL-INNER
G1 F2700 E137.81459
G1 F900 X162.136 Y74.254 E137.84112
G1 X161.757 Y73.882 E137.87027
G1 X161.457 Y73.457 E137.89882
G1 X161.26 Y73.024 E137.92492
G1 X161.117 Y72.501 E137.95468
G1 X161.072 Y71.998 E137.98239
G1 X161.123 Y71.466 E138.01172
G1 X161.248 Y71 E138.0382
G1 X161.461 Y70.536 E138.06622
G1 X161.759 Y70.12 E138.0943
G1 X162.117 Y69.758 E138.12224
G1 X162.532 Y69.463 E138.15019
G1 X163.012 Y69.247 E138.17907
G1 X163.491 Y69.116 E138.20633
