;FLAVOR:Marlin
;TIME:8411
;Filament used: 11.2966m
;Layer height: 0.24
;MINX:62.756
;MINY:73.182
;MINZ:0.288
;MAXX:157.609
;MAXY:144.623
;MAXZ:31.278
;Generated with Cura_SteamEngine 5.2.1
M140 S60
M105
M190 S60
M104 S210
M105
M109 S210
M82 ;absolute extrusion mode
; Ender 3 Custom Start G-code
G92 E0 ; Reset Extruder
G28 ; Home all axes
G1 Z2.0 F3000 ; Move Z Axis up little to prevent scratching of Heat Bed
G1 X0.1 Y20 Z0.3 F5000.0 ; Move to start position
G1 X0.1 Y200.0 Z0.3 F1500.0 E15 ; Draw the first line
G1 X0.4 Y200.0 Z0.3 F5000.0 ; Move to side a little
G1 X0.4 Y20 Z0.3 F1500.0 E30 ; Draw the second line
G92 E0 ; Reset Extruder
G1 Z2.0 F3000 ; Move Z Axis up little to prevent scratching of Heat Bed
G1 X5 Y20 Z0.3 F5000.0 ; Move over to prevent blob squish
G92 E0
G92 E0
G1 F2700 E-5
;LAYER_COUNT:125
;LAYER:-6
M107
G0 F12000 X74.456 Y81.248 Z0.288
;TYPE:SUPPORT-INTERFACE
G1 F2700 E0
G1 F1125 X74.302 Y81.472 E0.03906
G1 X74.157 Y81.716 E0.07984
G1 X74.035 Y81.952 E0.11801
G1 X73.832 Y82.42 E0.19131
G1 X65.393 Y105.58 E3.73306
G1 X65.081 Y106.285 E3.84383
G1 X64.577 Y107.111 E3.98286
G1 X64.448 Y107.355 E4.02252
G1 X64.341 Y107.592 E4.05988
G1 X64.198 Y107.971 E4.11808
G1 X64.093 Y108.41 E4.18294
G1 X64.048 Y108.667 E4.22043
G1 X64.018 Y108.944 E4.26046
G1 X64.007 Y109.232 E4.30187
G1 X64.013 Y109.517 E4.34283
G1 X64.034 Y109.767 E4.37888
G1 X64.077 Y110.058 E4.42115
G1 X64.133 Y110.321 E4.45978
G1 X64.206 Y110.581 E4.49858
G1 X64.302 Y110.858 E4.54071
G1 X64.462 Y111.235 E4.59955
G1 X64.674 Y111.603 E4.66057
G1 X64.826 Y111.83 E4.69983
G1 X65.134 Y112.226 E4.77191
G1 X65.484 Y112.628 E4.8485
G1 X65.839 Y112.995 E4.92186
G1 X66.04 Y113.174 E4.96053
G1 X66.26 Y113.348 E5.00084
G1 X66.491 Y113.508 E5.04121
G1 X66.954 Y113.779 E5.11829
G1 X67.463 Y114.035 E5.20016
G1 X68.007 Y114.269 E5.28525
G1 X94.904 Y124.061 E9.39805
G1 X95.562 Y124.352 E9.50142
G1 X96.201 Y124.745 E9.60921
G1 X96.734 Y125.174 E9.70752
G1 X97.225 Y125.683 E9.80914
G1 X97.773 Y126.414 E9.94041
G1 X97.96 Y126.638 E9.98233
G1 X98.142 Y126.831 E10.02045
G1 X98.35 Y127.024 E10.06122
G1 X98.57 Y127.202 E10.10188
G1 X98.783 Y127.355 E10.13956
G1 X99.037 Y127.514 E10.18262
G1 X99.273 Y127.642 E10.2212
G1 X99.521 Y127.757 E10.26047
G1 X99.932 Y127.912 E10.32359
G1 X100.363 Y128.02 E10.38743
G1 X100.652 Y128.07 E10.42957
G1 X100.909 Y128.099 E10.46673
G1 X101.202 Y128.112 E10.50887
G1 X101.464 Y128.108 E10.54652
G1 X101.75 Y128.085 E10.58775
G1 X102.022 Y128.046 E10.62723
G1 X102.299 Y127.986 E10.66795
G1 X102.539 Y127.921 E10.70368
G1 X103.117 Y127.796 E10.78865
G1 X103.827 Y127.73 E10.89111
G1 X104.56 Y127.756 E10.99649
G1 X105.234 Y127.865 E11.09459
G1 X105.92 Y128.067 E11.19734
G1 X147.577 Y143.229 E17.56692
G1 X148.038 Y143.376 E17.63644
G1 X148.389 Y143.465 E17.68847
G1 X148.949 Y143.57 E17.77033
G1 X149.305 Y143.616 E17.82191
G1 X150.098 Y143.637 E17.93589
G1 X150.459 Y143.608 E17.98793
G1 X151.033 Y143.528 E18.0712
G1 X151.418 Y143.451 E18.12761
G1 X152.045 Y143.257 E18.22192
G1 X152.383 Y143.132 E18.2737
G1 X153.122 Y142.764 E18.39232
G1 X153.419 Y142.574 E18.44298
G1 X153.872 Y142.248 E18.52317
G1 X154.174 Y142.002 E18.57913
G1 X154.724 Y141.453 E18.69079
G1 X154.95 Y141.172 E18.74261
G1 X155.347 Y140.622 E18.84007
G1 X155.533 Y140.296 E18.894
G1 X155.791 Y139.777 E18.97727
G1 X155.913 Y139.494 E19.02155
G1 X156.139 Y138.771 E19.1304
G1 X156.225 Y138.423 E19.1819
G1 X156.318 Y137.753 E19.27909
G1 X156.346 Y137.397 E19.3304
G1 X156.333 Y136.825 E19.41261
G1 X156.326 Y136.591 E19.44625
G1 X156.281 Y136.239 E19.49724
G1 X156.179 Y135.69 E19.57747
G1 X156.1 Y135.364 E19.62566
G1 X155.981 Y134.978 E19.6837
G1 X136.854 Y82.433 E27.71821
G1 X136.684 Y82.009 E27.78384
G1 X136.491 Y81.651 E27.84228
G1 X136.334 Y81.401 E27.8847
G1 X136.173 Y81.178 E27.92422
G1 X135.998 Y80.963 E27.96405
G1 X135.809 Y80.759 E28.00401
G1 X135.602 Y80.564 E28.04487
G1 X135.401 Y80.395 E28.0826
G1 X135.165 Y80.222 E28.12465
G1 X134.932 Y80.073 E28.16438
G1 X134.701 Y79.944 E28.2024
G1 X134.434 Y79.817 E28.24488
G1 X134.177 Y79.715 E28.28461
G1 X133.93 Y79.636 E28.32187
G1 X133.649 Y79.563 E28.36359
G1 X133.383 Y79.51 E28.40256
G1 X133.1 Y79.475 E28.44353
G1 X132.658 Y79.45 E28.50714
G1 X132.434 Y79.462 E28.53937
G1 X131.704 Y79.465 E28.64426
G1 X131.359 Y79.448 E28.69389
G1 X121.927 Y79.445 E30.04912
G1 X120.948 Y79.351 E30.19043
G1 X120.248 Y79.172 E30.29425
G1 X119.577 Y78.905 E30.39801
G1 X118.969 Y78.566 E30.49803
G1 X118.391 Y78.142 E30.60103
G1 X117.885 Y77.664 E30.70104
G1 X117.422 Y77.094 E30.80656
G1 X117.208 Y76.766 E30.86283
G1 X117.211 Y76.75 E30.86517
G1 X116.982 Y76.408 E30.92431
G1 X116.816 Y76.177 E30.96518
G1 X116.641 Y75.963 E31.0049
G1 X116.452 Y75.759 E31.04486
G1 X116.245 Y75.564 E31.08572
G1 X116.044 Y75.395 E31.12345
G1 X115.808 Y75.222 E31.1655
G1 X115.575 Y75.073 E31.20524
G1 X115.344 Y74.944 E31.24325
G1 X115.077 Y74.817 E31.28573
G1 X114.82 Y74.715 E31.32546
G1 X114.573 Y74.636 E31.36272
G1 X114.292 Y74.563 E31.40444
G1 X114.026 Y74.51 E31.44341
G1 X113.744 Y74.475 E31.48424
G1 X113.251 Y74.447 E31.55519
G1 X96.136 Y74.447 E34.01434
G1 X95.492 Y74.506 E34.10726
G1 X95.049 Y74.581 E34.17182
G1 X94.651 Y74.703 E34.23163
G1 X94.403 Y74.801 E34.26994
G1 X94.135 Y74.924 E34.31231
G1 X93.909 Y75.047 E34.34928
G1 X93.659 Y75.202 E34.39155
G1 X93.436 Y75.362 E34.43098
G1 X93.224 Y75.535 E34.4703
G1 X93.018 Y75.726 E34.51066
G1 X92.825 Y75.931 E34.55112
G1 X92.654 Y76.134 E34.58925
G1 X92.483 Y76.367 E34.63078
G1 X92.214 Y76.786 E34.70232
G1 X92.198 Y76.79 E34.70469
G1 X91.803 Y77.383 E34.80707
G1 X91.312 Y77.911 E34.91067
G1 X90.778 Y78.358 E35.01073
G1 X90.196 Y78.732 E35.11013
G1 X89.534 Y79.047 E35.21547
G1 X88.863 Y79.269 E35.31702
G1 X88.177 Y79.401 E35.4174
G1 X87.478 Y79.447 E35.51805
G1 X78.054 Y79.447 E36.87212
G1 X77.637 Y79.463 E36.93208
G1 X77.222 Y79.524 E36.99235
G1 X76.942 Y79.584 E37.0335
G1 X76.68 Y79.657 E37.07258
G1 X76.429 Y79.744 E37.11075
G1 X76.165 Y79.857 E37.15201
G1 X75.91 Y79.984 E37.19294
G1 X75.67 Y80.121 E37.23265
G1 X75.443 Y80.272 E37.27182
G1 X75.226 Y80.438 E37.31108
G1 X75.01 Y80.626 E37.35222
G1 X74.813 Y80.821 E37.39205
G1 X74.632 Y81.022 E37.43091
G1 X74.456 Y81.248 E37.47207
G0 F12000 X74.891 Y81.68
G1 F1125 X129.063 Y135.852 E48.4798
G0 F12000 X123.728 Y133.91
G1 F1125 X73.873 Y84.055 E58.61031
G0 F12000 X72.967 Y86.543
G1 F1125 X118.391 Y131.968 E67.84055
G0 F12000 X113.055 Y130.025
G1 F1125 X72.06 Y89.031 E76.17061
G0 F12000 X71.154 Y91.518
G1 F1125 X107.719 Y128.083 E83.60061
G0 F12000 X103.406 Y127.165
G1 F1125 X70.248 Y94.007 E90.3383
G0 F12000 X69.341 Y96.494
G1 F1125 X100.208 Y127.361 E96.61046
G1 F2700 E91.61046
G0 F12000 X98.706 Y128.773
G0 X91.074 Y124.011
G0 X91.711 Y122.258
G1 F2700 E96.61046
G1 F1125 X68.435 Y98.982 E101.34013
G0 F12000 X67.528 Y101.469
G1 F1125 X86.375 Y120.316 E105.16983
G0 F12000 X81.037 Y118.373
G1 F1125 X66.622 Y103.957 E108.09905
G0 F12000 X65.681 Y106.411
G1 F1125 X75.701 Y116.43 E110.13501
G0 F12000 X70.364 Y114.488
G1 F1125 X64.646 Y108.769 E111.29701
G1 F2700 E106.29701
G0 F12000 X62.939 Y107.789
G0 X72.891 Y81.407
G0 X73.435 Y80.5
G0 X74.15 Y79.699
G0 X74.84 Y79.172
G0 X75.635 Y78.707
G0 X76.846 Y80.241
G1 F2700 E111.29701
G1 F1125 X134.4 Y137.794 E122.99186
G0 F12000 X139.737 Y139.737
G1 F1125 X80.047 Y80.047 E135.12084
G0 F12000 X83.441 Y80.047
G1 F1125 X145.072 Y141.678 E147.64423
G0 F12000 X149.816 Y143.028
G1 F1125 X86.835 Y80.047 E160.44194
G0 F12000 X89.775 Y79.593
G1 F1125 X152.556 Y142.374 E173.19901
G0 F12000 X154.433 Y140.857
G1 F1125 X91.819 Y78.242 E185.92225
G0 F12000 X93.29 Y76.319
G1 F1125 X155.564 Y138.593 E198.5763
G0 F12000 X155.34 Y134.976
G1 F1125 X95.48 Y75.115 E210.73993
G0 F12000 X98.805 Y75.046
G1 F1125 X153.398 Y129.639 E221.8332
G0 F12000 X151.455 Y124.303
G1 F1125 X102.199 Y75.046 E231.8421
G0 F12000 X105.593 Y75.046
G1 F1125 X149.513 Y118.966 E240.76662
G0 F12000 X147.571 Y113.629
G1 F1125 X108.987 Y75.046 E248.60677
G0 F12000 X112.381 Y75.046
G1 F1125 X145.628 Y108.293 E255.36255
G0 F12000 X143.686 Y102.956
G1 F1125 X120.615 Y79.886 E260.05046
G0 F12000 X124.171 Y80.048
G1 F1125 X141.743 Y97.62 E263.62109
G0 F12000 X139.801 Y92.283
G1 F1125 X127.565 Y80.048 E266.10733
G0 F12000 X130.959 Y80.048
G1 F1125 X137.858 Y86.947 E267.50921
G1 F2700 E262.50921
G0 F300 X137.858 Y86.947 Z0.648
G0 F12000 X139.611 Y86.309
G0 X157.318 Y135.023
G0 X157.577 Y136.402
G0 X157.575 Y137.893
G0 X157.358 Y139.114
G0 X156.938 Y140.311
G0 X156.325 Y141.427
G0 X155.558 Y142.406
G0 X154.638 Y143.254
G0 X153.595 Y143.942
G0 X152.666 Y144.357
G0 X151.909 Y144.623
G0 X151.388 Y142.936
;TIME_ELAPSED:111.630020
;LAYER:-5
;TYPE:SUPPORT
G1 F2700 E267.50921
G1 F1125 X151.88 Y142.785 E267.59394
G1 X152.175 Y142.675 E267.64577
G1 X152.783 Y142.374 E267.75747
G1 X153.041 Y142.229 E267.80619
G1 X153.651 Y141.79 E267.92993
G1 X153.92 Y141.548 E267.9895
G1 X154.349 Y141.12 E268.08927
G1 X154.552 Y140.869 E268.14241
G1 X154.876 Y140.417 E268.23397
G1 X155.038 Y140.167 E268.28302
G1 X155.342 Y139.551 E268.39611
G1 X155.465 Y139.269 E268.44677
G1 X155.719 Y138.437 E268.58999
G1 X151.149 Y143.007 E269.65403
G1 X150.396 Y143.112 E269.7792
G1 X150.087 Y143.136 E269.83023
G1 X149.204 Y143.113 E269.97565
G1 X155.82 Y136.496 E271.51619
G1 X155.669 Y135.685 E271.65201
G1 X155.467 Y135.012 E271.76769
G1 X147.727 Y142.752 E273.56982
G1 X146.379 Y142.261 E273.80601
G1 X154.971 Y133.669 E275.80651
G1 X154.48 Y132.321 E276.04271
G1 X145.031 Y141.77 E278.24275
G1 X143.684 Y141.279 E278.47879
G1 X153.99 Y130.973 E280.87836
G1 X153.499 Y129.626 E281.1144
G1 X142.336 Y140.789 E283.71352
G1 X140.987 Y140.299 E283.94981
G1 X153.008 Y128.278 E286.74869
G1 X152.518 Y126.929 E286.98499
G1 X139.64 Y139.808 E289.98352
G1 X138.292 Y139.317 E290.21972
G1 X152.027 Y125.582 E293.41768
G1 X151.537 Y124.234 E293.65382
G1 X136.944 Y138.826 E297.05143
G1 X135.596 Y138.336 E297.28757
G1 X151.046 Y122.886 E300.88484
G1 X150.555 Y121.538 E301.12103
G1 X134.248 Y137.846 E304.91795
G1 X132.9 Y137.355 E305.15415
G1 X150.065 Y120.191 E309.15061
G1 X149.575 Y118.842 E309.3869
G1 X131.552 Y136.864 E313.58313
G1 X130.205 Y136.374 E313.81912
G1 X149.084 Y117.494 E318.21488
G1 X148.593 Y116.147 E318.45092
G1 X128.856 Y135.884 E323.04634
G1 X127.509 Y135.393 E323.28239
G1 X148.102 Y114.799 E328.07723
G1 X147.612 Y113.451 E328.31337
G1 X126.161 Y134.902 E333.30786
G1 X124.813 Y134.411 E333.54406
G1 X147.121 Y112.104 E338.73798
G1 X146.63 Y110.756 E338.97417
G1 X123.465 Y133.921 E344.36775
G1 X122.117 Y133.431 E344.60388
G1 X146.14 Y109.407 E350.19734
G1 X145.649 Y108.06 E350.43338
G1 X120.769 Y132.94 E356.22627
G1 X119.421 Y132.449 E356.46246
G1 X145.159 Y106.712 E362.455
G1 X144.668 Y105.364 E362.69119
G1 X118.074 Y131.958 E368.88315
G1 X116.725 Y131.468 E369.11944
G1 X144.177 Y104.016 E375.51117
G1 X143.686 Y102.669 E375.74721
G1 X115.377 Y130.978 E382.33847
G1 X114.03 Y130.487 E382.57451
G1 X143.196 Y101.32 E389.36543
G1 X142.706 Y99.972 E389.60157
G1 X112.682 Y129.996 E396.59214
G1 X111.333 Y129.506 E396.82844
G1 X142.215 Y98.625 E404.01866
G1 X141.724 Y97.277 E404.25486
G1 X109.986 Y129.015 E411.64451
G1 X108.638 Y128.525 E411.88065
G1 X141.233 Y95.929 E419.46995
G1 X140.743 Y94.581 E419.70609
G1 X107.29 Y128.034 E427.49505
G1 X105.942 Y127.544 E427.73118
G1 X140.253 Y93.233 E435.71991
G1 X139.762 Y91.885 E435.95611
G1 X104.401 Y127.246 E444.18931
G1 X103.811 Y127.226 E444.2865
G1 X103.046 Y127.3 E444.41304
G1 X102.356 Y127.453 E444.52939
G1 X139.271 Y90.537 E453.12454
G1 X138.781 Y89.19 E453.36052
G1 X100.445 Y127.525 E462.28628
G1 X100.077 Y127.434 E462.34869
G1 X99.613 Y127.257 E462.43045
G1 X99.137 Y126.994 E462.51999
G1 X138.29 Y87.842 E471.63598
G1 X137.799 Y86.494 E471.87217
G1 X98.177 Y126.116 E481.09747
G1 X97.399 Y125.056 E481.31395
G1 X137.309 Y85.146 E490.60631
G1 X136.818 Y83.798 E490.8425
G1 X96.362 Y124.254 E500.26199
G1 X95.822 Y123.919 E500.36661
G1 X95.153 Y123.624 E500.48699
G1 X136.324 Y82.454 E510.07283
G1 X136.234 Y82.23 E510.11258
G1 X136.054 Y81.897 E510.1749
G1 X135.917 Y81.676 E510.21771
G1 X135.644 Y81.295 E510.29487
G1 X93.809 Y123.13 E520.03543
G1 X92.461 Y122.639 E520.27163
G1 X134.636 Y80.465 E530.09124
G1 X134.147 Y80.233 E530.18035
G1 X133.764 Y80.108 E530.24668
G1 X133.264 Y79.999 E530.33093
G1 X91.114 Y122.149 E540.14483
G1 X89.766 Y121.658 E540.38103
G1 X131.478 Y79.946 E550.09295
G1 X129.639 Y79.946 E550.39572
G1 X88.418 Y121.167 E559.99332
G1 X87.071 Y120.676 E560.22936
G1 X127.801 Y79.946 E569.71264
G1 X125.962 Y79.946 E570.01541
G1 X85.723 Y120.186 E579.38449
G1 X84.375 Y119.695 E579.62068
G1 X124.124 Y79.946 E588.87555
G1 X122.285 Y79.946 E589.17832
G1 X83.027 Y119.204 E598.31887
G1 X81.68 Y118.714 E598.55486
G1 X120.611 Y79.782 E607.61939
G1 X120.09 Y79.649 E607.70792
G1 X119.244 Y79.31 E607.85797
G1 X80.332 Y118.223 E616.91807
G1 X78.983 Y117.733 E617.15437
G1 X118.131 Y78.585 E626.26931
G1 X117.447 Y77.937 E626.42443
G1 X117.373 Y77.981 E626.4386
G1 X117.19 Y77.688 E626.49548
G1 X77.636 Y117.242 E635.70495
G1 X76.288 Y116.751 E635.94114
G1 X116.483 Y76.556 E645.29986
G1 X116.181 Y76.19 E645.37798
G1 X115.817 Y75.847 E645.46032
G1 X115.551 Y75.65 E645.51482
G1 X74.94 Y116.261 E654.97039
G1 X73.592 Y115.77 E655.20659
G1 X114.284 Y75.079 E664.68091
G1 X113.95 Y75.004 E664.73726
G1 X113.691 Y74.973 E664.78021
G1 X113.236 Y74.946 E664.85525
G1 X112.577 Y74.946 E664.96375
G1 X72.245 Y115.279 E674.35448
G1 X70.897 Y114.788 E674.59067
G1 X110.739 Y74.946 E683.8672
G1 X108.9 Y74.946 E684.16997
G1 X69.549 Y114.298 E693.33229
G1 X68.201 Y113.807 E693.56848
G1 X107.062 Y74.946 E702.6166
G1 X105.223 Y74.946 E702.91937
G1 X66.964 Y113.206 E711.82744
G1 X66.644 Y113.018 E711.88854
G1 X66.185 Y112.635 E711.98696
G1 X65.943 Y112.388 E712.04389
G1 X103.385 Y74.946 E720.76162
G1 X101.546 Y74.946 E721.06439
G1 X65.121 Y111.372 E729.54544
G1 X64.903 Y110.996 E729.61699
G1 X64.768 Y110.679 E729.67372
G1 X64.636 Y110.303 E729.73933
G1 X64.588 Y110.066 E729.77914
G1 X99.708 Y74.946 E737.95623
G1 X97.869 Y74.946 E738.259
G1 X64.668 Y108.148 E745.9894
G1 X64.803 Y107.781 E746.05378
G1 X65.009 Y107.358 E746.13124
G1 X65.526 Y106.515 E746.29405
G1 X65.849 Y105.785 E746.42547
G1 X66.226 Y104.752 E746.60652
G1 X96.018 Y74.96 E753.54307
G1 X95.544 Y75.002 E753.62141
G1 X95.158 Y75.066 E753.68583
G1 X94.823 Y75.173 E753.74373
G1 X94.585 Y75.265 E753.78574
G1 X94.257 Y75.417 E753.84526
G1 X93.937 Y75.617 E753.90739
G1 X93.733 Y75.762 E753.94859
G1 X93.381 Y76.069 E754.02549
G1 X93.19 Y76.272 E754.07138
G1 X92.9 Y76.642 E754.14878
G1 X92.304 Y77.575 E754.33105
G1 X91.657 Y78.274 E754.48786
G1 X91.064 Y78.768 E754.61493
G1 X90.414 Y79.183 E754.7419
G1 X89.716 Y79.515 E754.86915
G1 X89.579 Y79.56 E754.89289
G1 X67.28 Y101.859 E760.08483
G1 X68.334 Y98.966 E760.59175
G1 X87.355 Y79.946 E765.02035
G1 X85.516 Y79.946 E765.32312
G1 X69.389 Y96.073 E769.07801
G1 X70.442 Y93.181 E769.58473
G1 X83.678 Y79.946 E772.66638
G1 X81.839 Y79.946 E772.96915
G1 X71.496 Y90.289 E775.37734
G1 X72.551 Y87.396 E775.88432
G1 X80.001 Y79.946 E777.61893
G1 X78.162 Y79.946 E777.92169
G1 X73.605 Y84.503 E778.98271
G1 X74.302 Y82.592 E779.31761
G1 X74.48 Y82.179 E779.39165
G1 X74.604 Y81.938 E779.43627
G1 X74.856 Y81.544 E779.51327
G1 X75.074 Y81.265 E779.57157
G1 X75.355 Y80.987 E779.63664
G1 X75.73 Y80.68 E779.71643
G1 X76.045 Y80.47 E779.77876
G1 X76.371 Y80.311 E779.83848
G1 X76.715 Y80.166 E779.89994
G1 X77.067 Y80.067 E779.96014
G1 X77.315 Y80.014 E780.00189
G1 X77.667 Y79.962 E780.06047
G1 X78.076 Y79.946 E780.12786
G1 F2700 E775.12786
G0 F300 X78.076 Y79.946 Z0.888
G0 F12000 X77.934 Y78.185
G0 X76.641 Y78.355
G0 X75.635 Y78.707
G0 X74.709 Y79.242
G0 X73.898 Y79.948
G0 X73.237 Y80.79
G0 X72.655 Y81.959
G0 X62.939 Y107.789
G0 X62.756 Y108.851
G0 X62.777 Y109.914
G0 X63.002 Y110.975
G0 X63.377 Y111.89
G0 X64.163 Y113.037
G0 X65.226 Y114.144
G0 X66.141 Y114.75
G0 X66.933 Y115.184
G0 X67.701 Y113.593
;TIME_ELAPSED:280.997307
;LAYER:-4
;TYPE:SUPPORT-INTERFACE
G1 F2700 E780.12786
G1 F1500 X64.756 Y110.648 E780.35643
