;FLAVOR:Marlin
;TIME:6208
;Filament used: 8.48303m
;Layer height: 0.24
;MINX:73.904
;MINY:49.347
;MINZ:0.288
;MAXX:143.42
;MAXY:170.148
;MAXZ:16.398
;Generated with Cura_SteamEngine 5.2.1
M140 S60
M105
M190 S60
M104 S210
M105
M109 S210
M82 ;absolute extrusion mode
; Ender 3 Custom Start G-code
G92 E0 ; Reset Extruder
G28 ; Home all axes
G1 Z2.0 F3000 ; Move Z Axis up little to prevent scratching of Heat Bed
G1 X0.1 Y20 Z0.3 F5000.0 ; Move to start position
G1 X0.1 Y200.0 Z0.3 F1500.0 E15 ; Draw the first line
G1 X0.4 Y200.0 Z0.3 F5000.0 ; Move to side a little
G1 X0.4 Y20 Z0.3 F1500.0 E30 ; Draw the second line
G92 E0 ; Reset Extruder
G1 Z2.0 F3000 ; Move Z Axis up little to prevent scratching of Heat Bed
G1 X5 Y20 Z0.3 F5000.0 ; Move over to prevent blob squish
G92 E0
G92 E0
G1 F2700 E-5
;LAYER_COUNT:63
;LAYER:-6
M107
G0 F12000 X78.44 Y53.499 Z0.288
;TYPE:SUPPORT-INTERFACE
G1 F2700 E0
G1 F1125 X78.351 Y53.771 E0.04112
G1 X78.284 Y54.035 E0.08026
G1 X78.231 Y54.307 E0.12007
G1 X78.196 Y54.59 E0.16105
G1 X78.172 Y54.96 E0.21432
G1 X78.169 Y55.434 E0.28243
G1 X78.179 Y55.781 E0.33231
G1 X78.183 Y56.421 E0.42427
G1 X78.169 Y56.712 E0.46613
G1 X78.168 Y76.251 E3.27356
G1 X78.07 Y77.275 E3.42137
G1 X77.899 Y77.938 E3.51975
G1 X77.643 Y78.592 E3.62066
G1 X77.3 Y79.216 E3.72297
G1 X76.858 Y79.822 E3.83074
G1 X76.586 Y80.121 E3.88882
G1 X76.57 Y80.121 E3.89112
G1 X76.335 Y80.383 E3.94169
G1 X76.116 Y80.642 E3.99042
G1 X75.943 Y80.878 E4.03247
G1 X75.794 Y81.111 E4.07221
G1 X75.665 Y81.342 E4.11022
G1 X75.538 Y81.609 E4.15271
G1 X75.436 Y81.866 E4.19243
G1 X75.357 Y82.113 E4.22969
G1 X75.284 Y82.394 E4.27141
G1 X75.231 Y82.66 E4.31038
G1 X75.196 Y82.942 E4.35121
G1 X75.169 Y83.435 E4.42215
G1 X75.169 Y86.623 E4.88022
G1 X75.228 Y87.274 E4.97414
G1 X75.299 Y87.697 E5.03577
G1 X75.423 Y88.099 E5.09621
G1 X75.524 Y88.358 E5.13616
G1 X75.643 Y88.616 E5.17698
G1 X75.774 Y88.858 E5.21652
G1 X75.919 Y89.089 E5.25571
G1 X76.086 Y89.322 E5.2969
G1 X76.251 Y89.525 E5.33448
G1 X76.601 Y89.902 E5.4084
G1 X76.601 Y89.921 E5.41113
G1 X77.075 Y90.451 E5.51329
G1 X77.46 Y91.05 E5.6156
G1 X77.775 Y91.715 E5.72133
G1 X77.987 Y92.358 E5.81861
G1 X78.122 Y93.059 E5.92119
G1 X78.169 Y93.776 E6.02443
G1 X78.168 Y126.25 E10.69042
G1 X78.073 Y127.258 E10.83589
G1 X77.899 Y127.937 E10.9366
G1 X77.643 Y128.592 E11.03765
G1 X77.3 Y129.216 E11.13996
G1 X76.858 Y129.822 E11.24773
G1 X76.586 Y130.121 E11.30581
G1 X76.57 Y130.121 E11.30811
G1 X76.335 Y130.383 E11.35868
G1 X76.116 Y130.642 E11.40741
G1 X75.943 Y130.878 E11.44946
G1 X75.794 Y131.111 E11.4892
G1 X75.665 Y131.342 E11.52721
G1 X75.538 Y131.609 E11.5697
G1 X75.436 Y131.866 E11.60942
G1 X75.357 Y132.113 E11.64669
G1 X75.284 Y132.394 E11.6884
G1 X75.231 Y132.66 E11.72737
G1 X75.196 Y132.942 E11.7682
G1 X75.169 Y133.435 E11.83914
G1 X75.169 Y136.618 E12.29649
G1 X75.227 Y137.262 E12.3894
G1 X75.302 Y137.705 E12.45395
G1 X75.424 Y138.103 E12.51377
G1 X75.522 Y138.351 E12.55208
G1 X75.646 Y138.62 E12.59464
G1 X75.766 Y138.843 E12.63103
G1 X75.923 Y139.095 E12.67369
G1 X76.081 Y139.316 E12.71272
G1 X76.255 Y139.529 E12.75224
G1 X76.597 Y139.898 E12.82453
G1 X76.597 Y139.918 E12.8274
G1 X77.073 Y140.447 E12.92965
G1 X77.46 Y141.049 E13.03248
G1 X77.767 Y141.695 E13.13525
G1 X77.987 Y142.357 E13.23548
G1 X78.124 Y143.07 E13.3398
G1 X78.169 Y143.776 E13.44145
G1 X78.17 Y163.395 E16.26038
G1 X78.18 Y163.701 E16.30437
G1 X78.184 Y164.312 E16.39217
G1 X78.168 Y164.629 E16.43777
G1 X78.168 Y164.974 E16.48734
G1 X78.227 Y165.618 E16.58026
G1 X78.303 Y166.068 E16.64584
G1 X78.424 Y166.461 E16.70492
G1 X78.521 Y166.704 E16.74251
G1 X78.646 Y166.974 E16.78526
G1 X78.765 Y167.196 E16.82146
G1 X78.922 Y167.446 E16.86387
G1 X79.083 Y167.67 E16.90351
G1 X79.256 Y167.882 E16.94283
G1 X79.447 Y168.088 E16.98319
G1 X79.652 Y168.281 E17.02364
G1 X79.855 Y168.453 E17.06187
G1 X80.091 Y168.625 E17.10383
G1 X80.324 Y168.774 E17.14357
G1 X80.555 Y168.903 E17.18159
G1 X80.822 Y169.03 E17.22407
G1 X81.079 Y169.132 E17.2638
G1 X81.326 Y169.211 E17.30106
G1 X81.607 Y169.284 E17.34278
G1 X81.873 Y169.337 E17.38175
G1 X82.158 Y169.372 E17.423
G1 X82.627 Y169.402 E17.49053
G1 X83.273 Y169.362 E17.58353
G1 X83.56 Y169.322 E17.62516
G1 X83.821 Y169.266 E17.66352
G1 X84.091 Y169.193 E17.7037
G1 X84.354 Y169.102 E17.74369
G1 X84.603 Y168.997 E17.78252
G1 X84.865 Y168.867 E17.82454
G1 X85.092 Y168.738 E17.86206
G1 X85.336 Y168.575 E17.90422
G1 X85.542 Y168.418 E17.94144
G1 X85.924 Y168.083 E18.01444
G1 X140.228 Y114.779 E28.94786
G1 X140.534 Y114.45 E29.01242
G1 X140.698 Y114.245 E29.05014
G1 X140.991 Y113.828 E29.12337
G1 X141.291 Y113.329 E29.20703
G1 X141.542 Y112.844 E29.28549
G1 X141.684 Y112.526 E29.33553
G1 X141.912 Y111.845 E29.43872
G1 X142.018 Y111.45 E29.49748
G1 X142.145 Y110.655 E29.61316
G1 X142.157 Y110.118 E29.69034
G1 X142.161 Y109.951 E29.71434
G1 X142.145 Y109.345 E29.80144
G1 X142.02 Y108.558 E29.91594
G1 X141.914 Y108.16 E29.97512
G1 X141.747 Y107.645 E30.05291
G1 X141.601 Y107.272 E30.11046
G1 X141.233 Y106.558 E30.22588
G1 X141.004 Y106.211 E30.28561
G1 X140.695 Y105.79 E30.36065
G1 X140.436 Y105.478 E30.41891
G1 X140.153 Y105.174 E30.47859
G1 X85.951 Y51.938 E41.39471
G1 X85.495 Y51.545 E41.4812
G1 X85.263 Y51.374 E41.52261
G1 X85.032 Y51.226 E41.56203
G1 X84.801 Y51.097 E41.60005
G1 X84.534 Y50.97 E41.64253
G1 X84.277 Y50.868 E41.68226
G1 X84.03 Y50.789 E41.71952
G1 X83.749 Y50.716 E41.76124
G1 X83.483 Y50.663 E41.80021
G1 X83.202 Y50.629 E41.84088
G1 X82.621 Y50.598 E41.92448
G1 X81.952 Y50.659 E42.021
G1 X81.509 Y50.734 E42.08556
G1 X81.111 Y50.856 E42.14537
G1 X80.863 Y50.954 E42.18368
G1 X80.595 Y51.077 E42.22605
G1 X80.369 Y51.2 E42.26302
G1 X80.119 Y51.355 E42.30529
G1 X79.896 Y51.515 E42.34472
G1 X79.684 Y51.688 E42.38404
G1 X79.478 Y51.879 E42.4244
G1 X79.285 Y52.084 E42.46486
G1 X79.114 Y52.287 E42.503
G1 X78.943 Y52.52 E42.54452
G1 X78.792 Y52.756 E42.58478
G1 X78.666 Y52.985 E42.62233
G1 X78.54 Y53.251 E42.66462
G1 X78.44 Y53.499 E42.70305
G0 F12000 X78.77 Y55.012
G1 F1125 X138.949 Y115.19 E54.93129
G0 F12000 X137.236 Y116.872
G1 F1125 X78.768 Y58.403 E66.81206
G0 F12000 X78.768 Y61.797
G1 F1125 X135.524 Y118.553 E78.34486
G0 F12000 X133.811 Y120.235
G1 F1125 X78.767 Y65.191 E89.52977
G0 F12000 X78.767 Y68.585
G1 F1125 X132.098 Y121.915 E100.36651
G0 F12000 X130.385 Y123.597
G1 F1125 X78.766 Y71.978 E110.85547
G0 F12000 X78.766 Y75.372
G1 F1125 X128.672 Y125.278 E120.99634
G0 F12000 X126.96 Y126.96
G1 F1125 X78.372 Y78.372 E130.8694
G0 F12000 X77.076 Y80.47
G1 F1125 X125.246 Y128.641 E140.65763
G0 F12000 X123.534 Y130.322
G1 F1125 X75.85 Y82.638 E150.34699
G0 F12000 X75.769 Y85.951
G1 F1125 X121.821 Y132.004 E159.70484
G0 F12000 X120.108 Y133.684
G1 F1125 X78.539 Y92.115 E168.15164
G0 F12000 X78.768 Y95.738
G1 F1125 X118.395 Y135.366 E176.20393
G0 F12000 X116.683 Y137.047
G1 F1125 X78.768 Y99.132 E183.90825
G0 F12000 X78.768 Y102.526
G1 F1125 X114.97 Y138.729 E191.26458
G0 F12000 X113.257 Y140.41
G1 F1125 X78.767 Y105.92 E198.27293
G0 F12000 X78.767 Y109.314
G1 F1125 X111.544 Y142.091 E204.9332
G0 F12000 X109.832 Y143.773
G1 F1125 X78.767 Y112.708 E211.2456
G0 F12000 X78.766 Y116.101
G1 F1125 X108.118 Y145.453 E217.20991
G0 F12000 X106.406 Y147.135
G1 F1125 X78.766 Y119.496 E222.82624
G0 F12000 X78.766 Y122.89
G1 F1125 X104.693 Y148.816 E228.0945
G0 F12000 X102.98 Y150.498
G1 F1125 X78.766 Y126.283 E233.01487
G0 F12000 X78.098 Y129.01
G1 F1125 X101.267 Y152.179 E237.7228
G0 F12000 X99.554 Y153.86
G1 F1125 X76.643 Y130.949 E242.37831
G0 F12000 X75.768 Y133.468
G1 F1125 X97.842 Y155.542 E246.86374
G0 F12000 X96.129 Y157.223
G1 F1125 X75.796 Y136.89 E250.99539
G1 F2700 E245.99539
G0 F12000 X74.044 Y137.863
G0 X74.358 Y138.848
G0 X74.502 Y139.117
G0 X76.867 Y143.228
G0 X78.733 Y143.221
G1 F2700 E250.99539
G1 F1125 X94.416 Y158.904 E254.18217
G0 F12000 X92.703 Y160.586
G1 F1125 X78.768 Y146.651 E257.01376
G0 F12000 X78.768 Y150.045
G1 F1125 X90.991 Y162.267 E259.49736
G0 F12000 X89.277 Y163.948
G1 F1125 X78.768 Y153.439 E261.63279
G0 F12000 X78.768 Y156.833
G1 F1125 X87.565 Y165.629 E263.42023
G0 F12000 X85.852 Y167.311
G1 F1125 X78.768 Y160.227 E264.8597
G0 F12000 X78.773 Y163.625
G1 F1125 X83.794 Y168.647 E265.88006
G1 F2700 E260.88006
G0 F12000 X85.131 Y170.148
G0 X86.07 Y169.605
G0 X86.792 Y169.004
G0 X141.493 Y115.276
G0 X141.708 Y115.007
G0 X140.55 Y113.397
G1 F2700 E265.88006
G1 F1125 X79.69 Y52.538 E278.24669
G0 F12000 X81.834 Y51.287
G1 F1125 X141.49 Y110.943 E290.36876
G0 F12000 X140.541 Y106.6
G1 F1125 X129.172 Y95.231 E292.67894
G1 F2700 E287.67894
G0 F300 X129.172 Y95.231 Z0.648
G0 F12000 X130.479 Y93.9
G0 X141.384 Y104.642
G0 X142.287 Y105.86
G0 X142.939 Y107.223
G0 X143.279 Y108.423
G0 X143.42 Y109.554
G0 X143.378 Y110.955
G0 X143.123 Y112.214
G0 X142.679 Y113.396
G0 X141.954 Y114.663
G0 X141.288 Y115.474
G0 X117.43 Y138.939
G0 X116.171 Y137.704
;TIME_ELAPSED:122.025568
;LAYER:-5
;TYPE:SUPPORT
G1 F2700 E292.67894
G1 F1125 X139.86 Y114.438 E298.14549
G1 X140.227 Y114.045 E298.23402
G1 X140.574 Y113.549 E298.33368
G1 X140.807 Y113.178 E298.40581
G1 X141.096 Y112.613 E298.51029
G1 X107.613 Y146.096 E306.30623
G1 X96.496 Y156.998 E308.86973
G1 X85.591 Y167.709 E311.38628
G1 X85.157 Y168.091 E311.48147
G1 X84.729 Y168.376 E311.56613
G1 X84.398 Y168.54 E311.62695
G1 X84.076 Y168.676 E311.6845
G1 X83.592 Y168.812 E311.76727
G1 X83.222 Y168.864 E311.82878
G1 X82.993 Y168.878 E311.86655
G1 X141.654 Y110.216 E325.52488
G1 X141.661 Y109.933 E325.57148
G1 X141.647 Y109.397 E325.65976
G1 X141.508 Y108.524 E325.8053
G1 X81.342 Y168.69 E339.81392
G1 X81.107 Y168.613 E339.85463
G1 X80.791 Y168.461 E339.91236
G1 X80.46 Y168.279 E339.97455
G1 X80.147 Y168.047 E340.0387
G1 X140.995 Y107.198 E354.20622
G1 X140.803 Y106.815 E354.27676
G1 X140.6 Y106.503 E354.33804
G1 X140.281 Y106.074 E354.42606
G1 X79.28 Y167.075 E368.62909
G1 X79.137 Y166.848 E368.67326
G1 X78.987 Y166.521 E368.73249
G1 X78.894 Y166.283 E368.77456
G1 X78.787 Y165.948 E368.83246
G1 X78.756 Y165.76 E368.86383
G1 X139.391 Y105.126 E382.98153
G1 X138.463 Y104.215 E383.19563
G1 X78.691 Y163.987 E397.11252
G1 X78.667 Y163.308 E397.22437
G1 X78.667 Y162.172 E397.4114
G1 X137.535 Y103.304 E411.11781
G1 X136.608 Y102.393 E411.33179
G1 X78.667 Y160.334 E424.82235
G1 X78.667 Y158.495 E425.12512
G1 X135.681 Y101.482 E438.39974
G1 X134.753 Y100.571 E438.61384
G1 X78.667 Y156.657 E451.6725
G1 X78.667 Y154.818 E451.97527
G1 X133.826 Y99.66 E464.81798
G1 X132.898 Y98.749 E465.03207
G1 X78.667 Y152.98 E477.65883
G1 X78.667 Y151.141 E477.9616
G1 X131.97 Y97.838 E490.37229
G1 X131.043 Y96.928 E490.58615
G1 X78.667 Y149.303 E502.78089
G1 X78.667 Y147.464 E503.08366
G1 X130.116 Y96.016 E515.06256
G1 X129.188 Y95.105 E515.27666
G1 X78.667 Y145.626 E527.0396
G1 X78.667 Y143.788 E527.34221
G1 X128.26 Y94.195 E538.88909
G1 X127.333 Y93.283 E539.10318
G1 X78.45 Y142.166 E550.48475
G1 X78.235 Y141.514 E550.59778
G1 X77.923 Y140.854 E550.71797
G1 X126.405 Y92.372 E562.00617
G1 X125.478 Y91.462 E562.22004
G1 X77.165 Y139.774 E573.46877
G1 X76.549 Y139.111 E573.61777
G1 X76.318 Y138.783 E573.68382
G1 X124.551 Y90.55 E584.91404
G1 X123.623 Y89.639 E585.12814
G1 X75.771 Y137.491 E596.26966
G1 X75.724 Y137.208 E596.31689
G1 X75.668 Y136.589 E596.41922
G1 X75.669 Y135.755 E596.55653
G1 X122.695 Y88.729 E607.50572
G1 X121.768 Y87.817 E607.71982
G1 X75.671 Y133.915 E618.45283
G1 X75.671 Y133.346 E618.54651
G1 X75.693 Y132.99 E618.60523
G1 X75.726 Y132.733 E618.64789
G1 X75.828 Y132.277 E618.72482
G1 X76.003 Y131.744 E618.81718
G1 X120.841 Y86.906 E629.25694
G1 X119.913 Y85.996 E629.47092
G1 X78.569 Y127.34 E639.09716
G1 X78.667 Y126.273 E639.27357
G1 X78.668 Y125.402 E639.41697
G1 X118.986 Y85.084 E648.80432
G1 X118.058 Y84.173 E649.01842
G1 X78.668 Y123.564 E658.18982
G1 X78.668 Y121.725 E658.49259
G1 X117.13 Y83.263 E667.44781
G1 X116.203 Y82.351 E667.66191
G1 X78.668 Y119.887 E676.4014
G1 X78.668 Y118.048 E676.70417
G1 X115.276 Y81.441 E685.2276
G1 X114.348 Y80.53 E685.4417
G1 X78.668 Y116.21 E693.74917
G1 X78.668 Y114.371 E694.05194
G1 X113.421 Y79.618 E702.14358
G1 X112.493 Y78.708 E702.35756
G1 X78.668 Y112.533 E710.23313
G1 X78.668 Y110.694 E710.5359
G1 X111.565 Y77.797 E718.1954
G1 X110.638 Y76.885 E718.4095
G1 X78.668 Y108.856 E725.85328
G1 X78.668 Y107.017 E726.15605
G1 X109.711 Y75.975 E733.38377
G1 X108.783 Y75.064 E733.59786
G1 X78.668 Y105.179 E740.60962
G1 X78.668 Y103.34 E740.91239
G1 X107.855 Y74.153 E747.70808
G1 X106.928 Y73.242 E747.92207
G1 X78.668 Y101.502 E754.50192
G1 X78.668 Y99.663 E754.80469
G1 X106 Y72.331 E761.16848
G1 X105.073 Y71.42 E761.38246
G1 X78.668 Y97.825 E767.53041
G1 X78.668 Y95.986 E767.83318
G1 X104.146 Y70.509 E773.76518
G1 X103.218 Y69.598 E773.97928
G1 X78.668 Y94.148 E779.69532
G1 X78.668 Y93.741 E779.76233
G1 X78.622 Y93.006 E779.88357
G1 X78.517 Y92.46 E779.97511
G1 X102.29 Y68.687 E785.51025
G1 X101.363 Y67.776 E785.72423
G1 X78.039 Y91.1 E791.15482
G1 X77.905 Y90.817 E791.20637
G1 X77.35 Y89.95 E791.37586
G1 X100.436 Y66.865 E796.75092
G1 X99.508 Y65.954 E796.96502
G1 X76.457 Y89.005 E802.33205
G1 X76.142 Y88.507 E802.42906
G1 X75.984 Y88.162 E802.49153
G1 X75.839 Y87.785 E802.55804
G1 X98.581 Y65.043 E807.85312
G1 X97.653 Y64.132 E808.06722
G1 X75.668 Y86.117 E813.18605
G1 X75.67 Y84.277 E813.48898
G1 X96.725 Y63.221 E818.39139
G1 X95.798 Y62.31 E818.60537
G1 X75.827 Y82.281 E823.25528
G1 X75.952 Y81.896 E823.32192
G1 X76.105 Y81.578 E823.38002
G1 X76.29 Y81.244 E823.44288
G1 X76.574 Y80.861 E823.52138
G1 X77.701 Y79.666 E823.79182
G1 X77.65 Y79.615 E823.80369
G1 X78.088 Y78.822 E823.95284
G1 X78.37 Y78.104 E824.07984
G1 X78.442 Y77.827 E824.12696
G1 X94.871 Y61.399 E827.95205
G1 X93.943 Y60.488 E828.16615
G1 X78.667 Y75.765 E831.72302
G1 X78.667 Y73.926 E832.02579
G1 X93.016 Y59.577 E835.36671
G1 X92.088 Y58.666 E835.58081
G1 X78.667 Y72.088 E838.70578
G1 X78.667 Y70.249 E839.00854
G1 X91.16 Y57.755 E841.91744
G1 X90.233 Y56.844 E842.13142
G1 X78.667 Y68.411 E844.82448
G1 X78.667 Y66.572 E845.12725
G1 X89.306 Y55.933 E847.60436
G1 X88.378 Y55.022 E847.81846
G1 X78.667 Y64.734 E850.07962
G1 X78.667 Y62.895 E850.38238
G1 X87.451 Y54.111 E852.42759
G1 X86.523 Y53.2 E852.64169
G1 X78.667 Y61.057 E854.47094
G1 X78.667 Y59.218 E854.77371
G1 X85.594 Y52.291 E856.38654
G1 X85.18 Y51.933 E856.47665
G1 X84.88 Y51.711 E856.53809
G1 X84.527 Y51.519 E856.60425
G1 X78.667 Y57.38 E857.96877
G1 X78.667 Y56.885 E858.05026
G1 X78.719 Y56.885 E858.05882
G1 X78.671 Y55.536 E858.28106
G1 X83.086 Y51.122 E859.3089
G1 X82.64 Y51.097 E859.38245
G1 X82.004 Y51.156 E859.4876
G1 X81.618 Y51.219 E859.552
G1 X81.283 Y51.326 E859.60989
G1 X80.892 Y51.477 E859.6789
G1 X79.065 Y53.304 E860.10429
G1 X79.288 Y52.89 E860.18171
G1 X79.572 Y52.506 E860.26034
G1 X79.841 Y52.223 E860.32462
G1 X80.272 Y51.847 E860.41879
G1 X80.716 Y51.57 E860.50495
G1 F2700 E855.50495
G0 F300 X80.716 Y51.57 Z0.888
G0 F12000 X80.029 Y49.946
G0 X81.046 Y49.552
G0 X82.413 Y49.347
G0 X83.681 Y49.413
G0 X84.72 Y49.683
G0 X85.68 Y50.138
G0 X86.472 Y50.732
G0 X141.057 Y104.291
G0 X140.068 Y105.817
;TIME_ELAPSED:309.257902
;LAYER:-4
;TYPE:SUPPORT-INTERFACE
G1 F2700 E860.50495
G1 F1500 X139.778 Y105.508 E860.5282
G1 X137.158 Y102.934 E860.72976
G1 X140.237 Y106.013 E860.96873
G1 X140.6 Y106.503 E861.00219
G1 X140.803 Y106.815 E861.02262
G1 X141.161 Y107.526 E861.06631
G1 X141.282 Y107.835 E861.08452
G1 X93.483 Y60.037 E864.79421
G1 X85.622 Y52.316 E865.3989
G1 X85.18 Y51.933 E865.43099
G1 X84.88 Y51.711 E865.45148
G1 X84.569 Y51.541 E865.47093
G1 X84.248 Y51.387 E865.49046
G1 X83.961 Y51.292 E865.50706
G1 X141.568 Y108.9 E869.97803
G1 X141.647 Y109.397 E870.00565
G1 X141.657 Y109.767 E870.02596
G1 X83.008 Y51.118 E874.57776
G1 X82.64 Y51.097 E874.59799
G1 X82.247 Y51.134 E874.61965
G1 X141.658 Y110.545 E879.2306
G1 X141.547 Y111.212 E879.26771
G1 X81.57 Y51.235 E883.92258
G1 X81.283 Y51.326 E883.9391
G1 X80.997 Y51.44 E883.956
G1 X141.388 Y111.831 E888.643
G1 X141.188 Y112.409 E888.67656
G1 X80.49 Y51.711 E893.38739
G1 X80.272 Y51.847 E893.40149
