;FLAVOR:Marlin
;TIME:6134
;Filament used: 6.13367m
;Layer height: 0.24
;MINX:65.108
;MINY:65.002
;MINZ:0.288
;MAXX:154.873
;MAXY:153.811
;MAXZ:12.318
;Generated with Cura_SteamEngine 5.2.1
M140 S60
M105
M190 S60
M104 S210
M105
M109 S210
M82 ;absolute extrusion mode
; Ender 3 Custom Start G-code
G92 E0 ; Reset Extruder
G28 ; Home all axes
G1 Z2.0 F3000 ; Move Z Axis up little to prevent scratching of Heat Bed
G1 X0.1 Y20 Z0.3 F5000.0 ; Move to start position
G1 X0.1 Y200.0 Z0.3 F1500.0 E15 ; Draw the first line
G1 X0.4 Y200.0 Z0.3 F5000.0 ; Move to side a little
G1 X0.4 Y20 Z0.3 F1500.0 E30 ; Draw the second line
G92 E0 ; Reset Extruder
G1 Z2.0 F3000 ; Move Z Axis up little to prevent scratching of Heat Bed
G1 X5 Y20 Z0.3 F5000.0 ; Move over to prevent blob squish
G92 E0
G92 E0
G1 F2700 E-5
;LAYER_COUNT:46
;LAYER:-6
M107
G0 F12000 X71.732 Y95.541 Z0.288
;TYPE:SUPPORT-INTERFACE
G1 F2700 E0
G1 F1125 X71.402 Y95.857 E0.06565
G1 X70.532 Y96.791 E0.24905
G1 X70.137 Y97.264 E0.33759
G1 X69.443 Y98.186 E0.50341
G1 X69.103 Y98.691 E0.59088
G1 X68.517 Y99.671 E0.75494
G1 X68.289 Y100.091 E0.82361
G1 X67.736 Y101.262 E1.00968
G1 X67.552 Y101.706 E1.07874
G1 X67.148 Y102.865 E1.25509
G1 X67.002 Y103.354 E1.32842
G1 X66.707 Y104.582 E1.50988
G1 X66.61 Y105.089 E1.58405
G1 X66.435 Y106.452 E1.7815
G1 X66.401 Y106.933 E1.85079
G1 X66.373 Y108.219 E2.03561
G1 X66.39 Y108.709 E2.10605
G1 X66.487 Y109.942 E2.28376
G1 X66.557 Y110.449 E2.3573
G1 X66.751 Y111.512 E2.51256
G1 X66.894 Y112.132 E2.60398
G1 X67.215 Y113.246 E2.77056
G1 X67.36 Y113.678 E2.83603
G1 X67.725 Y114.608 E2.97958
G1 X67.98 Y115.144 E3.06487
G1 X68.231 Y115.585 E3.13778
G1 X68.528 Y116.181 E3.23346
G1 X68.618 Y116.392 E3.26642
G1 X68.883 Y116.853 E3.34282
G1 X69.606 Y117.937 E3.53004
G1 X69.968 Y118.418 E3.61654
G1 X70.782 Y119.387 E3.79837
G1 X71.038 Y119.664 E3.85257
G1 X71.949 Y120.553 E4.03546
G1 X72.287 Y120.852 E4.1003
G1 X73.264 Y121.633 E4.28002
G1 X73.779 Y122.002 E4.37105
G1 X74.765 Y122.627 E4.53879
G1 X75.313 Y122.935 E4.62911
G1 X76.433 Y123.492 E4.80884
G1 X76.862 Y123.679 E4.87608
G1 X78.081 Y124.132 E5.06293
G1 X78.516 Y124.266 E5.12833
G1 X79.602 Y124.552 E5.28969
G1 X80.072 Y124.655 E5.35883
G1 X81.396 Y124.866 E5.55147
G1 X81.867 Y124.918 E5.61955
G1 X83.098 Y124.987 E5.79671
G1 X83.708 Y124.987 E5.88435
G1 X84.961 Y124.917 E6.06467
G1 X85.439 Y124.864 E6.13377
G1 X86.735 Y124.657 E6.32234
G1 X87.2 Y124.555 E6.39075
G1 X88.272 Y124.274 E6.54998
G1 X88.712 Y124.137 E6.61619
G1 X90.073 Y123.623 E6.82523
G1 X90.531 Y123.419 E6.89727
G1 X91.638 Y122.863 E7.07526
G1 X92.055 Y122.624 E7.14432
G1 X92.318 Y122.459 E7.18893
G1 X93.02 Y122.081 E7.30349
G1 X93.669 Y121.841 E7.40291
G1 X94.362 Y121.68 E7.50514
G1 X95.069 Y121.607 E7.60726
G1 X95.776 Y121.624 E7.70888
G1 X96.478 Y121.729 E7.81086
G1 X97.179 Y121.93 E7.91565
G1 X97.809 Y122.2 E8.01413
G1 X98.43 Y122.565 E8.11763
G1 X99.005 Y123.008 E8.22192
G1 X99.198 Y123.179 E8.25897
G1 X99.58 Y123.486 E8.32939
G1 X99.727 Y123.595 E8.35568
G1 X100.227 Y124.001 E8.44823
G1 X100.698 Y124.488 E8.54557
G1 X101.135 Y125.066 E8.64969
G1 X101.494 Y125.697 E8.754
G1 X101.756 Y126.337 E8.85336
G1 X101.941 Y127.019 E8.9549
G1 X102.041 Y127.75 E9.06091
G1 X102.045 Y128.459 E9.16278
G1 X101.965 Y129.136 E9.26073
G1 X101.789 Y129.841 E9.36514
G1 X101.449 Y130.904 E9.52549
G1 X101.297 Y131.499 E9.61373
G1 X101.044 Y132.736 E9.79515
G1 X100.973 Y133.22 E9.86544
G1 X100.858 Y134.336 E10.02664
G1 X100.829 Y134.818 E10.09602
G1 X100.826 Y136.091 E10.27893
G1 X100.849 Y136.579 E10.34912
G1 X100.973 Y137.804 E10.52603
G1 X101.044 Y138.287 E10.59618
G1 X101.295 Y139.512 E10.77585
G1 X101.457 Y140.143 E10.86945
G1 X101.858 Y141.382 E11.05657
G1 X102.02 Y141.8 E11.12098
G1 X102.481 Y142.857 E11.28667
G1 X102.688 Y143.279 E11.35421
G1 X103.372 Y144.487 E11.55367
G1 X103.632 Y144.893 E11.62294
G1 X104.301 Y145.834 E11.78884
G1 X104.693 Y146.331 E11.87979
G1 X105.426 Y147.163 E12.03911
G1 X105.874 Y147.626 E12.13168
G1 X106.705 Y148.396 E12.29446
G1 X107.18 Y148.791 E12.38322
G1 X108.087 Y149.471 E12.5461
G1 X108.587 Y149.808 E12.63274
G1 X109.578 Y150.403 E12.79882
G1 X109.996 Y150.63 E12.86717
G1 X111.164 Y151.18 E13.05267
G1 X111.615 Y151.367 E13.12282
G1 X112.934 Y151.824 E13.32339
G1 X113.41 Y151.956 E13.39436
G1 X114.648 Y152.244 E13.57699
G1 X115.119 Y152.326 E13.64569
G1 X116.351 Y152.483 E13.82414
G1 X116.868 Y152.518 E13.89859
G1 X118.125 Y152.546 E14.07925
G1 X118.617 Y152.529 E14.14998
G1 X119.874 Y152.429 E14.33116
G1 X120.326 Y152.368 E14.3967
G1 X121.578 Y152.136 E14.57965
G1 X122.052 Y152.023 E14.64967
G1 X123.192 Y151.692 E14.82023
G1 X123.574 Y151.563 E14.87816
G1 X124.506 Y151.197 E15.02203
G1 X125.037 Y150.947 E15.10636
G1 X125.496 Y150.687 E15.18216
G1 X125.51 Y150.691 E15.18425
G1 X125.977 Y150.438 E15.26056
G1 X126.393 Y150.252 E15.32604
G1 X126.794 Y150.015 E15.39297
G1 X127.839 Y149.314 E15.57377
G1 X128.206 Y149.041 E15.63949
G1 X129.192 Y148.225 E15.82339
G1 X129.669 Y147.781 E15.91702
G1 X130.526 Y146.901 E16.09352
G1 X130.844 Y146.533 E16.1634
G1 X131.573 Y145.611 E16.33228
G1 X131.93 Y145.109 E16.42079
G1 X132.59 Y144.064 E16.59838
G1 X132.833 Y143.629 E16.66997
G1 X133.344 Y142.603 E16.83466
G1 X133.59 Y142.046 E16.92215
G1 X133.989 Y140.981 E17.08556
G1 X134.127 Y140.557 E17.14963
G1 X134.457 Y139.325 E17.33289
G1 X134.56 Y138.855 E17.40202
G1 X134.784 Y137.424 E17.61014
G1 X134.832 Y136.927 E17.68188
G1 X134.89 Y135.822 E17.84087
G1 X134.89 Y135.202 E17.92996
G1 X134.832 Y134.105 E18.0878
G1 X134.787 Y133.623 E18.15735
G1 X134.584 Y132.298 E18.34996
G1 X134.442 Y131.631 E18.44794
G1 X134.316 Y130.914 E18.55254
G1 X134.285 Y130.179 E18.65824
G1 X134.346 Y129.473 E18.76006
G1 X134.489 Y128.808 E18.85779
G1 X134.722 Y128.142 E18.95918
G1 X135.044 Y127.492 E19.0634
G1 X135.418 Y126.931 E19.16028
G1 X135.892 Y126.382 E19.26449
G1 X136.433 Y125.898 E19.36879
G1 X137.001 Y125.51 E19.46763
G1 X137.66 Y125.171 E19.57411
G1 X138.296 Y124.94 E19.67134
G1 X139.007 Y124.779 E19.77608
G1 X139.929 Y124.631 E19.91025
G1 X140.396 Y124.53 E19.97891
G1 X141.59 Y124.212 E20.15644
G1 X142.021 Y124.073 E20.22151
G1 X143.163 Y123.643 E20.39685
G1 X143.623 Y123.445 E20.4688
G1 X144.807 Y122.852 E20.65907
G1 X145.221 Y122.614 E20.72768
G1 X146.35 Y121.887 E20.92063
G1 X146.609 Y121.702 E20.96636
G1 X147.59 Y120.934 E21.14537
G1 X148.036 Y120.545 E21.2304
G1 X148.909 Y119.695 E21.40547
G1 X149.227 Y119.356 E21.47226
G1 X150.028 Y118.397 E21.65179
G1 X150.324 Y118.009 E21.72191
G1 X150.628 Y117.563 E21.79947
G1 X150.913 Y117.077 E21.88042
G1 X151.047 Y116.808 E21.9236
G1 X151.15 Y116.558 E21.96245
G1 X151.254 Y116.252 E22.00889
G1 X151.422 Y115.821 E22.07535
G1 X151.745 Y115.197 E22.17631
G1 X151.969 Y114.86 E22.23445
G1 X151.982 Y114.856 E22.23641
G1 X152.209 Y114.506 E22.29635
G1 X152.353 Y114.264 E22.33681
G1 X152.488 Y114.003 E22.37903
G1 X152.594 Y113.76 E22.41712
G1 X152.762 Y113.28 E22.49019
G1 X153.127 Y112.024 E22.67813
G1 X153.243 Y111.516 E22.753
G1 X153.463 Y110.29 E22.93197
G1 X153.523 Y109.801 E23.00276
G1 X153.619 Y108.504 E23.18962
G1 X153.623 Y108.247 E23.22655
G1 X153.626 Y108.045 E23.25558
G1 X153.59 Y106.782 E23.43713
G1 X153.552 Y106.313 E23.50474
G1 X153.401 Y105.152 E23.67296
G1 X153.32 Y104.701 E23.7388
G1 X153.036 Y103.487 E23.91794
G1 X152.903 Y103.006 E23.98964
G1 X152.485 Y101.79 E24.1744
G1 X152.289 Y101.304 E24.24969
G1 X151.71 Y100.07 E24.44555
G1 X151.483 Y99.651 E24.51402
G1 X150.895 Y98.671 E24.67823
G1 X150.556 Y98.167 E24.7655
G1 X149.789 Y97.148 E24.94876
G1 X149.569 Y96.884 E24.99813
G1 X148.626 Y95.863 E25.19783
G1 X148.268 Y95.517 E25.26937
G1 X147.378 Y94.737 E25.43941
G1 X147.016 Y94.448 E25.50596
G1 X145.904 Y93.657 E25.70204
G1 X145.482 Y93.393 E25.77356
G1 X144.358 Y92.76 E25.95891
G1 X143.939 Y92.554 E26.026
G1 X142.767 Y92.045 E26.20959
G1 X142.297 Y91.872 E26.28155
G1 X141.21 Y91.524 E26.44555
G1 X140.605 Y91.369 E26.53528
G1 X139.366 Y91.116 E26.71698
G1 X138.883 Y91.045 E26.78713
G1 X137.767 Y90.93 E26.94833
G1 X137.284 Y90.901 E27.01785
G1 X136.015 Y90.899 E27.20018
G1 X135.526 Y90.921 E27.27052
G1 X134.299 Y91.045 E27.44772
G1 X133.811 Y91.116 E27.51857
G1 X133.601 Y91.155 E27.54926
G1 X132.873 Y91.252 E27.65479
G1 X132.164 Y91.253 E27.75666
G1 X131.49 Y91.17 E27.85423
G1 X130.805 Y90.997 E27.95575
G1 X130.119 Y90.728 E28.06162
G1 X129.516 Y90.395 E28.1606
G1 X128.93 Y89.97 E28.26461
G1 X128.391 Y89.458 E28.37142
G1 X127.961 Y88.93 E28.46926
G1 X127.594 Y88.346 E28.56837
G1 X127.301 Y87.72 E28.66768
G1 X127.078 Y87.031 E28.77173
G1 X126.954 Y86.364 E28.86921
G1 X126.91 Y85.661 E28.97042
G1 X127.006 Y84.291 E29.16775
G1 X127.034 Y83.034 E29.34841
G1 X127.017 Y82.544 E29.41885
G1 X126.917 Y81.285 E29.60032
G1 X126.856 Y80.835 E29.66557
G1 X126.627 Y79.597 E29.84647
G1 X126.501 Y79.074 E29.92376
G1 X126.19 Y78.006 E30.08359
G1 X126.054 Y77.6 E30.14511
G1 X125.65 Y76.568 E30.30435
G1 X125.431 Y76.113 E30.37691
G1 X125.176 Y75.662 E30.45135
G1 X125.18 Y75.649 E30.4533
G1 X124.925 Y75.178 E30.53026
G1 X124.809 Y74.92 E30.57091
G1 X124.584 Y74.493 E30.64026
G1 X123.738 Y73.232 E30.85844
G1 X123.421 Y72.815 E30.9337
G1 X122.713 Y71.969 E31.09221
G1 X122.387 Y71.613 E31.16157
G1 X121.365 Y70.614 E31.36691
G1 X121.103 Y70.384 E31.41701
G1 X120.137 Y69.618 E31.59415
G1 X119.652 Y69.27 E31.67992
G1 X118.618 Y68.615 E31.85579
G1 X118.123 Y68.336 E31.93743
G1 X116.958 Y67.754 E32.12455
G1 X116.525 Y67.566 E32.19237
G1 X115.353 Y67.13 E32.37205
G1 X114.912 Y66.994 E32.43835
G1 X113.679 Y66.672 E32.62146
G1 X113.327 Y66.598 E32.67314
G1 X111.995 Y66.388 E32.86689
G1 X111.54 Y66.339 E32.93265
G1 X110.307 Y66.271 E33.11008
G1 X109.694 Y66.271 E33.19816
G1 X108.6 Y66.328 E33.35556
G1 X108.005 Y66.388 E33.44148
G1 X106.674 Y66.599 E33.63512
G1 X106.206 Y66.699 E33.70388
G1 X105.072 Y66.999 E33.87242
G1 X104.5 Y67.181 E33.95867
G1 X103.494 Y67.56 E34.11313
G1 X102.913 Y67.815 E34.2043
G1 X101.897 Y68.324 E34.36758
G1 X101.349 Y68.632 E34.4579
G1 X100.265 Y69.326 E34.64284
G1 X99.878 Y69.604 E34.7113
G1 X99 Y70.301 E34.87238
G1 X98.545 Y70.701 E34.95942
G1 X97.709 Y71.514 E35.12698
G1 X97.301 Y71.955 E35.2133
G1 X96.527 Y72.884 E35.38704
G1 X96.243 Y73.257 E35.4544
G1 X95.963 Y73.668 E35.52586
G1 X95.678 Y74.156 E35.60706
G1 X95.547 Y74.421 E35.64953
G1 X95.441 Y74.676 E35.68921
G1 X95.337 Y74.982 E35.73565
G1 X95.189 Y75.368 E35.79505
G1 X94.862 Y76.012 E35.89882
G1 X94.623 Y76.378 E35.96163
G1 X94.606 Y76.381 E35.96411
G1 X94.384 Y76.725 E36.02294
G1 X94.239 Y76.968 E36.0636
G1 X94.105 Y77.229 E36.10575
G1 X93.999 Y77.471 E36.14371
G1 X93.826 Y77.969 E36.21946
G1 X93.503 Y79.071 E36.38446
G1 X93.376 Y79.577 E36.45942
G1 X93.144 Y80.836 E36.64337
G1 X93.083 Y81.286 E36.70861
G1 X92.983 Y82.545 E36.89008
G1 X92.966 Y83.033 E36.96024
G1 X92.994 Y84.291 E37.14104
G1 X93.029 Y84.814 E37.21636
G1 X93.053 Y85.023 E37.24658
G1 X93.092 Y85.702 E37.34431
G1 X93.041 Y86.444 E37.45117
G1 X92.902 Y87.137 E37.55273
G1 X92.674 Y87.808 E37.65455
G1 X92.375 Y88.426 E37.7532
G1 X91.969 Y89.051 E37.86028
G1 X91.508 Y89.59 E37.96219
G1 X90.985 Y90.064 E38.06361
G1 X90.422 Y90.458 E38.16234
G1 X89.764 Y90.806 E38.26929
G1 X89.119 Y91.046 E38.36818
G1 X88.469 Y91.199 E38.46413
G1 X87.742 Y91.28 E38.56923
G1 X87.004 Y91.264 E38.67529
G1 X85.844 Y91.085 E38.84394
G1 X84.584 Y90.952 E39.02599
G1 X84.101 Y90.923 E39.09551
G1 X82.83 Y90.921 E39.27813
G1 X82.34 Y90.943 E39.34861
G1 X81.115 Y91.067 E39.52552
G1 X80.632 Y91.138 E39.59567
G1 X79.396 Y91.392 E39.77697
G1 X78.79 Y91.549 E39.86692
G1 X77.536 Y91.952 E40.05617
G1 X77.121 Y92.113 E40.12013
G1 X75.956 Y92.625 E40.30298
G1 X75.523 Y92.845 E40.37276
G1 X74.417 Y93.473 E40.55551
G1 X74.015 Y93.733 E40.62429
G1 X73.083 Y94.394 E40.78847
G1 X72.693 Y94.698 E40.85952
G1 X71.732 Y95.541 E41.0432
G0 F12000 X72.183 Y95.942
G1 F1125 X97.771 Y121.53 E46.24267
G0 F12000 X93.996 Y121.149
G1 F1125 X70.553 Y97.706 E51.00627
G0 F12000 X69.181 Y99.728
G1 F1125 X91.629 Y122.176 E55.5677
G0 F12000 X89.323 Y123.264
G1 F1125 X68.077 Y102.018 E59.88487
G0 F12000 X67.308 Y104.644
G1 F1125 X86.711 Y124.046 E63.82745
G0 F12000 X83.657 Y124.386
G1 F1125 X66.983 Y107.712 E67.2156
G0 F12000 X67.36 Y111.483
G1 F1125 X79.871 Y123.995 E69.75793
G1 F2700 E64.75793
G0 F12000 X79.302 Y125.782
G0 X77.496 Y125.268
G0 X75.767 Y124.576
G0 X74.426 Y123.875
G0 X73.081 Y123.056
G0 X73.66 Y121.178
G1 F2700 E69.75793
G1 F1125 X70.169 Y117.686 E70.46741
G1 F2700 E65.46741
G0 F12000 X68.571 Y118.663
G0 X67.456 Y116.894
G0 X66.561 Y115.104
G0 X66.007 Y113.619
G0 X65.51 Y111.763
G0 X65.217 Y109.957
G0 X65.108 Y108.058
G0 X65.19 Y106.191
G0 X65.471 Y104.312
G0 X65.946 Y102.471
G0 X66.582 Y100.745
G0 X67.419 Y99.04
G0 X68.416 Y97.448
G0 X69.588 Y95.949
G0 X70.632 Y94.861
G0 X72.33 Y93.378
G0 X74.066 Y94.431
G1 F2700 E70.46741
G1 F1125 X128.036 Y148.401 E81.43409
G0 F12000 X129.807 Y146.778
G1 F1125 X76.202 Y93.173 E92.3266
G0 F12000 X78.647 Y92.224
G1 F1125 X131.334 Y144.91 E103.03247
G0 F12000 X132.589 Y142.771
G1 F1125 X81.453 Y91.636 E113.42318
G0 F12000 X84.787 Y91.575
G1 F1125 X133.561 Y140.35 E123.33414
G0 F12000 X134.156 Y137.55
G1 F1125 X88.415 Y91.81 E132.62859
G0 F12000 X90.873 Y90.873
G1 F1125 X134.238 Y134.238 E141.44034
G0 F12000 X133.689 Y130.295
G1 F1125 X92.59 Y89.196 E149.79164
G0 F12000 X93.58 Y86.792
G1 F1125 X134.343 Y127.555 E158.07466
G0 F12000 X135.821 Y125.638
G1 F1125 X93.573 Y83.391 E166.65933
G0 F12000 X93.855 Y80.279
G1 F1125 X137.988 Y124.411 E175.62704
G0 F12000 X140.777 Y123.806
G1 F1125 X94.583 Y77.612 E185.01364
G0 F12000 X95.801 Y75.436
G1 F1125 X143.296 Y122.931 E194.6646
G0 F12000 X145.486 Y121.727
G1 F1125 X97.005 Y73.246 E204.51592
G0 F12000 X98.619 Y71.466
G1 F1125 X147.429 Y120.276 E214.43409
G0 F12000 X149.109 Y118.562
G1 F1125 X100.466 Y69.919 E224.31832
G0 F12000 X102.589 Y68.648
G1 F1125 X150.499 Y116.558 E234.05361
G0 F12000 X151.63 Y114.295
G1 F1125 X104.99 Y67.655 E243.53084
G0 F12000 X107.763 Y67.033
G1 F1125 X126.309 Y85.58 E247.29948
G0 F12000 X126.393 Y82.269
G1 F1125 X111.035 Y66.912 E250.42012
G0 F12000 X115.249 Y67.732
G1 F1125 X125.573 Y78.056 E252.51795
G1 F2700 E247.51795
G0 F12000 X127.398 Y77.634
G0 X132.247 Y89.99
G0 X132.581 Y91.852
G1 F2700 E252.51795
G1 F1125 X152.556 Y111.826 E256.57676
G0 F12000 X152.989 Y108.866
G1 F1125 X135.64 Y91.516 E260.10217
G0 F12000 X139.218 Y91.701
G1 F1125 X152.814 Y105.296 E262.86477
G0 F12000 X151.082 Y100.17
G1 F1125 X144.362 Y93.451 E264.23017
G1 F2700 E259.23017
G0 F12000 X145.078 Y91.71
G0 X146.696 Y92.666
G0 X148.194 Y93.771
G0 X149.589 Y95.039
G0 X150.849 Y96.449
G0 X151.964 Y97.994
G0 X152.907 Y99.637
G0 X153.672 Y101.355
G0 X154.261 Y103.164
G0 X154.653 Y104.968
G0 X154.861 Y106.859
G0 X154.873 Y108.752
G0 X154.692 Y110.617
G0 X154.32 Y112.465
G0 X153.765 Y114.24
G0 X151.695 Y118.244
G0 X132.58 Y146.376
G0 X131.335 Y147.887
G0 X130.02 Y149.181
G0 X128.565 Y150.351
G0 X126.851 Y151.433
G0 X124.999 Y152.362
G0 X123.566 Y152.899
G0 X121.732 Y153.398
G0 X119.838 Y153.704
G0 X117.964 Y153.811
G0 X116.093 Y153.728
G0 X114.201 Y153.443
G0 X112.404 Y152.982
G0 X110.647 Y152.334
G0 X108.947 Y151.5
G0 X107.348 Y150.497
G0 X105.866 Y149.342
G0 X104.492 Y148.016
G0 X103.283 Y146.587
G0 X102.227 Y145.037
G0 X101.332 Y143.388
G0 X100.603 Y141.622
G0 X100.063 Y139.804
G0 X99.717 Y137.955
G0 X99.562 Y136.112
G0 X99.598 Y134.227
G0 X100.558 Y126.749
G0 X102.283 Y126.042
G1 F2700 E264.23017
G1 F1125 X126.007 Y149.766 E269.05088
G0 F12000 X123.71 Y150.863
G1 F1125 X102.462 Y129.615 E273.36846
G0 F12000 X101.746 Y132.293
G1 F1125 X121.071 Y151.618 E277.29529
G0 F12000 X118.001 Y151.942
G1 F1125 X101.427 Y135.368 E280.66312
G0 F12000 X101.838 Y139.173
G1 F1125 X114.183 Y151.518 E283.17162
G1 F2700 E278.17162
G0 F12000 X113.102 Y153.184
G0 X110.647 Y152.334
G0 X109.27 Y151.659
G0 X107.348 Y150.497
G0 X107.704 Y148.433
G1 F2700 E283.17162
G1 F1125 X104.916 Y145.646 E283.73804
G1 F2700 E278.73804
G0 F300 X104.916 Y145.646 Z0.648
G0 F12000 X103.728 Y147.147
G0 X104.996 Y148.535
G0 X106.403 Y149.789
