;FLAVOR:Marlin
;TIME:17405
;Filament used: 25.0877m
;Layer height: 0.24
;MINX:32.175
;MINY:27.175
;MINZ:0.24
;MAXX:187.825
;MAXY:192.825
;MAXZ:24.96
;Generated with Cura_SteamEngine 5.2.1
M140 S60
M105
M190 S60
M104 S210
M105
M109 S210
M82 ;absolute extrusion mode
; Ender 3 Custom Start G-code
G92 E0 ; Reset Extruder
G28 ; Home all axes
G1 Z2.0 F3000 ; Move Z Axis up little to prevent scratching of Heat Bed
G1 X0.1 Y20 Z0.3 F5000.0 ; Move to start position
G1 X0.1 Y200.0 Z0.3 F1500.0 E15 ; Draw the first line
G1 X0.4 Y200.0 Z0.3 F5000.0 ; Move to side a little
G1 X0.4 Y20 Z0.3 F1500.0 E30 ; Draw the second line
G92 E0 ; Reset Extruder
G1 Z2.0 F3000 ; Move Z Axis up little to prevent scratching of Heat Bed
G1 X5 Y20 Z0.3 F5000.0 ; Move over to prevent blob squish
G92 E0
G92 E0
G1 F2700 E-5
;LAYER_COUNT:104
;LAYER:0
M107
G0 F6000 X34.133 Y29.841 Z0.24
;TYPE:SKIRT
G1 F2700 E0
G1 F1500 X34.685 Y29.274 E0.04343
G1 X35.291 Y28.766 E0.08682
G1 X35.945 Y28.322 E0.1302
G1 X36.641 Y27.946 E0.17362
G1 X37.372 Y27.642 E0.21706
G1 X38.129 Y27.413 E0.26047
G1 X38.905 Y27.262 E0.30385
G1 X39.79 Y27.187 E0.3526
G1 X40.33 Y27.175 E0.38224
G1 X179.405 Y27.176 E8.01457
G1 X180.103 Y27.186 E8.05287
G1 X180.892 Y27.237 E8.09626
G1 X181.672 Y27.368 E8.13967
G1 X182.435 Y27.577 E8.18309
G1 X183.173 Y27.861 E8.22648
G1 X183.879 Y28.219 E8.26992
G1 X184.544 Y28.646 E8.31329
G1 X185.164 Y29.138 E8.35673
G1 X185.73 Y29.691 E8.40016
G1 X186.238 Y30.297 E8.44355
G1 X186.681 Y30.952 E8.48695
G1 X187.057 Y31.648 E8.53036
G1 X187.36 Y32.378 E8.57374
G1 X187.588 Y33.136 E8.61718
G1 X187.739 Y33.912 E8.66056
G1 X187.813 Y34.79 E8.70892
G1 X187.825 Y35.33 E8.73856
G1 X187.824 Y181.361 E16.75263
G1 X187.815 Y182.088 E16.79253
G1 X187.766 Y182.877 E16.83591
G1 X187.636 Y183.658 E16.87936
G1 X187.429 Y184.421 E16.92275
G1 X187.146 Y185.159 E16.96612
G1 X186.789 Y185.865 E17.00954
G1 X186.364 Y186.532 E17.05294
G1 X185.873 Y187.152 E17.09635
G1 X185.322 Y187.719 E17.13973
G1 X184.716 Y188.228 E17.18317
G1 X184.062 Y188.673 E17.22658
G1 X183.367 Y189.05 E17.26997
G1 X182.637 Y189.355 E17.31339
G1 X181.88 Y189.585 E17.35681
G1 X181.104 Y189.736 E17.40019
G1 X180.21 Y189.813 E17.44943
G1 X179.67 Y189.825 E17.47908
G1 X144.332 Y189.825 E19.4184
G1 X141.695 Y189.862 E19.56313
G1 X139.066 Y189.974 E19.70754
G1 X136.496 Y190.156 E19.84893
G1 X133.891 Y190.414 E19.99259
G1 X131.289 Y190.747 E20.13655
G1 X128.721 Y191.151 E20.27921
G1 X126.171 Y191.625 E20.42155
G1 X123.596 Y192.179 E20.5661
G1 X122.8 Y192.374 E20.61108
G1 X121.742 Y192.617 E20.67065
G1 X120.963 Y192.755 E20.71407
G1 X120.21 Y192.813 E20.75551
G1 X119.67 Y192.825 E20.78515
G1 X90.587 Y192.824 E22.38121
G1 X89.869 Y192.813 E22.42062
G1 X88.907 Y192.739 E22.47357
G1 X86.736 Y192.436 E22.59386
G1 X84.134 Y192.14 E22.73758
G1 X81.512 Y191.916 E22.882
G1 X78.956 Y191.772 E23.02249
G1 X76.32 Y191.696 E23.16721
G1 X73.723 Y191.696 E23.30973
G1 X71.097 Y191.769 E23.4539
G1 X68.527 Y191.915 E23.59517
G1 X65.913 Y192.137 E23.73914
G1 X63.323 Y192.431 E23.88219
G1 X61.058 Y192.743 E24.00767
G1 X60.21 Y192.813 E24.05436
G1 X59.67 Y192.825 E24.084
G1 X40.606 Y192.824 E25.13022
G1 X39.908 Y192.815 E25.16853
G1 X39.119 Y192.765 E25.21192
G1 X38.338 Y192.636 E25.25536
G1 X37.575 Y192.428 E25.29876
G1 X36.837 Y192.144 E25.34215
G1 X36.131 Y191.787 E25.38557
G1 X35.465 Y191.361 E25.42896
G1 X34.845 Y190.87 E25.47236
G1 X34.278 Y190.319 E25.51575
G1 X33.769 Y189.713 E25.55918
G1 X33.324 Y189.059 E25.60259
G1 X32.948 Y188.363 E25.64601
G1 X32.644 Y187.633 E25.6894
G1 X32.414 Y186.876 E25.73282
G1 X32.263 Y186.1 E25.77621
G1 X32.187 Y185.202 E25.82566
G1 X32.175 Y184.658 E25.85553
G1 X32.176 Y35.568 E34.03747
G1 X32.185 Y34.903 E34.07397
G1 X32.235 Y34.114 E34.11735
G1 X32.365 Y33.334 E34.16075
G1 X32.574 Y32.571 E34.20417
G1 X32.858 Y31.832 E34.24761
G1 X33.215 Y31.127 E34.29098
G1 X33.642 Y30.461 E34.3344
G1 X34.133 Y29.841 E34.3778
G0 F6000 X34.674 Y30.063
G1 F1500 X35.222 Y29.531 E34.41971
G1 X35.821 Y29.06 E34.46153
G1 X36.467 Y28.654 E34.5034
G1 X37.152 Y28.319 E34.54525
G1 X37.868 Y28.056 E34.58711
G1 X38.607 Y27.87 E34.62893
G1 X39.362 Y27.763 E34.67078
G1 X39.805 Y27.737 E34.69513
G1 X40.33 Y27.725 E34.72395
G1 X179.397 Y27.726 E42.35584
G1 X180.095 Y27.736 E42.39415
G1 X180.856 Y27.787 E42.43601
G1 X181.608 Y27.917 E42.47789
G1 X182.341 Y28.125 E42.5197
G1 X183.049 Y28.409 E42.56157
G1 X183.723 Y28.765 E42.6034
G1 X184.356 Y29.19 E42.64524
G1 X184.942 Y29.679 E42.68713
G1 X185.473 Y30.227 E42.729
G1 X185.943 Y30.827 E42.77083
G1 X186.348 Y31.473 E42.81267
G1 X186.684 Y32.158 E42.85454
G1 X186.945 Y32.874 E42.89637
G1 X187.131 Y33.614 E42.93824
G1 X187.238 Y34.369 E42.98009
G1 X187.263 Y34.805 E43.00405
G1 X187.275 Y35.33 E43.03287
G1 X187.274 Y181.354 E51.04656
G1 X187.265 Y182.081 E51.08646
G1 X187.216 Y182.842 E51.12831
G1 X187.087 Y183.594 E51.17018
G1 X186.88 Y184.328 E51.21203
G1 X186.598 Y185.036 E51.25386
G1 X186.243 Y185.711 E51.29571
G1 X185.819 Y186.345 E51.33757
G1 X185.331 Y186.931 E51.37942
G1 X184.785 Y187.463 E51.42125
G1 X184.186 Y187.935 E51.4631
G1 X183.54 Y188.341 E51.50498
G1 X182.856 Y188.678 E51.54682
G1 X182.14 Y188.941 E51.58868
G1 X181.401 Y189.128 E51.63052
G1 X180.646 Y189.236 E51.67237
G1 X180.195 Y189.263 E51.69717
G1 X179.67 Y189.275 E51.72599
G1 X144.324 Y189.275 E53.66575
G1 X141.664 Y189.313 E53.81174
G1 X139.074 Y189.423 E53.95401
G1 X136.44 Y189.609 E54.09892
G1 X133.805 Y189.87 E54.24423
G1 X131.231 Y190.2 E54.38665
G1 X128.614 Y190.611 E54.53203
G1 X126.056 Y191.087 E54.67482
G1 X123.49 Y191.639 E54.81886
G1 X122.677 Y191.838 E54.86479
G1 X121.619 Y192.081 E54.92437
G1 X120.867 Y192.213 E54.96627
G1 X120.195 Y192.263 E55.00325
G1 X119.67 Y192.275 E55.03207
G1 X90.596 Y192.274 E56.62763
G1 X89.878 Y192.263 E56.66703
G1 X88.983 Y192.194 E56.7163
G1 X86.796 Y191.889 E56.83748
G1 X84.205 Y191.594 E56.98059
G1 X81.556 Y191.368 E57.12649
G1 X78.967 Y191.221 E57.2688
G1 X76.336 Y191.146 E57.41325
G1 X73.707 Y191.146 E57.55753
G1 X71.086 Y191.219 E57.70142
G1 X68.486 Y191.367 E57.84434
G1 X65.874 Y191.588 E57.9882
G1 X63.228 Y191.888 E58.13434
G1 X60.983 Y192.198 E58.25871
G1 X60.194 Y192.263 E58.30216
G1 X59.67 Y192.275 E58.33092
G1 X40.613 Y192.274 E59.37675
G1 X39.915 Y192.265 E59.41506
G1 X39.154 Y192.216 E59.45691
G1 X38.403 Y192.086 E59.49874
G1 X37.669 Y191.879 E59.54059
G1 X36.96 Y191.596 E59.58249
G1 X36.286 Y191.241 E59.62429
G1 X35.652 Y190.817 E59.66615
G1 X35.066 Y190.329 E59.708
G1 X34.534 Y189.782 E59.74987
G1 X34.063 Y189.183 E59.79169
G1 X33.657 Y188.537 E59.83356
G1 X33.32 Y187.853 E59.87541
G1 X33.058 Y187.137 E59.91725
G1 X32.871 Y186.397 E59.95914
G1 X32.763 Y185.642 E60.00099
G1 X32.737 Y185.188 E60.02595
G1 X32.725 Y184.658 E60.05504
G1 X32.726 Y35.576 E68.23655
G1 X32.735 Y34.911 E68.27305
G1 X32.785 Y34.15 E68.3149
G1 X32.915 Y33.398 E68.35678
G1 X33.122 Y32.664 E68.39863
G1 X33.406 Y31.956 E68.4405
G1 X33.761 Y31.282 E68.4823
G1 X34.186 Y30.648 E68.52419
G1 X34.674 Y30.063 E68.566
G1 F2700 E63.566
;MESH:Body4.STL
G0 F6000 X53.044 Y48.332
G0 X56.516 Y52.383
;TYPE:WALL-INNER
G1 F2700 E68.566
G1 F900 X55.978 Y52.425 E68.59561
G1 X55.467 Y52.377 E68.62378
G1 X54.997 Y52.252 E68.65047
G1 X54.539 Y52.037 E68.67824
G1 X54.12 Y51.745 E68.70626
G1 X53.756 Y51.381 E68.73451
G1 X53.463 Y50.967 E68.76235
G1 X53.251 Y50.507 E68.79014
G1 X53.119 Y50.01 E68.81837
G1 X53.071 Y49.503 E68.84631
G1 X53.119 Y48.988 E68.8747
G1 X53.247 Y48.5 E68.90239
G1 X53.464 Y48.038 E68.9304
G1 X53.505 Y47.973 E68.93462
G1 X53.747 Y47.635 E68.95743
G1 X54.115 Y47.259 E68.9863
G1 X54.534 Y46.961 E69.01452
G1 X54.99 Y46.752 E69.04205
G1 X55.49 Y46.619 E69.07044
G1 X56 Y46.575 E69.09853
G1 X56.512 Y46.616 E69.12672
G1 X57.002 Y46.748 E69.15457
G1 X57.463 Y46.964 E69.18251
G1 X57.881 Y47.255 E69.21046
G1 X58.241 Y47.62 E69.23859
G1 X58.537 Y48.039 E69.26675
G1 X58.748 Y48.488 E69.29397
G1 X58.885 Y49.014 E69.3238
G1 X58.925 Y49.525 E69.35193
G1 X58.883 Y50.015 E69.37892
G1 X58.753 Y50.489 E69.4059
G1 X58.528 Y50.976 E69.43534
G1 X58.244 Y51.382 E69.46253
G1 X57.864 Y51.754 E69.49171
G1 X57.463 Y52.04 E69.51874
G1 X57.025 Y52.24 E69.54517
G1 X56.516 Y52.383 E69.57418
G0 F6000 X57.354 Y51.922
G0 X57.197 Y51.584
;TYPE:WALL-OUTER
G1 F900 X56.844 Y51.747 E69.59552
G1 X56.422 Y51.864 E69.61955
G1 X56.01 Y51.9 E69.64225
G1 X55.59 Y51.865 E69.66538
G1 X55.18 Y51.756 E69.68866
G1 X54.8 Y51.582 E69.71159
G1 X54.458 Y51.339 E69.73462
G1 X54.161 Y51.042 E69.75767
G1 X53.919 Y50.7 E69.78066
G1 X53.74 Y50.305 E69.80446
G1 X53.636 Y49.919 E69.8264
G1 X53.601 Y49.529 E69.84789
G1 X53.636 Y49.08 E69.8726
G1 X53.737 Y48.704 E69.89397
G1 X53.934 Y48.277 E69.91978
G1 X54.178 Y47.939 E69.94265
G1 X54.458 Y47.661 E69.96431
G1 X54.8 Y47.419 E69.9873
G1 X55.148 Y47.257 E70.00837
G1 X55.581 Y47.136 E70.03304
G1 X56.027 Y47.101 E70.05759
G1 X56.446 Y47.142 E70.0807
G1 X56.844 Y47.254 E70.10339
G1 X57.2 Y47.419 E70.12492
G1 X57.542 Y47.661 E70.14791
G1 X57.839 Y47.958 E70.17096
G1 X58.082 Y48.301 E70.19403
G1 X58.252 Y48.669 E70.21628
G1 X58.358 Y49.053 E70.23814
G1 X58.4 Y49.49 E70.26223
G1 X58.364 Y49.921 E70.28597
G1 X58.257 Y50.316 E70.30843
G1 X58.086 Y50.691 E70.33104
G1 X57.832 Y51.05 E70.35518
G1 X57.54 Y51.341 E70.3778
G1 X57.197 Y51.584 E70.40087
G1 F2700 E65.40087
G0 F6000 X57.354 Y51.922
G0 X57.178 Y52.452
G0 X57.17 Y145.045
G0 X57.474 Y150.534
;TYPE:WALL-INNER
G1 F2700 E70.40087
G1 F900 X57.03 Y150.738 E70.42769
G1 X56.525 Y150.878 E70.45644
G1 X56.005 Y150.928 E70.48511
G1 X55.467 Y150.877 E70.51477
G1 X54.997 Y150.752 E70.54146
G1 X54.539 Y150.537 E70.56923
G1 X54.12 Y150.245 E70.59725
G1 X53.756 Y149.881 E70.6255
G1 X53.463 Y149.467 E70.65334
G1 X53.251 Y149.007 E70.68114
G1 X53.119 Y148.51 E70.70936
G1 X53.071 Y148.003 E70.7373
G1 X53.119 Y147.488 E70.76569
G1 X53.247 Y147 E70.79338
G1 X53.464 Y146.538 E70.82139
G1 X53.761 Y146.118 E70.84962
G1 X54.12 Y145.759 E70.87748
G1 X54.539 Y145.463 E70.90563
G1 X54.993 Y145.254 E70.93306
G1 X55.481 Y145.118 E70.96086
G1 X56.027 Y145.075 E70.99092
G1 X56.515 Y145.117 E71.0178
G1 X57.016 Y145.257 E71.04635
G1 X57.462 Y145.46 E71.07324
G1 X57.884 Y145.759 E71.10162
G1 X58.216 Y146.092 E71.12743
G1 X58.268 Y146.154 E71.13187
G1 X58.539 Y146.537 E71.15762
G1 X58.739 Y146.973 E71.18394
G1 X58.88 Y147.482 E71.21293
G1 X58.929 Y147.998 E71.24137
G1 X58.882 Y148.523 E71.2703
G1 X58.751 Y149.001 E71.2975
G1 X58.539 Y149.464 E71.32545
G1 X58.241 Y149.88 E71.35353
G1 X57.908 Y150.216 E71.37949
G1 X57.474 Y150.534 E71.40902
G0 F6000 X56.837 Y150.249
;TYPE:WALL-OUTER
G1 F900 X56.414 Y150.365 E71.43309
G1 X56.015 Y150.4 E71.45507
G1 X55.59 Y150.365 E71.47847
G1 X55.18 Y150.256 E71.50175
G1 X54.8 Y150.082 E71.52469
G1 X54.458 Y149.839 E71.54771
G1 X54.161 Y149.542 E71.57076
G1 X53.919 Y149.2 E71.59376
G1 X53.74 Y148.805 E71.61756
G1 X53.636 Y148.419 E71.63949
G1 X53.601 Y148.029 E71.66098
G1 X53.636 Y147.58 E71.6857
G1 X53.737 Y147.204 E71.70707
G1 X53.919 Y146.8 E71.73138
G1 X54.161 Y146.458 E71.75437
G1 X54.458 Y146.161 E71.77742
G1 X54.801 Y145.918 E71.80049
G1 X55.171 Y145.747 E71.82286
G1 X55.553 Y145.642 E71.8446
G1 X55.992 Y145.6 E71.86881
G1 X56.421 Y145.636 E71.89243
G1 X56.817 Y145.743 E71.91494
G1 X57.195 Y145.916 E71.93776
G1 X57.54 Y146.159 E71.96092
G1 X57.849 Y146.471 E71.98501
G1 X58.094 Y146.825 E72.00864
G1 X58.247 Y147.157 E72.0287
G1 X58.367 Y147.599 E72.05384
G1 X58.4 Y147.975 E72.07455
G1 X58.367 Y148.402 E72.09805
G1 X58.254 Y148.824 E72.12203
G1 X58.085 Y149.194 E72.14435
G1 X57.839 Y149.542 E72.16774
G1 X57.561 Y149.822 E72.18939
G1 X57.213 Y150.074 E72.21297
G1 X56.837 Y150.249 E72.23573
G1 F2700 E67.23573
G0 F6000 X56.995 Y150.589
G0 X58.373 Y150.112
G0 X91.1 Y183.9
G0 X119.175 Y184.175
;TYPE:WALL-INNER
G1 F2700 E72.23573
G1 F900 X119.175 Y181.861 E72.36272
G1 X119.299 Y181.564 E72.38039
G1 X119.486 Y181.354 E72.39582
G1 X119.688 Y181.235 E72.40868
G1 X119.961 Y181.175 E72.42402
G1 X179.175 Y181.175 E75.67364
G1 X179.175 Y43.087 E83.2518
G1 X179.175 Y35.825 E83.65034
G1 X40.826 Y35.826 E91.24282
G1 X40.826 Y184.174 E99.38405
G1 X59.175 Y184.175 E100.39102
G1 X59.175 Y182 E100.51039
G1 X59.248 Y181.659 E100.52952
G1 X59.359 Y181.479 E100.54113
G1 X59.676 Y181.24 E100.56292
G1 X59.942 Y181.176 E100.57793
G1 X90.08 Y181.178 E102.23188
G1 X90.238 Y181.209 E102.24072
G1 X90.478 Y181.327 E102.25539
G1 X90.647 Y181.488 E102.2682
G1 X90.756 Y181.667 E102.27971
G1 X90.825 Y182 E102.29837
G1 X90.825 Y184.175 E102.41773
G1 X119.175 Y184.175 E103.97356
G0 F6000 X119.7 Y184.7
;TYPE:WALL-OUTER
G1 F900 X119.7 Y181.908 E104.12678
G1 X119.837 Y181.747 E104.13838
G1 X119.958 Y181.702 E104.14547
G1 X179.7 Y181.7 E107.42406
G1 X179.7 Y43.087 E115.03103
G1 X179.7 Y35.3 E115.45838
G1 X40.301 Y35.301 E123.10849
G1 X40.301 Y184.699 E131.30733
G1 X59.7 Y184.7 E132.37194
G1 X59.7 Y181.911 E132.52499
G1 X59.801 Y181.774 E132.53433
G1 X59.979 Y181.7 E132.54491
G1 X90.059 Y181.705 E134.19568
G1 X90.202 Y181.777 E134.20447
G1 X90.3 Y181.914 E134.21371
G1 X90.3 Y184.7 E134.3666
G1 X119.7 Y184.7 E135.98005
G1 F2700 E130.98005
G0 F6000 X119.355 Y184.355
G0 X119.397 Y181.397
G0 X162.538 Y181.405
G0 X162.832 Y150.956
G0 X162.538 Y150.542
;TYPE:WALL-INNER
G1 F2700 E135.98005
G1 F900 X162.145 Y150.261 E136.00657
G1 X161.755 Y149.88 E136.03649
G1 X161.464 Y149.469 E136.06412
G1 X161.258 Y149.019 E136.09128
G1 X161.118 Y148.521 E136.11967
G1 X161.072 Y147.995 E136.14865
G1 X161.117 Y147.499 E136.17598
G1 X161.26 Y146.976 E136.20574
G1 X161.467 Y146.526 E136.23292
G1 X161.761 Y146.114 E136.2607
G1 X162.125 Y145.755 E136.28875
G1 X162.473 Y145.505 E136.31227
G1 X162.585 Y145.439 E136.3194
G1 X162.975 Y145.26 E136.34295
G1 X163.484 Y145.117 E136.37197
G1 X164.022 Y145.075 E136.40158
G1 X164.533 Y145.123 E136.42975
G1 X164.997 Y145.25 E136.45615
G1 X165.46 Y145.463 E136.48412
G1 X165.88 Y145.759 E136.51232
G1 X166.239 Y146.118 E136.54018
G1 X166.539 Y146.535 E136.56837
G1 X166.748 Y146.988 E136.59575
G1 X166.881 Y147.486 E136.62404
G1 X166.929 Y147.997 E136.65221
G1 X166.881 Y148.512 E136.68059
G1 X166.753 Y149 E136.70828
G1 X166.536 Y149.462 E136.73629
G1 X166.239 Y149.882 E136.76452
G1 X165.882 Y150.243 E136.79238
G1 X165.462 Y150.537 E136.82052
G1 X165.007 Y150.747 E136.84802
G1 X164.52 Y150.882 E136.87575
G1 X163.999 Y150.928 E136.90446
G1 X163.452 Y150.874 E136.93462
G1 X163.022 Y150.757 E136.95908
G1 X162.538 Y150.542 E136.98814
G0 F6000 X163.172 Y150.253
;TYPE:WALL-OUTER
G1 F900 X162.799 Y150.081 E137.01068
G1 X162.467 Y149.846 E137.033
G1 X162.161 Y149.542 E137.05668
G1 X161.921 Y149.204 E137.07943
G1 X161.749 Y148.832 E137.10192
G1 X161.636 Y148.419 E137.12542
G1 X161.6 Y148.021 E137.14735
G1 X161.635 Y147.584 E137.17141
G1 X161.751 Y147.163 E137.19537
G1 X161.914 Y146.808 E137.21681
G1 X162.167 Y146.451 E137.24082
G1 X162.464 Y146.156 E137.26379
G1 X162.818 Y145.91 E137.28745
G1 X163.156 Y145.753 E137.3079
G1 X163.578 Y145.636 E137.33194
G1 X163.99 Y145.6 E137.35463
G1 X164.41 Y145.635 E137.37776
G1 X164.82 Y145.744 E137.40104
G1 X165.199 Y145.918 E137.42393
G1 X165.542 Y146.161 E137.447
G1 X165.839 Y146.458 E137.47005
G1 X166.081 Y146.8 E137.49304
G1 X166.259 Y147.192 E137.51667
G1 X166.364 Y147.579 E137.53868
G1 X166.399 Y147.971 E137.56027
G1 X166.364 Y148.42 E137.58499
G1 X166.263 Y148.796 E137.60636
G1 X166.081 Y149.2 E137.63067
G1 X165.839 Y149.542 E137.65366
G1 X165.542 Y149.839 E137.67672
G1 X165.2 Y150.082 E137.69974
G1 X164.828 Y150.253 E137.72221
G1 X164.447 Y150.358 E137.7439
G1 X164.014 Y150.4 E137.76777
G1 X163.58 Y150.364 E137.79167
G1 X163.172 Y150.253 E137.81487
G1 F2700 E132.81487
G0 F6000 X163.014 Y150.591
G0 X162.254 Y150.081
G0 X161.919 Y149.746
G0 X161.647 Y149.358
G0 X161.451 Y148.937
G0 X161.325 Y148.473
G0 X161.283 Y148
G0 X161.325 Y147.528
G0 X161.448 Y147.072
G0 X161.647 Y146.643
G0 X161.919 Y146.254
G0 X162.189 Y145.984
G0 X163.905 Y144.823
G0 X162.832 Y52.456
G0 X162.531 Y52.033
;TYPE:WALL-INNER
G1 F2700 E137.81487
G1 F900 X162.125 Y51.745 E137.84219
G1 X161.789 Y51.413 E137.86811
G1 X161.739 Y51.354 E137.87236
