;FLAVOR:Marlin
;TIME:3180
;Filament used: 3.17877m
;Layer height: 0.24
;MINX:82.871
;MINY:94.336
;MINZ:0.288
;MAXX:136.201
;MAXY:125.665
;MAXZ:36.318
;Generated with Cura_SteamEngine 5.2.1
M140 S60
M105
M190 S60
M104 S210
M105
M109 S210
M82 ;absolute extrusion mode
; Ender 3 Custom Start G-code
G92 E0 ; Reset Extruder
G28 ; Home all axes
G1 Z2.0 F3000 ; Move Z Axis up little to prevent scratching of Heat Bed
G1 X0.1 Y20 Z0.3 F5000.0 ; Move to start position
G1 X0.1 Y200.0 Z0.3 F1500.0 E15 ; Draw the first line
G1 X0.4 Y200.0 Z0.3 F5000.0 ; Move to side a little
G1 X0.4 Y20 Z0.3 F1500.0 E30 ; Draw the second line
G92 E0 ; Reset Extruder
G1 Z2.0 F3000 ; Move Z Axis up little to prevent scratching of Heat Bed
G1 X5 Y20 Z0.3 F5000.0 ; Move over to prevent blob squish
G92 E0
G92 E0
G1 F2700 E-5
;LAYER_COUNT:146
;LAYER:-6
M107
G0 F12000 X85.361 Y102.088 Z0.288
;TYPE:SUPPORT-INTERFACE
G1 F2700 E0
G1 F1125 X85.191 Y102.311 E0.04029
G1 X84.916 Y102.735 E0.1129
G1 X84.764 Y103.006 E0.15755
G1 X84.588 Y103.366 E0.21513
G1 X84.475 Y103.637 E0.25731
G1 X84.311 Y104.157 E0.33566
G1 X84.199 Y104.699 E0.41518
G1 X84.164 Y104.964 E0.45359
G1 X84.136 Y105.462 E0.52525
G1 X84.136 Y114.51 E1.8253
G1 X84.168 Y115.063 E1.90489
G1 X84.208 Y115.356 E1.94738
G1 X84.306 Y115.847 E2.01932
G1 X84.494 Y116.409 E2.10447
G1 X84.607 Y116.676 E2.14613
G1 X84.869 Y117.197 E2.22992
G1 X85.22 Y117.725 E2.32102
G1 X85.381 Y117.935 E2.35904
G1 X85.71 Y118.306 E2.43029
G1 X86.122 Y118.673 E2.50957
G1 X86.348 Y118.845 E2.55038
G1 X86.771 Y119.12 E2.62287
G1 X87.042 Y119.272 E2.66751
G1 X87.402 Y119.448 E2.72509
G1 X87.673 Y119.561 E2.76728
G1 X88.193 Y119.725 E2.84562
G1 X88.735 Y119.837 E2.92514
G1 X89 Y119.872 E2.96355
G1 X89.5 Y119.9 E3.0355
G1 X102.719 Y119.901 E4.93486
G1 X103.52 Y119.964 E5.05031
G1 X104.188 Y120.108 E5.14849
G1 X104.881 Y120.354 E5.25415
G1 X105.516 Y120.676 E5.35645
G1 X106.076 Y121.052 E5.45337
G1 X106.637 Y121.544 E5.56058
G1 X107.075 Y122.042 E5.65588
G1 X107.382 Y122.436 E5.72764
G1 X107.71 Y122.806 E5.79869
G1 X108.122 Y123.173 E5.87797
G1 X108.348 Y123.345 E5.91877
G1 X108.771 Y123.62 E5.99127
G1 X109.042 Y123.772 E6.03591
G1 X109.402 Y123.948 E6.09349
G1 X109.673 Y124.061 E6.13568
G1 X110.193 Y124.225 E6.21402
G1 X110.735 Y124.337 E6.29354
G1 X111 Y124.372 E6.33195
G1 X111.498 Y124.4 E6.40362
G1 X129.596 Y124.4 E9.00401
G1 X130.013 Y124.385 E9.06396
G1 X130.439 Y124.321 E9.12586
G1 X130.695 Y124.265 E9.16351
G1 X131.028 Y124.171 E9.21323
G1 X131.402 Y124.049 E9.26975
G1 X131.811 Y123.884 E9.33312
G1 X132.038 Y123.776 E9.36924
G1 X132.285 Y123.637 E9.40996
G1 X132.525 Y123.482 E9.45101
G1 X132.927 Y123.184 E9.52291
G1 X133.285 Y122.876 E9.59077
G1 X133.525 Y122.627 E9.64046
G1 X133.718 Y122.405 E9.68273
G1 X133.883 Y122.185 E9.72224
G1 X134.09 Y121.875 E9.7758
G1 X134.257 Y121.591 E9.82314
G1 X134.47 Y121.184 E9.88914
G1 X134.627 Y120.774 E9.95222
G1 X134.705 Y120.518 E9.99068
G1 X134.793 Y120.158 E10.04392
G1 X134.862 Y119.81 E10.0949
G1 X134.936 Y118.969 E10.21621
G1 X134.935 Y100.948 E12.80553
G1 X134.917 Y100.464 E12.87512
G1 X134.848 Y100.041 E12.9367
G1 X134.791 Y99.788 E12.97397
G1 X134.668 Y99.356 E13.0385
G1 X134.517 Y98.956 E13.09994
G1 X134.351 Y98.579 E13.15912
G1 X134.222 Y98.335 E13.19878
G1 X133.961 Y97.915 E13.26983
G1 X133.616 Y97.475 E13.35017
G1 X133.425 Y97.269 E13.39053
G1 X133.002 Y96.871 E13.47399
G1 X132.593 Y96.561 E13.54773
G1 X132.368 Y96.412 E13.5865
G1 X132.12 Y96.269 E13.62763
G1 X131.869 Y96.144 E13.66792
G1 X131.457 Y95.968 E13.7323
G1 X130.766 Y95.745 E13.83662
G1 X130.348 Y95.663 E13.89783
G1 X130.066 Y95.628 E13.93866
G1 X129.573 Y95.6 E14.00961
G1 X111.528 Y95.6 E16.60238
G1 X110.975 Y95.632 E16.68197
G1 X110.68 Y95.672 E16.72475
G1 X110.196 Y95.769 E16.79567
G1 X109.626 Y95.959 E16.882
G1 X109.359 Y96.071 E16.9236
G1 X109.038 Y96.231 E16.97514
G1 X108.766 Y96.382 E17.01984
G1 X108.308 Y96.684 E17.09866
G1 X108.096 Y96.848 E17.13718
G1 X107.73 Y97.174 E17.2076
G1 X107.358 Y97.592 E17.288
G1 X107.129 Y97.893 E17.34234
G1 X106.537 Y98.559 E17.47038
G1 X106.018 Y98.993 E17.56759
G1 X105.398 Y99.393 E17.6736
G1 X104.762 Y99.696 E17.77482
G1 X104.091 Y99.919 E17.87642
G1 X103.387 Y100.055 E17.97944
G1 X102.693 Y100.1 E18.07937
G1 X89.526 Y100.1 E19.97125
G1 X88.973 Y100.132 E20.05084
G1 X88.682 Y100.172 E20.09305
G1 X88.326 Y100.243 E20.14521
G1 X88.012 Y100.326 E20.19187
G1 X87.629 Y100.457 E20.25004
G1 X87.36 Y100.571 E20.29201
G1 X86.839 Y100.833 E20.37581
G1 X86.311 Y101.184 E20.4669
G1 X86.101 Y101.345 E20.50493
G1 X85.728 Y101.676 E20.57658
G1 X85.361 Y102.088 E20.65586
G0 F12000 X85.682 Y102.653
G1 F1125 X102.328 Y119.298 E24.03822
G0 F12000 X98.934 Y119.298
G1 F1125 X84.755 Y105.12 E26.91928
G0 F12000 X84.736 Y108.494
G1 F1125 X95.54 Y119.298 E29.11465
G0 F12000 X92.145 Y119.298
G1 F1125 X84.736 Y111.889 E30.62015
G0 F12000 X84.822 Y115.369
G1 F1125 X88.661 Y119.208 E31.40024
G1 F2700 E26.40024
G0 F12000 X88.069 Y120.996
G0 X86.882 Y120.602
G0 X85.616 Y119.877
G0 X84.686 Y119.06
G0 X83.835 Y117.923
G0 X83.311 Y116.859
G0 X82.959 Y115.565
G0 X82.872 Y114.539
G0 X82.905 Y104.845
G0 X83.158 Y103.586
G0 X83.725 Y102.266
G0 X84.382 Y101.286
G0 X85.289 Y100.373
G0 X86.453 Y99.608
G0 X87.563 Y101.139
G1 F2700 E31.40024
G1 F1125 X109.938 Y123.515 E35.94693
G0 F12000 X113.616 Y123.798
G1 F1125 X90.518 Y100.7 E40.64043
G0 F12000 X93.912 Y100.7
G1 F1125 X117.01 Y123.798 E45.33393
G0 F12000 X120.404 Y123.798
G1 F1125 X97.306 Y100.7 E50.02744
G0 F12000 X100.7 Y100.7
G1 F1125 X123.799 Y123.799 E54.72114
G0 F12000 X127.193 Y123.799
G1 F1125 X103.95 Y100.556 E59.44411
G0 F12000 X106.307 Y99.519
G1 F1125 X130.488 Y123.699 E64.35758
G0 F12000 X132.734 Y122.552
G1 F1125 X107.978 Y97.796 E69.38799
G0 F12000 X110.032 Y96.455
G1 F1125 X134.085 Y120.509 E74.27565
G0 F12000 X134.335 Y117.364
G1 F1125 X113.17 Y96.199 E78.57637
G0 F12000 X116.564 Y96.199
G1 F1125 X134.335 Y113.97 E82.18743
G0 F12000 X134.334 Y110.575
G1 F1125 X119.958 Y96.199 E85.10862
G0 F12000 X123.352 Y96.199
G1 F1125 X134.334 Y107.181 E87.34016
G0 F12000 X134.334 Y103.787
G1 F1125 X126.746 Y96.199 E88.88204
G0 F12000 X130.184 Y96.242
G1 F1125 X134.29 Y100.349 E89.71648
G1 F2700 E84.71648
G0 F300 X134.29 Y100.349 Z0.648
G0 F12000 X136.201 Y100.924
G0 X136.188 Y119.164
G0 X136.029 Y120.434
G0 X135.684 Y121.55
G0 X135.158 Y122.553
G0 X134.458 Y123.481
G0 X133.591 Y124.27
G0 X132.622 Y124.899
G0 X131.638 Y125.287
G0 X130.669 Y125.566
G0 X129.978 Y123.884
;TIME_ELAPSED:42.784001
;LAYER:-5
;TYPE:SUPPORT
G1 F2700 E89.71648
G1 F1125 X130.336 Y123.832 E89.77604
G1 X130.595 Y123.776 E89.81966
G1 X130.885 Y123.694 E89.86928
G1 X131.225 Y123.581 E89.92827
G1 X131.597 Y123.431 E89.9943
G1 X132.018 Y123.213 E90.07236
G1 X132.259 Y123.058 E90.11953
G1 X132.607 Y122.798 E90.19105
G1 X132.936 Y122.516 E90.26239
G1 X133.259 Y122.18 E90.33913
G1 X133.479 Y121.888 E90.39932
G1 X133.672 Y121.599 E90.45653
G1 X133.817 Y121.353 E90.50354
G1 X134.015 Y120.971 E90.57438
G1 X134.147 Y120.624 E90.63551
G1 X134.227 Y120.37 E90.67935
G1 X134.305 Y120.049 E90.73374
G1 X134.367 Y119.731 E90.78708
G1 X134.403 Y119.306 E90.8573
G1 X129.81 Y123.899 E91.9267
G1 X127.971 Y123.899 E92.22947
G1 X134.434 Y117.437 E93.73415
G1 X134.434 Y115.598 E94.03692
G1 X126.133 Y123.899 E95.96966
G1 X124.294 Y123.899 E96.27243
G1 X134.434 Y113.76 E98.63324
G1 X134.434 Y111.921 E98.93601
G1 X122.456 Y123.899 E101.72488
G1 X120.617 Y123.899 E102.02765
G1 X134.434 Y110.083 E105.24458
G1 X134.433 Y108.245 E105.54719
G1 X118.779 Y123.899 E109.19195
G1 X116.94 Y123.899 E109.49472
G1 X134.433 Y106.406 E113.56767
G1 X134.433 Y104.568 E113.87027
G1 X115.102 Y123.899 E118.37116
G1 X113.263 Y123.899 E118.67393
G1 X134.433 Y102.729 E123.603
G1 X134.433 Y100.891 E123.90561
G1 X111.429 Y123.895 E129.26169
G1 X110.935 Y123.867 E129.34315
G1 X110.33 Y123.747 E129.4447
G1 X109.884 Y123.602 E129.52191
G1 X134.136 Y99.349 E135.16869
G1 X133.849 Y98.683 E135.28809
G1 X133.51 Y98.137 E135.39389
G1 X108.682 Y122.965 E141.17467
G1 X108.431 Y122.779 E141.2261
G1 X108.079 Y122.465 E141.30376
G1 X107.731 Y122.078 E141.38945
G1 X132.608 Y97.201 E147.18163
G1 X132.211 Y96.899 E147.26375
G1 X131.781 Y96.649 E147.34564
G1 X131.458 Y96.512 E147.40341
G1 X106.879 Y121.092 E153.12632
G1 X106.416 Y120.681 E153.22825
G1 X105.841 Y120.29 E153.34273
G1 X130.007 Y96.124 E158.96937
G1 X129.558 Y96.1 E159.04339
G1 X128.194 Y96.1 E159.26796
G1 X104.581 Y119.713 E164.76584
G1 X104.366 Y119.635 E164.8035
G1 X103.604 Y119.469 E164.93189
G1 X103.031 Y119.424 E165.02652
G1 X126.355 Y96.1 E170.45711
G1 X124.517 Y96.1 E170.75972
G1 X101.217 Y119.399 E176.18461
G1 X99.378 Y119.399 E176.48737
G1 X122.678 Y96.1 E181.91226
G1 X120.84 Y96.1 E182.21487
G1 X97.54 Y119.399 E187.63975
G1 X95.701 Y119.399 E187.94252
G1 X119.001 Y96.1 E193.36741
G1 X117.163 Y96.1 E193.67002
G1 X93.863 Y119.399 E199.0949
G1 X92.024 Y119.399 E199.39767
G1 X115.324 Y96.1 E204.82256
G1 X113.486 Y96.1 E205.12517
G1 X90.186 Y119.399 E210.55005
G1 X89.509 Y119.399 E210.66151
G1 X88.936 Y119.367 E210.756
G1 X88.471 Y119.276 E210.83401
G1 X111.653 Y96.094 E216.23154
G1 X111.016 Y96.13 E216.33658
G1 X110.755 Y96.165 E216.37993
G1 X110.323 Y96.25 E216.45242
G1 X109.684 Y96.464 E216.56337
G1 X109.195 Y96.713 E216.65371
G1 X87.143 Y118.765 E221.78814
G1 X86.643 Y118.439 E221.88641
G1 X86.432 Y118.279 E221.93001
G1 X86.091 Y117.979 E222.00478
G1 X103.521 Y100.549 E226.06306
G1 X102.707 Y100.6 E226.19734
G1 X101.633 Y100.599 E226.37416
G1 X85.296 Y116.935 E230.17783
G1 X84.996 Y116.338 E230.28783
G1 X84.761 Y115.632 E230.41034
G1 X99.794 Y100.599 E233.91051
G1 X97.956 Y100.599 E234.21312
G1 X84.637 Y113.918 E237.31422
G1 X84.637 Y112.079 E237.61699
G1 X96.117 Y100.599 E240.28991
G1 X94.279 Y100.599 E240.59251
G1 X84.637 Y110.24 E242.83737
G1 X84.638 Y108.401 E243.14014
G1 X92.44 Y100.599 E244.9567
G1 X90.602 Y100.599 E245.2593
G1 X84.639 Y106.562 E246.64768
G1 X84.639 Y105.371 E246.84377
G1 X84.668 Y104.904 E246.9208
G1 X84.789 Y104.277 E247.02593
G1 X84.983 Y103.692 E247.12741
G1 X85.262 Y103.128 E247.231
G1 X85.403 Y102.893 E247.27612
G1 X85.598 Y102.6 E247.33407
G1 X85.753 Y102.397 E247.37612
G1 X86.066 Y102.044 E247.45379
G1 X86.405 Y101.741 E247.52865
G1 X86.615 Y101.579 E247.57231
G1 X86.918 Y101.373 E247.63263
G1 X87.155 Y101.232 E247.67804
G1 X87.686 Y100.964 E247.77596
G1 X88.324 Y100.75 E247.88675
G1 X88.685 Y100.677 E247.94739
G1 X84.719 Y104.644 E248.87092
G1 F2700 E243.87092
G0 F300 X84.719 Y104.644 Z0.888
G0 F12000 X82.905 Y104.845
G0 X82.909 Y115.186
G0 X83.156 Y116.405
G0 X84.996 Y116.338
;TIME_ELAPSED:96.151000
;LAYER:-4
;TYPE:SUPPORT-INTERFACE
G1 F2700 E248.87092
G1 F1500 X85.257 Y116.858 E248.90285
G1 X85.407 Y117.11 E248.91895
G1 X85.692 Y117.533 E248.94694
G1 X86.081 Y117.968 E248.97896
G1 X86.432 Y118.279 E249.0047
G1 X86.643 Y118.439 E249.01923
G1 X87.128 Y118.757 E249.05106
G1 X87.731 Y119.052 E249.0879
G1 X88.039 Y119.152 E249.10567
G1 X84.882 Y115.995 E249.35069
G1 X84.785 Y115.703 E249.36757
G1 X84.7 Y115.278 E249.39136
G1 X84.664 Y114.999 E249.4068
G1 X89.037 Y119.372 E249.74619
G1 X89.509 Y119.399 E249.77214
G1 X89.842 Y119.399 E249.79041
G1 X84.636 Y114.193 E250.19445
G1 X84.636 Y113.415 E250.23715
G1 X90.619 Y119.399 E250.70153
G1 X91.397 Y119.399 E250.74423
G1 X84.636 Y112.637 E251.269
G1 X84.637 Y111.86 E251.31164
G1 X92.175 Y119.399 E251.89671
G1 X92.953 Y119.399 E251.9394
G1 X84.637 Y111.082 E252.58486
G1 X84.637 Y110.305 E252.6275
G1 X93.731 Y119.399 E253.33329
G1 X94.509 Y119.399 E253.37599
G1 X84.637 Y109.528 E254.14212
G1 X84.637 Y108.75 E254.18482
G1 X95.286 Y119.399 E255.0113
G1 X96.064 Y119.399 E255.05399
G1 X84.637 Y107.972 E255.94085
G1 X84.638 Y107.195 E255.9835
G1 X96.842 Y119.399 E256.93066
G1 X97.62 Y119.399 E256.97336
G1 X84.638 Y106.417 E257.9809
G1 X84.638 Y105.639 E258.0236
G1 X98.398 Y119.399 E259.09152
G1 X99.175 Y119.399 E259.13416
G1 X84.669 Y104.892 E260.26003
G1 X84.799 Y104.245 E260.29624
G1 X99.953 Y119.399 E261.47236
G1 X100.731 Y119.399 E261.51506
G1 X84.997 Y103.664 E262.73623
G1 X85.254 Y103.144 E262.76806
G1 X101.509 Y119.399 E264.02962
G1 X102.287 Y119.399 E264.07232
G1 X85.554 Y102.666 E265.37098
G1 X85.885 Y102.219 E265.40151
G1 X103.094 Y119.428 E266.73711
G1 X103.604 Y119.469 E266.76519
G1 X103.998 Y119.554 E266.78731
G1 X86.28 Y101.837 E268.16238
G1 X86.719 Y101.498 E268.19282
G1 X105.144 Y119.923 E269.62281
G1 X105.779 Y120.248 E269.66195
G1 X106.416 Y120.681 E269.70422
G1 X106.993 Y121.192 E269.74652
G1 X107.48 Y121.744 E269.78692
G1 X107.772 Y122.124 E269.81322
G1 X108.079 Y122.465 E269.8384
G1 X108.431 Y122.779 E269.86429
G1 X108.644 Y122.94 E269.87894
G1 X109.129 Y123.258 E269.91077
G1 X109.38 Y123.38 E269.92608
G1 X87.206 Y101.207 E271.64699
G1 X87.723 Y100.946 E271.67877
G1 X110.571 Y123.794 E273.45203
G1 X110.935 Y123.867 E273.4724
G1 X111.451 Y123.896 E273.50076
G1 X88.31 Y100.755 E275.29676
G1 X88.954 Y100.622 E275.33284
G1 X112.232 Y123.899 E277.13943
G1 X113.01 Y123.899 E277.18213
G1 X89.71 Y100.6 E278.99043
G1 X90.488 Y100.6 E279.03312
G1 X113.788 Y123.899 E280.84142
G1 X114.566 Y123.899 E280.88411
G1 X91.266 Y100.6 E282.69241
G1 X92.044 Y100.6 E282.73511
G1 X115.343 Y123.899 E284.54336
G1 X116.121 Y123.899 E284.58606
G1 X92.821 Y100.6 E286.39435
G1 X93.599 Y100.6 E286.43705
G1 X116.899 Y123.899 E288.24535
G1 X117.677 Y123.899 E288.28804
G1 X94.377 Y100.6 E290.09634
G1 X95.155 Y100.6 E290.13904
G1 X118.455 Y123.899 E291.94733
G1 X119.233 Y123.899 E291.99003
G1 X95.933 Y100.6 E293.79832
G1 X96.71 Y100.6 E293.84096
G1 X120.01 Y123.899 E295.64926
G1 X120.788 Y123.899 E295.69196
G1 X97.488 Y100.6 E297.50025
G1 X98.266 Y100.6 E297.54295
G1 X121.566 Y123.899 E299.35125
G1 X122.344 Y123.899 E299.39394
G1 X99.044 Y100.6 E301.20224
G1 X99.822 Y100.6 E301.24493
G1 X123.122 Y123.899 E303.05323
G1 X123.899 Y123.899 E303.09587
G1 X100.6 Y100.6 E304.90413
G1 X101.377 Y100.6 E304.94677
G1 X124.677 Y123.899 E306.75507
G1 X125.455 Y123.899 E306.79776
G1 X102.155 Y100.6 E308.60606
G1 X102.933 Y100.6 E308.64875
G1 X126.233 Y123.899 E310.45705
G1 X127.011 Y123.899 E310.49975
G1 X103.63 Y100.518 E312.31437
G1 X104.281 Y100.392 E312.35076
G1 X127.789 Y123.899 E314.1752
G1 X128.566 Y123.899 E314.21784
G1 X104.866 Y100.199 E316.05722
G1 X105.394 Y99.95 E316.08925
G1 X129.352 Y123.907 E317.94862
G1 X130.101 Y123.879 E317.98975
G1 X105.892 Y99.67 E319.86863
G1 X106.366 Y99.365 E319.89957
G1 X130.742 Y123.742 E321.79145
G1 X131.326 Y123.547 E321.82524
G1 X106.793 Y99.015 E323.72923
G1 X107.162 Y98.606 E323.75946
G1 X131.866 Y123.31 E325.67676
G1 X132.34 Y123.006 E325.70766
G1 X107.526 Y98.193 E327.63346
G1 X107.864 Y97.752 E327.66395
G1 X132.784 Y122.673 E329.59806
G1 X133.166 Y122.277 E329.62825
G1 X108.246 Y97.357 E331.56232
G1 X108.693 Y97.026 E331.59284
G1 X133.51 Y121.842 E333.51887
G1 X133.672 Y121.599 E333.5349
G1 X133.81 Y121.365 E333.54981
G1 X109.171 Y96.726 E335.46207
G1 X109.687 Y96.464 E335.49383
G1 X134.079 Y120.856 E337.38691
G1 X134.256 Y120.255 E337.42129
G1 X110.262 Y96.262 E339.28345
G1 X110.912 Y96.134 E339.31981
G1 X134.379 Y119.6 E341.14107
G1 X134.44 Y118.883 E341.18056
G1 X111.656 Y96.1 E342.94881
G1 X112.434 Y96.1 E342.9915
G1 X134.435 Y118.1 E344.69898
G1 X134.435 Y117.323 E344.74162
G1 X113.212 Y96.1 E346.38876
G1 X113.989 Y96.1 E346.4314
G1 X134.435 Y116.545 E348.0182
G1 X134.435 Y115.767 E348.06089
G1 X114.767 Y96.1 E349.5873
G1 X115.545 Y96.1 E349.63
G1 X134.435 Y114.989 E351.09603
G1 X134.435 Y114.211 E351.13873
G1 X116.323 Y96.1 E352.54438
G1 X117.101 Y96.1 E352.58707
G1 X134.435 Y113.434 E353.93238
G1 X134.435 Y112.656 E353.97508
G1 X117.878 Y96.1 E355.26004
G1 X118.656 Y96.1 E355.30274
G1 X134.435 Y111.878 E356.52732
G1 X134.435 Y111.1 E356.57002
G1 X119.434 Y96.1 E357.73422
G1 X120.212 Y96.1 E357.77692
G1 X134.435 Y110.322 E358.88074
G1 X134.434 Y109.544 E358.92344
G1 X120.99 Y96.1 E359.96684
G1 X121.768 Y96.1 E360.00953
G1 X134.434 Y108.766 E360.99256
G1 X134.434 Y107.988 E361.03525
G1 X122.545 Y96.1 E361.95793
G1 X123.323 Y96.1 E362.00062
