;FLAVOR:Marlin
;TIME:2557
;Filament used: 2.46079m
;Layer height: 0.24
;MINX:94.077
;MINY:94.083
;MINZ:0.288
;MAXX:125.92
;MAXY:125.921
;MAXZ:40.878
;Generated with Cura_SteamEngine 5.2.1
M140 S60
M105
M190 S60
M104 S210
M105
M109 S210
M82 ;absolute extrusion mode
; Ender 3 Custom Start G-code
G92 E0 ; Reset Extruder
G28 ; Home all axes
G1 Z2.0 F3000 ; Move Z Axis up little to prevent scratching of Heat Bed
G1 X0.1 Y20 Z0.3 F5000.0 ; Move to start position
G1 X0.1 Y200.0 Z0.3 F1500.0 E15 ; Draw the first line
G1 X0.4 Y200.0 Z0.3 F5000.0 ; Move to side a little
G1 X0.4 Y20 Z0.3 F1500.0 E30 ; Draw the second line
G92 E0 ; Reset Extruder
G1 Z2.0 F3000 ; Move Z Axis up little to prevent scratching of Heat Bed
G1 X5 Y20 Z0.3 F5000.0 ; Move over to prevent blob squish
G92 E0
G92 E0
G1 F2700 E-5
;LAYER_COUNT:165
;LAYER:-6
M107
G0 F12000 X98.526 Y100.91 Z0.288
;TYPE:SUPPORT-INTERFACE
G1 F2700 E0
G1 F1125 X98.216 Y101.278 E0.06914
G1 X98.062 Y101.489 E0.10667
G1 X97.866 Y101.797 E0.15913
G1 X97.101 Y103.166 E0.38446
G1 X96.954 Y103.454 E0.43092
G1 X96.282 Y104.891 E0.65885
G1 X96.07 Y105.411 E0.73954
G1 X95.904 Y106.058 E0.83551
G1 X95.626 Y107.46 E1.04088
G1 X95.567 Y107.824 E1.09386
G1 X95.374 Y109.429 E1.32614
G1 X95.341 Y109.897 E1.39355
G1 X95.342 Y110.163 E1.43177
G1 X95.381 Y110.698 E1.50884
G1 X95.535 Y111.925 E1.68652
G1 X95.589 Y112.264 E1.73585
G1 X95.944 Y114.076 E2.00115
G1 X96.019 Y114.372 E2.04503
G1 X96.106 Y114.651 E2.08702
G1 X96.304 Y115.142 E2.16309
G1 X96.877 Y116.384 E2.35962
G1 X97.077 Y116.78 E2.42336
G1 X97.815 Y118.111 E2.64204
G1 X98.135 Y118.625 E2.72903
G1 X98.559 Y119.13 E2.82378
G1 X99.578 Y120.216 E3.03775
G1 X99.774 Y120.412 E3.07758
G1 X100.891 Y121.459 E3.29756
G1 X101.247 Y121.759 E3.36445
G1 X101.473 Y121.923 E3.40457
G1 X101.914 Y122.2 E3.4794
G1 X103.309 Y122.976 E3.70876
G1 X103.622 Y123.134 E3.75914
G1 X104.87 Y123.718 E3.95712
G1 X105.421 Y123.942 E4.04258
G1 X106.071 Y124.108 E4.13897
G1 X107.482 Y124.382 E4.3455
G1 X107.851 Y124.44 E4.39917
G1 X109.361 Y124.623 E4.61772
G1 X109.839 Y124.657 E4.68657
G1 X110.104 Y124.656 E4.72465
G1 X110.647 Y124.616 E4.80288
G1 X112.379 Y124.399 E5.05369
G1 X112.714 Y124.343 E5.10249
G1 X114.073 Y124.071 E5.30163
G1 X114.363 Y123.997 E5.34463
G1 X114.631 Y123.912 E5.38503
G1 X115.123 Y123.715 E5.46118
G1 X116.455 Y123.098 E5.6721
G1 X116.784 Y122.929 E5.72524
G1 X118.226 Y122.123 E5.9626
G1 X118.492 Y121.951 E6.00812
G1 X118.705 Y121.798 E6.0458
G1 X119.11 Y121.462 E6.12141
G1 X120.263 Y120.389 E6.34772
G1 X120.533 Y120.115 E6.40299
G1 X121.502 Y119.063 E6.6085
G1 X121.79 Y118.718 E6.67307
G1 X121.946 Y118.503 E6.71124
G1 X122.22 Y118.067 E6.78523
G1 X122.985 Y116.679 E7.01294
G1 X123.72 Y115.099 E7.26333
G1 X123.891 Y114.68 E7.32835
G1 X123.974 Y114.423 E7.36716
G1 X124.1 Y113.924 E7.4411
G1 X124.372 Y112.525 E7.64588
G1 X124.414 Y112.258 E7.68472
G1 X124.623 Y110.53 E7.93481
G1 X124.657 Y110.054 E8.00338
G1 X124.657 Y109.917 E8.02306
G1 X124.656 Y109.788 E8.0416
G1 X124.618 Y109.27 E8.11623
G1 X124.451 Y107.953 E8.30697
G1 X124.402 Y107.639 E8.35264
G1 X124.079 Y105.994 E8.59351
G1 X123.969 Y105.545 E8.65993
G1 X123.891 Y105.304 E8.69633
G1 X123.701 Y104.835 E8.76904
G1 X123.093 Y103.537 E8.97498
G1 X122.939 Y103.238 E9.02331
G1 X122.126 Y101.787 E9.26229
G1 X121.955 Y101.521 E9.30773
G1 X121.806 Y101.314 E9.34437
G1 X121.459 Y100.896 E9.42243
G1 X120.505 Y99.865 E9.62426
G1 X120.173 Y99.53 E9.69203
G1 X119.06 Y98.499 E9.91001
G1 X118.633 Y98.144 E9.9898
G1 X118.081 Y97.796 E10.08356
G1 X116.728 Y97.042 E10.30611
G1 X116.424 Y96.888 E10.35508
G1 X115.155 Y96.297 E10.55622
G1 X114.691 Y96.108 E10.62821
G1 X114.444 Y96.03 E10.66542
G1 X113.943 Y95.903 E10.73969
G1 X112.456 Y95.616 E10.95729
G1 X111.996 Y95.543 E11.02421
G1 X110.659 Y95.381 E11.21772
G1 X110.176 Y95.347 E11.28729
G1 X109.912 Y95.348 E11.32522
G1 X109.384 Y95.386 E11.40128
G1 X107.635 Y95.605 E11.65455
G1 X106.025 Y95.914 E11.8901
G1 X105.59 Y96.021 E11.95447
G1 X105.321 Y96.105 E11.99496
G1 X104.836 Y96.301 E12.07012
G1 X103.587 Y96.882 E12.26805
G1 X103.261 Y97.049 E12.32068
G1 X101.761 Y97.89 E12.56777
G1 X101.505 Y98.053 E12.61137
G1 X101.298 Y98.202 E12.64802
G1 X100.891 Y98.54 E12.72404
G1 X99.857 Y99.5 E12.92677
G1 X99.619 Y99.734 E12.97472
G1 X98.526 Y100.91 E13.20541
G0 F12000 X98.509 Y101.903
G1 F1125 X118.096 Y121.49 E17.18548
G0 F12000 X119.901 Y119.901
G1 F1125 X100.101 Y100.101 E21.20883
G0 F12000 X101.904 Y98.51
G1 F1125 X121.492 Y118.098 E25.1891
G0 F12000 X122.686 Y115.898
G1 F1125 X104.095 Y97.307 E28.96678
G0 F12000 X106.597 Y96.415
G1 F1125 X123.588 Y113.406 E32.41935
G0 F12000 X124.026 Y110.45
G1 F1125 X109.552 Y95.975 E35.36056
G0 F12000 X113.375 Y96.404
G1 F1125 X123.589 Y106.618 E37.43604
G1 F2700 E32.43604
G0 F12000 X125.422 Y106.258
G0 X125.704 Y107.782
G0 X125.92 Y109.745
G0 X125.882 Y110.658
G0 X125.603 Y112.828
G0 X125.185 Y114.79
G0 X124.881 Y115.604
G0 X124.022 Y117.421
G0 X122.994 Y119.214
G0 X122.449 Y119.901
G0 X121.061 Y121.378
G0 X119.479 Y122.8
G0 X117.314 Y124.08
G0 X115.902 Y122.69
G1 F2700 E37.43604
G1 F1125 X97.312 Y104.1 E41.21352
G0 F12000 X96.409 Y106.591
G1 F1125 X113.409 Y123.591 E44.66791
G0 F12000 X110.451 Y124.027
G1 F1125 X95.967 Y109.543 E47.61105
G0 F12000 X96.421 Y113.392
G1 F1125 X106.634 Y123.605 E49.68633
G1 F2700 E44.68633
G0 F300 X106.634 Y123.605 Z0.648
G0 F12000 X107.264 Y125.629
G0 X109.799 Y125.921
G0 X110.78 Y125.874
G0 X112.945 Y125.588
G0 X114.727 Y125.21
G0 X114.983 Y125.115
G0 X116.961 Y124.257
G0 X116.559 Y122.482
;TIME_ELAPSED:26.083271
;LAYER:-5
;TYPE:SUPPORT
G1 F2700 E49.68633
G1 F1125 X117.885 Y121.743 E49.93625
G1 X118.306 Y121.48 E50.01798
G1 X118.774 Y121.091 E50.11817
G1 X119.849 Y120.094 E50.35956
G1 X120.081 Y119.863 E50.41346
G1 X121.132 Y118.725 E50.66849
G1 X121.385 Y118.424 E50.73323
G1 X121.535 Y118.217 E50.77532
G1 X121.792 Y117.806 E50.85512
G1 X122.518 Y116.483 E51.10358
G1 X116.454 Y122.547 E52.51548
G1 X114.767 Y123.323 E52.8212
G1 X114.346 Y123.484 E52.8954
G1 X113.939 Y123.59 E52.96465
G1 X113.482 Y123.681 E53.04136
G1 X123.674 Y113.489 E55.4144
G1 X123.869 Y112.493 E55.58149
G1 X123.921 Y112.166 E55.636
G1 X124.025 Y111.299 E55.77977
G1 X111.293 Y124.031 E58.74419
G1 X110.602 Y124.117 E58.85884
G1 X109.965 Y124.164 E58.96399
G1 X109.365 Y124.121 E59.06303
G1 X124.121 Y109.364 E62.49883
G1 X123.953 Y108.007 E62.72395
G1 X123.91 Y107.737 E62.76896
G1 X107.731 Y123.916 E66.53596
G1 X106.188 Y123.621 E66.7946
G1 X123.615 Y106.194 E70.85218
G1 X123.461 Y105.578 E70.95671
G1 X123.154 Y104.816 E71.09197
G1 X104.827 Y123.144 E75.35921
G1 X103.835 Y122.68 E75.53951
G1 X103.579 Y122.552 E75.58664
G1 X122.553 Y103.579 E80.00429
G1 X121.896 Y102.397 E80.22693
G1 X102.396 Y121.897 E84.76717
G1 X102.147 Y121.758 E84.81412
G1 X101.771 Y121.52 E84.88739
G1 X101.539 Y121.352 E84.93454
G1 X101.302 Y121.152 E84.9856
G1 X121.15 Y101.305 E89.60675
G1 X120.27 Y100.346 E89.82104
G1 X100.349 Y120.267 E94.4593
G1 X99.923 Y119.855 E94.55687
G1 X99.439 Y119.339 E94.67335
G1 X119.339 Y99.439 E99.30672
G1 X118.714 Y98.862 E99.44676
G1 X118.367 Y98.572 E99.52122
G1 X98.566 Y118.373 E104.13154
G1 X98.26 Y117.882 E104.22679
G1 X97.889 Y117.212 E104.35288
G1 X117.216 Y97.885 E108.85284
G1 X116.484 Y97.478 E108.99073
G1 X116.014 Y97.249 E109.07681
G1 X97.254 Y116.009 E113.44475
G1 X96.674 Y114.75 E113.67297
G1 X114.752 Y96.672 E117.88212
G1 X114.419 Y96.537 E117.94128
G1 X113.839 Y96.392 E118.03971
G1 X113.299 Y96.287 E118.13028
G1 X96.298 Y113.288 E122.08867
G1 X96.077 Y112.161 E122.27775
G1 X96.014 Y111.733 E122.34897
G1 X111.732 Y96.015 E126.00864
G1 X110.619 Y95.88 E126.19322
G1 X110.071 Y95.838 E126.28371
G1 X95.827 Y110.082 E129.60018
G1 X95.873 Y109.46 E129.70286
G1 X96.044 Y108.026 E129.94063
G1 X108.009 Y96.061 E132.72647
G1 X107.693 Y96.102 E132.77893
G1 X106.127 Y96.4 E133.04138
G1 X105.734 Y96.498 E133.10807
G1 X96.503 Y105.728 E135.25723
G1 X96.543 Y105.574 E135.28342
G1 X96.735 Y105.098 E135.36793
G1 X97.394 Y103.688 E135.62417
G1 X97.541 Y103.399 E135.67755
G1 X98.287 Y102.063 E135.92947
G1 X98.466 Y101.783 E135.98419
G1 X98.618 Y101.575 E136.0266
G1 X98.894 Y101.249 E136.09693
G1 X99.871 Y100.191 E136.33402
G1 X100.15 Y99.908 E136.39945
G1 X101.205 Y98.928 E136.63652
G1 X101.689 Y98.525 E136.74021
G1 X102.162 Y98.231 E136.8319
G1 X98.231 Y102.162 E137.74716
G1 F2700 E132.74716
G0 F300 X98.231 Y102.162 Z0.888
G0 F12000 X96.784 Y101.14
G0 X97.583 Y100.069
G0 X98.984 Y98.583
G0 X100.524 Y97.201
G0 X101.245 Y96.726
G0 X103.131 Y95.696
G0 X104.895 Y94.914
G0 X105.76 Y94.675
G0 X107.633 Y94.33
G0 X109.867 Y94.083
G0 X110.788 Y94.123
G0 X112.681 Y94.371
G0 X114.795 Y94.813
G0 X115.666 Y95.14
G0 X116.638 Y95.604
G0 X118.333 Y96.488
G0 X117.476 Y98.031
;TIME_ELAPSED:56.297675
;LAYER:-4
;TYPE:SUPPORT-INTERFACE
G1 F2700 E137.74716
G1 F1500 X121.966 Y102.52 E138.0956
G1 X121.746 Y102.128 E138.12027
G1 X121.48 Y101.702 E138.14783
G1 X121.089 Y101.232 E138.18138
G1 X120.137 Y100.202 E138.25835
G1 X119.825 Y99.888 E138.28265
G1 X118.714 Y98.862 E138.36564
G1 X118.334 Y98.545 E138.3928
G1 X117.832 Y98.229 E138.42535
G1 X116.484 Y97.478 E138.51003
G1 X116.245 Y97.357 E138.52473
G1 X115.832 Y97.164 E138.54975
G1 X122.837 Y104.17 E139.09345
G1 X123.245 Y105.042 E139.14629
G1 X123.457 Y105.567 E139.17736
G1 X114.433 Y96.544 E139.87768
G1 X113.839 Y96.392 E139.91133
G1 X113.424 Y96.312 E139.93453
G1 X123.683 Y106.571 E140.73074
G1 X123.873 Y107.539 E140.78487
G1 X112.459 Y96.125 E141.67072
G1 X112.064 Y96.056 E141.69273
G1 X111.551 Y95.994 E141.72109
G1 X124.009 Y108.453 E142.688
G1 X124.119 Y109.341 E142.73711
G1 X110.664 Y95.885 E143.7814
G1 X110.051 Y95.837 E143.81515
G1 X109.853 Y95.852 E143.82604
G1 X124.148 Y110.147 E144.93549
G1 X124.122 Y110.493 E144.95453
G1 X124.079 Y110.856 E144.97459
G1 X109.142 Y95.919 E146.13387
G1 X108.451 Y96.006 E146.17209
G1 X123.996 Y111.551 E147.37855
G1 X123.909 Y112.242 E147.41677
G1 X107.76 Y96.093 E148.67011
G1 X107.104 Y96.214 E148.70672
G1 X123.79 Y112.9 E150.00174
G1 X123.663 Y113.551 E150.03814
G1 X106.45 Y96.339 E151.37401
G1 X106.127 Y96.4 E151.39205
G1 X105.812 Y96.479 E151.40988
G1 X123.518 Y114.184 E152.78402
G1 X123.46 Y114.409 E152.79677
G1 X123.318 Y114.762 E152.81765
G1 X105.226 Y96.67 E154.22179
G1 X104.695 Y96.917 E154.25393
G1 X123.076 Y115.298 E155.68049
G1 X122.829 Y115.829 E155.71263
G1 X104.164 Y97.164 E157.16124
G1 X103.633 Y97.41 E157.19336
G1 X122.581 Y116.359 E158.66397
G1 X122.463 Y116.592 E158.6783
G1 X122.311 Y116.867 E158.69554
G1 X103.135 Y97.691 E160.18381
G1 X102.635 Y97.968 E160.21518
G1 X122.035 Y117.368 E161.72083
G1 X121.755 Y117.866 E161.75219
G1 X102.136 Y98.247 E163.27484
G1 X101.66 Y98.549 E163.30577
G1 X121.454 Y118.342 E164.84196
G1 X121.097 Y118.764 E164.8723
G1 X101.236 Y98.903 E166.41373
G1 X100.832 Y99.276 E166.44391
G1 X120.724 Y119.168 E167.98774
G1 X120.35 Y119.573 E168.018
G1 X100.428 Y99.65 E169.5642
G1 X100.024 Y100.024 E169.59441
G1 X119.976 Y119.976 E171.14291
G1 X119.572 Y120.35 E171.17312
G1 X99.651 Y100.428 E172.71925
G1 X99.277 Y100.833 E172.7495
G1 X119.169 Y120.725 E174.29334
G1 X118.764 Y121.098 E174.32355
G1 X98.904 Y101.237 E175.86494
G1 X98.547 Y101.658 E175.89524
G1 X118.345 Y121.456 E177.43178
G1 X117.864 Y121.753 E177.4628
G1 X98.246 Y102.135 E178.98537
G1 X97.967 Y102.634 E179.01675
G1 X117.365 Y122.032 E180.52224
G1 X116.866 Y122.311 E180.55362
G1 X97.689 Y103.134 E182.04196
G1 X97.541 Y103.399 E182.05862
G1 X97.418 Y103.64 E182.07347
G1 X116.361 Y122.584 E183.54369
G1 X115.832 Y122.832 E183.57576
G1 X97.169 Y104.169 E185.02421
G1 X96.921 Y104.699 E185.05632
G1 X115.3 Y123.078 E186.48273
G1 X114.767 Y123.323 E186.51493
G1 X96.679 Y105.235 E187.91875
G1 X96.543 Y105.574 E187.9388
G1 X96.481 Y105.814 E187.9524
G1 X114.19 Y123.524 E189.32685
G1 X113.939 Y123.59 E189.3411
G1 X113.554 Y123.666 E189.36263
G1 X96.335 Y106.447 E190.69901
G1 X96.207 Y107.096 E190.73532
G1 X112.905 Y123.795 E192.0313
G1 X112.631 Y123.85 E192.04664
G1 X112.244 Y123.911 E192.06814
G1 X96.084 Y107.751 E193.32233
G1 X95.994 Y108.439 E193.36041
G1 X111.553 Y123.998 E194.56796
G1 X110.861 Y124.084 E194.60623
G1 X95.911 Y109.134 E195.76651
G1 X95.873 Y109.46 E195.78452
G1 X95.844 Y109.845 E195.80571
G1 X110.149 Y124.15 E196.91594
G1 X109.965 Y124.164 E196.92606
G1 X109.338 Y124.117 E196.96057
G1 X95.878 Y110.657 E198.00521
G1 X95.99 Y111.546 E198.05439
G1 X108.451 Y124.008 E199.02154
G1 X107.86 Y123.936 E199.05421
G1 X107.551 Y123.885 E199.0714
G1 X96.137 Y112.471 E199.95725
G1 X96.326 Y113.438 E200.01132
G1 X106.585 Y123.697 E200.80753
G1 X106.162 Y123.615 E200.83118
G1 X105.573 Y123.463 E200.86456
G1 X96.567 Y114.457 E201.56352
G1 X96.758 Y114.932 E201.59162
G1 X97.178 Y115.846 E201.64682
G1 X104.168 Y122.836 E202.18932
G1 X103.535 Y122.53 E202.22791
G1 X102.147 Y121.758 E202.31507
G1 X101.771 Y121.52 E202.33949
G1 X101.539 Y121.352 E202.35521
G1 X101.232 Y121.092 E202.37729
G1 X100.119 Y120.051 E202.46092
G1 X99.923 Y119.855 E202.47613
G1 X98.929 Y118.795 E202.55588
G1 X98.534 Y118.322 E202.5897
G1 X98.26 Y117.882 E202.61815
G1 X98.04 Y117.485 E202.64305
G1 X102.519 Y121.965 E202.99071
G1 F2700 E197.99071
G0 F300 X102.519 Y121.965 Z1.128
G0 F12000 X101.662 Y123.507
G0 X100.47 Y122.757
G0 X98.593 Y121.019
G0 X97.221 Y119.502
G0 X96.722 Y118.748
G0 X95.735 Y116.93
G0 X94.914 Y115.075
G0 X94.68 Y114.223
G0 X94.273 Y112.036
G0 X94.078 Y110.208
G0 X94.115 Y109.302
G0 X94.382 Y107.231
G0 X94.821 Y105.186
G0 X95.125 Y104.379
G0 X95.984 Y102.571
G0 X97.017 Y100.775
G0 X97.583 Y100.069
G0 X98.984 Y98.583
G0 X100.231 Y97.465
G0 X101.104 Y96.809
G0 X102.148 Y98.239
;TIME_ELAPSED:107.297076
;LAYER:-3
;TYPE:SUPPORT-INTERFACE
G1 F2700 E202.99071
G1 F1500 X101.689 Y98.525 E203.02039
G1 X101.205 Y98.928 E203.05496
G1 X100.15 Y99.908 E203.13398
G1 X99.871 Y100.191 E203.15579
G1 X98.894 Y101.249 E203.23482
G1 X98.618 Y101.575 E203.25826
G1 X98.466 Y101.783 E203.2724
G1 X98.287 Y102.063 E203.29064
G1 X97.875 Y102.801 E203.33702
G1 X102.799 Y97.877 E203.71918
G1 X103.485 Y97.495 E203.76227
G1 X103.8 Y97.333 E203.78171
G1 X104.4 Y97.053 E203.81804
G1 X97.068 Y104.386 E204.38713
G1 X96.735 Y105.098 E204.43026
G1 X96.543 Y105.574 E204.45843
G1 X96.503 Y105.728 E204.46716
G1 X105.734 Y96.498 E205.18355
G1 X106.127 Y96.4 E205.20578
G1 X106.723 Y96.286 E205.23908
G1 X96.28 Y106.729 E206.04957
G1 X96.094 Y107.693 E206.10345
G1 X107.684 Y96.103 E207.00296
G1 X108.575 Y95.99 E207.05225
G1 X95.977 Y108.588 E208.02999
G1 X95.872 Y109.471 E208.07879
G1 X109.462 Y95.88 E209.13356
G1 X110.051 Y95.837 E209.16597
G1 X110.268 Y95.853 E209.17791
G1 X95.851 Y110.27 E210.29683
G1 X95.876 Y110.639 E210.31713
G1 X95.919 Y110.979 E210.33593
G1 X110.976 Y95.923 E211.50448
G1 X111.669 Y96.008 E211.5428
G1 X96.006 Y111.67 E212.75838
G1 X96.104 Y112.35 E212.79608
G1 X112.35 Y96.104 E214.05695
G1 X113.002 Y96.23 E214.0934
G1 X96.24 Y112.992 E215.39431
G1 X96.367 Y113.643 E215.43071
G1 X113.662 Y96.348 E216.77299
G1 X114.284 Y96.503 E216.80817
G1 X96.499 Y114.289 E218.18852
G1 X96.723 Y114.843 E218.22131
G1 X114.852 Y96.713 E219.62836
G1 X115.387 Y96.957 E219.66063
G1 X96.964 Y115.379 E221.09042
G1 X97.209 Y115.912 E221.12261
G1 X115.918 Y97.203 E222.57463
G1 X116.442 Y97.456 E222.60657
G1 X97.463 Y116.436 E224.07958
G1 X97.738 Y116.939 E224.11104
G1 X116.943 Y97.734 E225.60156
G1 X117.443 Y98.012 E225.63296
G1 X98.015 Y117.439 E227.14074
G1 X98.295 Y117.937 E227.1721
G1 X117.938 Y98.294 E228.69661
G1 X118.414 Y98.596 E228.72755
G1 X98.605 Y118.405 E230.26494
G1 X98.961 Y118.827 E230.29524
G1 X118.825 Y98.963 E231.8369
G1 X119.229 Y99.337 E231.86712
G1 X99.337 Y119.229 E233.41095
G1 X99.713 Y119.631 E233.44116
G1 X119.633 Y99.71 E234.98721
G1 X119.825 Y99.888 E235.00158
G1 X120.028 Y100.093 E235.01741
G1 X100.095 Y120.027 E236.56447
G1 X100.496 Y120.404 E236.59467
G1 X120.406 Y100.494 E238.13991
G1 X120.779 Y100.898 E238.17008
G1 X100.897 Y120.78 E239.71315
G1 X101.302 Y121.152 E239.74332
G1 X121.15 Y101.305 E241.28371
G1 X121.503 Y101.73 E241.31403
